; #disp params :
; Printmode:0
; Layer:20
; Xmin:89.764 mm
; Xmax:170.038 mm
; XDimension:80.274 mm
; Ymin:59.972 mm
; Ymax:140.104 mm
; YDimension:80.132 mm
; Zmax:5 mm
; E0diam:0.4 mm
; E0len:4.58873 m
; E0temp:215 C
; Bedtemp:215 C
; Time:50.3318 min
; #params end
; GCode generated by CraftWare

G28 X Y ; home horizontally
G28 Z ; home vertically


M104 S215 ;set head temp (no wait)
M190 S60 ;set bed temp (wait)
M109 S215 ;set head temp (wait)

; ------------------------------------
; Raft Layer #0
; ------------------------------------
M106 S0 ;turn off fan
G21 ; mm
G90 ; abs
G92 E0 ;reset extr
G0 F600 Z0.300
;segType:Raft
G0 F3000 E-1.00000
G0 F600 Z2.300
G0 X102.867 Y129.847 F5400
G0 F600 Z0.300
G0 F3000 E0.00000
G1 X99.161 Y126.141 E0.26148 F600
G1 X98.962 Y125.810 E0.28075
G1 X98.433 Y125.280 E0.31810
G1 X98.234 Y124.949 E0.33733
G1 X97.970 Y124.685 E0.35601
G1 X97.771 Y124.354 E0.37528
G1 X97.241 Y123.824 E0.41264
G1 X96.844 Y123.162 E0.45114
G1 X96.315 Y122.633 E0.48849
G1 X93.933 Y118.662 E0.71951
G1 X93.800 Y118.265 E0.74040
G1 X93.535 Y118.001 E0.75907
G1 X93.403 Y117.603 E0.77995
G1 X93.271 Y117.471 E0.78929
G1 X93.271 Y117.206 E0.80250
G1 X93.073 Y116.876 E0.82173
G1 X92.940 Y116.479 E0.84261
G1 X92.741 Y116.148 E0.86188
G1 X92.741 Y115.883 E0.87509
G1 X92.543 Y115.552 E0.89432
G1 X92.411 Y115.155 E0.91521
G1 X92.212 Y114.824 E0.93448
G1 X92.212 Y114.559 E0.94768
G1 X92.014 Y114.229 E0.96692
G1 X91.881 Y113.832 E0.98780
G1 X91.683 Y113.500 E1.00707
G1 X91.683 Y113.236 E1.02027
G1 X91.484 Y112.905 E1.03951
G1 X91.418 Y112.442 E1.06287
G1 X91.285 Y112.309 E1.07221
G1 X91.285 Y111.780 E1.09862
G1 X91.153 Y111.647 E1.10796
G1 X91.021 Y110.721 E1.15465
G1 X90.888 Y110.324 E1.17553
G1 X90.888 Y110.059 E1.18874
G1 X90.756 Y109.927 E1.19808
G1 X90.624 Y109.000 E1.24477
G1 X90.491 Y108.603 E1.26565
G1 X90.491 Y108.338 E1.27886
G1 X90.359 Y108.206 E1.28820
G1 X90.227 Y107.280 E1.33489
G1 X90.227 Y105.956 E1.40092
G1 X90.094 Y105.824 E1.41026
G1 X90.094 Y104.235 E1.48950
G1 X89.962 Y104.103 E1.49884
G1 X89.962 Y103.044 E1.55166
G1 X89.830 Y102.118 E1.59836
G1 X89.830 Y97.882 E1.80966
G1 X89.962 Y97.485 E1.83054
G1 X89.962 Y96.426 E1.88337
G1 X90.094 Y95.500 E1.93006
G1 X90.094 Y94.176 E1.99610
G1 X90.227 Y94.044 E2.00543
G1 X90.227 Y92.456 E2.08467
G1 X90.359 Y92.323 E2.09401
G1 X90.491 Y91.397 E2.14070
G1 X90.624 Y91.264 E2.15004
G1 X90.624 Y90.735 E2.17646
G1 X90.756 Y90.603 E2.18579
G1 X90.756 Y90.073 E2.21221
G1 X90.888 Y89.941 E2.22155
G1 X91.021 Y89.014 E2.26824
G1 X91.153 Y88.882 E2.27758
G1 X91.153 Y88.353 E2.30399
G1 X91.285 Y88.220 E2.31333
G1 X91.418 Y87.294 E2.36002
G1 X91.815 Y86.632 E2.39853
G1 X91.815 Y86.367 E2.41173
G1 X91.947 Y86.235 E2.42107
G1 X91.947 Y85.970 E2.43428
G1 X92.146 Y85.639 E2.45355
G1 X92.278 Y85.242 E2.47443
G1 X92.477 Y84.911 E2.49366
G1 X92.477 Y84.647 E2.50687
G1 X92.675 Y84.315 E2.52614
G1 X92.940 Y83.521 E2.56790
G1 X93.138 Y83.191 E2.58713
G1 X93.138 Y82.926 E2.60034
G1 X93.535 Y82.264 E2.63884
G1 X93.668 Y81.867 E2.65973
G1 X93.933 Y81.602 E2.67840
G1 X94.065 Y81.205 E2.69928
G1 X96.249 Y77.565 E2.91107
G1 X96.514 Y77.301 E2.92975
G1 X96.712 Y76.970 E2.94898
G1 X96.977 Y76.705 E2.96766
G1 X97.176 Y76.374 E2.98693
G1 X97.440 Y76.109 E3.00561
G1 X97.639 Y75.779 E3.02484
G1 X98.168 Y75.249 E3.06219
G1 X98.367 Y74.918 E3.08146
G1 X98.631 Y74.653 E3.10014
G1 X98.830 Y74.323 E3.11937
G1 X103.065 Y70.087 E3.41821
G1 X103.330 Y69.823 E3.43688
G1 X103.661 Y69.624 E3.45615
G1 X105.249 Y68.036 E3.56821
G1 X105.580 Y67.837 E3.58745
G1 X105.845 Y67.573 E3.60612
G1 X106.506 Y67.176 E3.64463
G1 X106.771 Y66.911 E3.66330
G1 X107.764 Y66.315 E3.72108
G1 X108.029 Y66.050 E3.73976
G1 X108.691 Y65.653 E3.77826
G1 X108.955 Y65.388 E3.79694
G1 X110.279 Y64.594 E3.87394
G1 X110.411 Y64.462 E3.88328
G1 X110.676 Y64.462 E3.89649
G1 X111.338 Y64.065 E3.93499
G1 X111.735 Y63.933 E3.95587
G1 X112.397 Y63.536 E3.99438
G1 X112.794 Y63.403 E4.01526
G1 X113.455 Y63.006 E4.05376
G1 X113.852 Y62.874 E4.07464
G1 X114.183 Y62.675 E4.09388
G1 X114.580 Y62.543 E4.11476
G1 X114.911 Y62.344 E4.13403
G1 X115.176 Y62.344 E4.14723
G1 X115.308 Y62.212 E4.15657
G1 X115.573 Y62.212 E4.16978
G1 X115.705 Y62.080 E4.17912
G1 X116.168 Y62.014 E4.20245
G1 X116.963 Y61.749 E4.24421
G1 X117.426 Y61.683 E4.26757
G1 X117.558 Y61.550 E4.27691
G1 X117.823 Y61.550 E4.29012
G1 X117.956 Y61.418 E4.29946
G1 X118.220 Y61.418 E4.31266
G1 X118.353 Y61.285 E4.32200
G1 X118.617 Y61.285 E4.33521
G1 X118.750 Y61.153 E4.34455
G1 X119.213 Y61.087 E4.36788
G1 X119.610 Y60.955 E4.38876
G1 X120.073 Y60.888 E4.41212
G1 X120.206 Y60.756 E4.42146
G1 X121.000 Y60.756 E4.46108
G1 X121.132 Y60.624 E4.47042
G1 X121.926 Y60.624 E4.51004
G1 X122.059 Y60.491 E4.51938
G1 X122.588 Y60.491 E4.54579
G1 X122.985 Y60.359 E4.56667
G1 X123.515 Y60.359 E4.59308
G1 X123.912 Y60.227 E4.61396
G1 X124.441 Y60.227 E4.64038
G1 X124.573 Y60.094 E4.64972
G1 X133.044 Y60.094 E5.07233
G1 X135.162 Y60.094 E5.17798
G1 X135.294 Y60.227 E5.18732
G1 X136.088 Y60.227 E5.22694
G1 X136.221 Y60.359 E5.23628
G1 X137.015 Y60.359 E5.27590
G1 X137.147 Y60.491 E5.28523
G1 X137.677 Y60.491 E5.31165
G1 X138.074 Y60.624 E5.33253
G1 X138.603 Y60.624 E5.35894
G1 X139.000 Y60.756 E5.37982
G1 X139.530 Y60.756 E5.40624
G1 X139.662 Y60.888 E5.41558
G1 X140.191 Y60.888 E5.44199
G1 X140.324 Y61.021 E5.45133
G1 X140.787 Y61.087 E5.47469
G1 X141.979 Y61.484 E5.53733
G1 X142.442 Y61.550 E5.56066
G1 X142.574 Y61.683 E5.57000
G1 X142.839 Y61.683 E5.58321
G1 X142.971 Y61.815 E5.59255
G1 X143.236 Y61.815 E5.60575
G1 X143.368 Y61.947 E5.61509
G1 X143.633 Y61.947 E5.62830
G1 X143.765 Y62.080 E5.63764
G1 X144.229 Y62.146 E5.66100
G1 X145.023 Y62.411 E5.70276
G1 X145.353 Y62.609 E5.72199
G1 X146.148 Y62.874 E5.76376
G1 X146.809 Y63.271 E5.80226
G1 X147.206 Y63.403 E5.82314
G1 X147.868 Y63.800 E5.86165
G1 X148.265 Y63.933 E5.88253
G1 X148.927 Y64.330 E5.92103
G1 X149.721 Y64.594 E5.96279
G1 X149.986 Y64.859 E5.98147
G1 X150.979 Y65.455 E6.03924
G1 X151.244 Y65.720 E6.05792
G1 X152.236 Y66.315 E6.11566
G1 X152.501 Y66.580 E6.13433
G1 X153.824 Y67.374 E6.21134
G1 X154.618 Y68.168 E6.26737
G1 X154.949 Y68.367 E6.28664
G1 X156.008 Y69.426 E6.36135
G1 X156.339 Y69.624 E6.38058
G1 X160.574 Y73.859 E6.67941
G1 X160.839 Y74.124 E6.69809
G1 X161.038 Y74.455 E6.71736
G1 X161.567 Y74.985 E6.75472
G1 X161.766 Y75.315 E6.77395
G1 X162.030 Y75.580 E6.79263
G1 X162.229 Y75.911 E6.81190
G1 X162.759 Y76.441 E6.84925
G1 X163.156 Y77.102 E6.88775
G1 X163.685 Y77.632 E6.92511
G1 X164.876 Y79.617 E7.04062
G1 X165.009 Y80.014 E7.06150
G1 X165.273 Y80.279 E7.08018
G1 X165.406 Y80.676 E7.10106
G1 X165.670 Y80.941 E7.11973
G1 X165.803 Y81.338 E7.14062
G1 X166.597 Y82.661 E7.21762
G1 X166.597 Y82.926 E7.23083
G1 X166.994 Y83.588 E7.26933
G1 X166.994 Y83.853 E7.28254
G1 X167.192 Y84.183 E7.30177
G1 X167.325 Y84.580 E7.32266
G1 X167.523 Y84.911 E7.34193
G1 X167.523 Y85.176 E7.35513
G1 X167.722 Y85.507 E7.37437
G1 X167.986 Y86.301 E7.41613
G1 X168.185 Y86.632 E7.43540
G1 X168.185 Y86.897 E7.44861
G1 X168.383 Y87.227 E7.46784
G1 X168.450 Y87.691 E7.49120
G1 X168.582 Y87.823 E7.50054
G1 X168.715 Y88.750 E7.54723
G1 X168.847 Y89.147 E7.56811
G1 X168.847 Y89.411 E7.58132
G1 X168.979 Y89.544 E7.59066
G1 X168.979 Y90.073 E7.61707
G1 X169.112 Y90.206 E7.62641
G1 X169.244 Y91.132 E7.67310
G1 X169.376 Y91.264 E7.68244
G1 X169.376 Y91.794 E7.70885
G1 X169.509 Y91.926 E7.71819
G1 X169.641 Y92.853 E7.76488
G1 X169.641 Y94.176 E7.83092
G1 X169.773 Y94.309 E7.84025
G1 X169.773 Y95.897 E7.91949
G1 X169.906 Y96.029 E7.92883
G1 X169.906 Y97.088 E7.98166
G1 X170.038 Y98.015 E8.02835
G1 X170.038 Y102.250 E8.23966
G1 X169.906 Y102.647 E8.26054
G1 X169.906 Y103.706 E8.31337
G1 X169.773 Y104.632 E8.36006
G1 X169.773 Y105.956 E8.42609
G1 X169.641 Y106.088 E8.43543
G1 X169.641 Y107.147 E8.48825
G1 X169.509 Y108.074 E8.53495
G1 X169.376 Y108.471 E8.55583
G1 X169.376 Y108.736 E8.56904
G1 X169.244 Y108.868 E8.57837
G1 X169.244 Y109.397 E8.60479
G1 X169.112 Y109.530 E8.61413
G1 X168.979 Y110.456 E8.66082
G1 X168.847 Y110.853 E8.68170
G1 X168.847 Y111.118 E8.69491
G1 X168.715 Y111.250 E8.70424
G1 X168.582 Y112.177 E8.75094
G1 X168.185 Y113.368 E8.81358
G1 X168.053 Y113.500 E8.82292
G1 X168.053 Y113.765 E8.83613
G1 X167.854 Y114.096 E8.85540
G1 X167.722 Y114.493 E8.87628
G1 X167.523 Y114.824 E8.89551
G1 X167.523 Y115.089 E8.90872
G1 X167.391 Y115.221 E8.91806
G1 X167.391 Y115.486 E8.93126
G1 X167.192 Y115.817 E8.95053
G1 X167.060 Y116.214 E8.97141
G1 X166.862 Y116.545 E8.99065
G1 X166.862 Y116.809 E9.00385
G1 X166.663 Y117.140 E9.02312
G1 X166.530 Y117.538 E9.04401
G1 X165.935 Y118.530 E9.10174
G1 X165.803 Y118.927 E9.12262
G1 X163.619 Y122.567 E9.33441
G1 X163.354 Y122.832 E9.35309
G1 X163.156 Y123.162 E9.37232
G1 X162.626 Y123.692 E9.40968
G1 X162.427 Y124.023 E9.42895
G1 X162.163 Y124.288 E9.44762
G1 X161.964 Y124.618 E9.46686
G1 X161.435 Y125.148 E9.50421
G1 X161.236 Y125.479 E9.52348
G1 X160.971 Y125.744 E9.54216
G1 X160.773 Y126.074 E9.56139
G1 X157.067 Y129.780 E9.82287
G1 X156.736 Y129.979 E9.84214
G1 X155.148 Y131.567 E9.95420
G1 X154.817 Y131.766 E9.97343
G1 X154.023 Y132.560 E10.02947
G1 X153.030 Y133.156 E10.08724
G1 X152.765 Y133.420 E10.10592
G1 X151.773 Y134.016 E10.16365
G1 X151.508 Y134.280 E10.18233
G1 X150.515 Y134.876 E10.24010
G1 X150.251 Y135.141 E10.25878
G1 X149.589 Y135.538 E10.29728
G1 X149.192 Y135.670 E10.31816
G1 X148.530 Y136.067 E10.35667
G1 X148.133 Y136.200 E10.37755
G1 X147.471 Y136.597 E10.41605
G1 X147.206 Y136.597 E10.42926
G1 X146.545 Y136.994 E10.46776
G1 X146.148 Y137.126 E10.48864
G1 X145.486 Y137.523 E10.52715
G1 X143.897 Y138.053 E10.61067
G1 X143.633 Y138.053 E10.62388
G1 X143.500 Y138.185 E10.63322
G1 X143.236 Y138.185 E10.64642
G1 X143.103 Y138.318 E10.65576
G1 X142.839 Y138.318 E10.66897
G1 X142.706 Y138.450 E10.67831
G1 X142.442 Y138.450 E10.69151
G1 X142.309 Y138.582 E10.70085
G1 X141.846 Y138.648 E10.72418
G1 X141.052 Y138.913 E10.76595
G1 X140.589 Y138.979 E10.78931
G1 X140.456 Y139.112 E10.79865
G1 X140.191 Y139.112 E10.81185
G1 X140.059 Y139.244 E10.82119
G1 X139.530 Y139.244 E10.84761
G1 X139.397 Y139.376 E10.85694
G1 X138.603 Y139.376 E10.89656
G1 X138.471 Y139.509 E10.90590
G1 X137.677 Y139.509 E10.94552
G1 X137.544 Y139.641 E10.95486
G1 X137.015 Y139.641 E10.98128
G1 X136.618 Y139.773 E11.00216
G1 X136.088 Y139.773 E11.02857
G1 X135.691 Y139.906 E11.04945
G1 X135.162 Y139.906 E11.07586
G1 X135.030 Y140.038 E11.08520
G1 X126.559 Y140.038 E11.50781
G1 X124.970 Y140.038 E11.58705
G1 X124.838 Y139.906 E11.59639
G1 X124.044 Y139.906 E11.63601
G1 X123.912 Y139.773 E11.64535
G1 X123.117 Y139.773 E11.68497
G1 X122.985 Y139.641 E11.69431
G1 X122.191 Y139.641 E11.73393
G1 X122.059 Y139.509 E11.74327
G1 X121.529 Y139.509 E11.76968
G1 X121.132 Y139.376 E11.79056
G1 X120.603 Y139.376 E11.81697
G1 X120.206 Y139.244 E11.83786
G1 X119.279 Y139.112 E11.88455
G1 X119.147 Y138.979 E11.89389
G1 X118.882 Y138.979 E11.90709
G1 X118.750 Y138.847 E11.91643
G1 X118.485 Y138.847 E11.92964
G1 X118.353 Y138.715 E11.93898
G1 X117.889 Y138.648 E11.96234
G1 X116.897 Y138.318 E12.01452
G1 X116.500 Y138.185 E12.03540
G1 X116.235 Y138.185 E12.04861
G1 X116.103 Y138.053 E12.05795
G1 X115.838 Y138.053 E12.07116
G1 X115.705 Y137.920 E12.08049
G1 X115.441 Y137.920 E12.09370
G1 X115.308 Y137.788 E12.10304
G1 X115.044 Y137.788 E12.11625
G1 X114.911 Y137.656 E12.12558
G1 X114.647 Y137.656 E12.13879
G1 X113.985 Y137.259 E12.17729
G1 X113.588 Y137.126 E12.19818
G1 X112.926 Y136.729 E12.23668
G1 X112.529 Y136.597 E12.25756
G1 X112.198 Y136.398 E12.27683
G1 X111.801 Y136.266 E12.29771
G1 X111.470 Y136.067 E12.31694
G1 X111.073 Y135.935 E12.33783
G1 X110.411 Y135.538 E12.37633
G1 X110.014 Y135.406 E12.39721
G1 X109.749 Y135.141 E12.41589
G1 X108.426 Y134.347 E12.49290
G1 X108.161 Y134.082 E12.51157
G1 X107.499 Y133.685 E12.55008
G1 X107.235 Y133.420 E12.56875
G1 X105.911 Y132.626 E12.64576
G1 X104.852 Y131.567 E12.72047
G1 X104.521 Y131.369 E12.73974
G1 X103.198 Y130.045 E12.83312
G1 X102.867 Y129.847 E12.85236
G0 X103.135 Y129.516 F5400
G1 X103.135 Y70.749 E15.78422 F600
G0 X105.801 Y68.367 F5400
G1 X105.801 Y131.898 E18.95380 F600
G0 X108.468 Y133.751 F5400
G1 X108.468 Y66.514 E22.30828 F600
G0 X111.135 Y64.793 F5400
G1 X111.135 Y135.472 E25.83444 F600
G0 X113.801 Y136.795 F5400
G1 X113.801 Y63.470 E29.49267 F600
G0 X116.468 Y62.411 F5400
G1 X116.468 Y137.854 E33.25655 F600
G0 X119.135 Y138.648 F5400
G1 X119.135 Y61.617 E37.09967 F600
G0 X121.801 Y61.087 F5400
G1 X121.801 Y139.178 E40.99562 F600
G0 X124.468 Y139.575 F5400
G1 X124.468 Y60.690 E44.93119 F600
G0 X127.135 Y60.558 F5400
G1 X127.135 Y139.707 E48.87996 F600
G0 X129.801 Y139.707 F5400
G1 X129.801 Y60.558 E52.82873 F600
G0 X132.468 Y60.558 F5400
G1 X132.468 Y139.707 E56.77750 F600
G0 X135.135 Y139.575 F5400
G1 X135.135 Y60.690 E60.71307 F600
G0 X137.801 Y61.087 F5400
G1 X137.801 Y139.178 E64.60901 F600
G0 X140.468 Y138.648 F5400
G1 X140.468 Y61.484 E68.45874 F600
G0 X143.135 Y62.411 F5400
G1 X143.135 Y137.854 E72.22261 F600
G0 X145.801 Y136.928 F5400
G1 X145.801 Y63.337 E75.89405 F600
G0 X148.468 Y64.661 F5400
G1 X148.468 Y135.604 E79.43341 F600
G0 X151.135 Y134.016 F5400
G1 X151.135 Y66.249 E82.81430 F600
G0 X153.801 Y68.102 F5400
G1 X153.801 Y132.163 E86.01030 F600
G0 X156.468 Y129.648 F5400
G1 X156.468 Y70.484 E88.96198 F600
G0 X159.135 Y73.132 F5400
G1 X159.135 Y127.133 E91.65612 F600
G0 X161.801 Y124.089 F5400
G1 X161.801 Y76.043 E94.05312 F600
G0 X164.468 Y79.882 F5400
G1 X164.468 Y120.383 E96.07372 F600
G0 X167.135 Y114.559 F5400
G1 X167.135 Y85.573 E97.51984 F600
G0 X100.468 Y73.396 F5400
G1 X100.468 Y126.868 E100.18758 F600
G0 X97.801 Y123.824 F5400
G1 X97.801 Y76.441 E102.55156 F600
G0 X95.135 Y80.279 F5400
G1 X95.135 Y119.854 E104.52595 F600
G0 X92.468 Y114.030 F5400
G1 X92.468 Y86.235 E105.91264 F600



; ------------------------------------
; Raft Layer #1
; ------------------------------------
G92 E0 ;reset extr
G0 F600 Z0.600
;segType:Raft
G0 X92.411 Y84.726 F7200
G1 X114.911 Y62.226 E1.58753 F1800
G0 X117.558 Y61.464 F7200
G1 X91.220 Y87.803 E3.44587 F1800
G0 X90.690 Y90.218 F7200
G1 X120.206 Y60.703 E5.52834 F1800
G0 X122.323 Y60.471 F7200
G1 X90.161 Y92.633 E7.79757 F1800
G0 X90.028 Y94.651 F7200
G1 X124.706 Y59.974 E10.24423 F1800
G0 X126.559 Y60.007 F7200
G1 X89.896 Y96.669 E12.83097 F1800
G0 X89.764 Y98.687 F7200
G1 X128.412 Y60.039 E15.55778 F1800
G0 X130.265 Y60.072 F7200
G1 X89.764 Y100.572 E18.41533 F1800
G0 X89.764 Y102.458 F7200
G1 X132.250 Y59.972 E21.41296 F1800
G0 X134.103 Y60.005 F7200
G1 X90.028 Y104.079 E24.52265 F1800
G0 X90.161 Y105.832 F7200
G1 X135.824 Y60.170 E27.74440 F1800
G0 X137.412 Y60.467 F7200
G1 X90.161 Y107.718 E31.07821 F1800
G0 X90.558 Y109.206 F7200
G1 X139.133 Y60.632 E34.50540 F1800
G0 X140.721 Y60.930 F7200
G1 X90.955 Y110.695 E38.01664 F1800
G0 X91.220 Y112.316 F7200
G1 X142.044 Y61.492 E41.60259 F1800
G0 X143.500 Y61.921 F7200
G1 X91.749 Y113.672 E45.25390 F1800
G0 X92.278 Y115.028 F7200
G1 X144.956 Y62.351 E48.97058 F1800
G0 X146.280 Y62.913 F7200
G1 X92.808 Y116.384 E52.74330 F1800
G0 X93.337 Y117.741 F7200
G1 X147.471 Y63.608 E56.56270 F1800
G0 X148.795 Y64.170 F7200
G1 X93.999 Y118.964 E60.42880 F1800
G0 X94.793 Y120.056 F7200
G1 X150.118 Y64.732 E64.33226 F1800
G0 X151.177 Y65.558 F7200
G1 X95.455 Y121.280 E68.26372 F1800
G0 X96.249 Y122.371 F7200
G1 X152.236 Y66.385 E72.21386 F1800
G0 X153.427 Y67.080 F7200
G1 X97.043 Y123.463 E76.19202 F1800
G0 X97.837 Y124.554 F7200
G1 X154.486 Y67.906 E80.18885 F1800
G0 X155.412 Y68.866 F7200
G1 X98.764 Y125.513 E84.18568 F1800
G0 X99.558 Y126.605 F7200
G1 X156.471 Y69.692 E88.20119 F1800
G0 X157.398 Y70.652 F7200
G1 X100.484 Y127.564 E92.21671 F1800
G0 X101.543 Y128.391 F7200
G1 X158.324 Y71.611 E96.22288 F1800
G0 X159.283 Y72.537 F7200
G1 X102.502 Y129.317 E100.22905 F1800
G0 X103.462 Y130.244 F7200
G1 X160.243 Y73.464 E104.23522 F1800
G0 X161.069 Y74.522 F7200
G1 X104.421 Y131.170 E108.23206 F1800
G0 X105.380 Y132.097 F7200
G1 X162.028 Y75.449 E112.22889 F1800
G0 X162.855 Y76.508 F7200
G1 X106.471 Y132.891 E116.20705 F1800
G0 X107.695 Y133.553 F7200
G1 X163.682 Y77.567 E120.15719 F1800
G0 X164.376 Y78.758 F7200
G1 X108.654 Y134.479 E124.08865 F1800
G0 X109.878 Y135.141 F7200
G1 X165.071 Y79.949 E127.98277 F1800
G0 X165.765 Y81.140 F7200
G1 X111.102 Y135.803 E131.83952 F1800
G0 X112.458 Y136.332 F7200
G1 X166.460 Y82.331 E135.64960 F1800
G0 X166.889 Y83.787 F7200
G1 X113.682 Y136.994 E139.40364 F1800
G0 X114.906 Y137.656 F7200
G1 X167.451 Y85.111 E143.11099 F1800
G0 X168.013 Y86.434 F7200
G1 X116.394 Y138.053 E146.75298 F1800
G0 X117.883 Y138.450 F7200
G1 X168.575 Y87.758 E150.32959 F1800
G0 X168.873 Y89.346 F7200
G1 X119.239 Y138.979 E153.83150 F1800
G0 X120.860 Y139.244 F7200
G1 X169.170 Y90.934 E157.24002 F1800
G0 X169.600 Y92.390 F7200
G1 X122.481 Y139.509 E160.56450 F1800
G0 X124.102 Y139.773 F7200
G1 X169.765 Y94.111 E163.78625 F1800
G0 X169.797 Y95.964 F7200
G1 X125.855 Y139.906 E166.88661 F1800
G0 X127.741 Y139.906 F7200
G1 X169.962 Y97.685 E169.86558 F1800
G0 X169.995 Y99.538 F7200
G1 X129.626 Y139.906 E172.71378 F1800
G0 X131.512 Y139.906 F7200
G1 X170.028 Y101.390 E175.43124 F1800
G0 X169.796 Y103.508 F7200
G1 X133.397 Y139.906 E177.99930 F1800
G0 X135.415 Y139.773 F7200
G1 X169.696 Y105.493 E180.41794 F1800
G0 X169.596 Y107.478 F7200
G1 X137.433 Y139.641 E182.68720 F1800
G0 X139.782 Y139.310 F7200
G1 X169.165 Y109.927 E184.76032 F1800
G0 X168.668 Y112.309 F7200
G1 X142.330 Y138.648 E186.61866 F1800
G0 X145.142 Y137.722 F7200
G1 X167.510 Y115.353 E188.19684 F1800
G0 X165.822 Y118.927 F7200
G1 X148.748 Y136.001 E189.40148 F1800
G0 X153.942 Y132.692 F7200
G1 X162.148 Y124.486 E189.98046 F1800
G0 X111.073 Y64.178 F7200
G1 X93.999 Y81.252 E191.18512 F1800
G0 X97.573 Y75.793 F7200
G1 X105.911 Y67.455 E191.77344 F1800



; ------------------------------------
; Raft Layer #2
; ------------------------------------
G92 E0 ;reset extr
G0 F600 Z0.800
;segType:Raft
G0 F3000 E-1.00000
G0 F600 Z2.800
G0 X112.000 Y63.799 F7200
G0 F600 Z0.800
G0 F3000 E0.00000
G1 X147.736 Y63.799 E1.18859 F2400
G1 X146.942 Y63.399 E1.21817
G1 X112.794 Y63.399 E2.35394
G1 X113.588 Y62.999 E2.38351
G1 X146.148 Y62.999 E3.46645
G1 X145.221 Y62.599 E3.50002
G1 X114.514 Y62.599 E4.52133
G0 X115.573 Y62.199 F7200
G1 X144.162 Y62.199 E5.47220 F2400
G0 X142.839 Y61.799 F7200
G1 X116.897 Y61.799 E6.33503 F2400
G0 X118.220 Y61.399 F7200
G1 X141.515 Y61.399 E7.10982 F2400
G0 X140.191 Y60.999 F7200
G1 X119.544 Y60.999 E7.79656 F2400
G0 X121.926 Y60.599 F7200
G1 X137.809 Y60.599 E8.32483 F2400
G0 X135.162 Y60.199 F7200
G1 X124.441 Y60.199 E8.68140 F2400
G0 X148.795 Y64.199 F7200
G1 X110.941 Y64.199 E9.94043 F2400
G1 X110.014 Y64.599 E9.97400
G1 X149.721 Y64.599 E11.29466
G1 X150.251 Y64.999 E11.31673
G1 X109.485 Y64.999 E12.67260
G1 X108.823 Y65.399 E12.69832
G1 X150.912 Y65.399 E14.09822
G1 X151.442 Y65.799 E14.12029
G1 X108.294 Y65.799 E15.55541
G1 X107.764 Y66.199 E15.57748
G1 X151.971 Y66.199 E17.04781
G1 X152.633 Y66.599 E17.07353
G1 X107.102 Y66.599 E18.58789
G1 X106.573 Y66.999 E18.60996
G1 X153.162 Y66.999 E20.15953
G1 X153.824 Y67.399 E20.18525
G1 X106.043 Y67.399 E21.77445
G1 X105.514 Y67.799 E21.79652
G1 X154.221 Y67.799 E23.41652
G1 X154.751 Y68.199 E23.43859
G1 X104.985 Y68.199 E25.09382
G1 X104.588 Y68.599 E25.11257
G1 X155.148 Y68.599 E26.79421
G1 X155.545 Y68.999 E26.81295
G1 X104.190 Y68.999 E28.52101
G1 X103.793 Y69.399 E28.53975
G1 X155.942 Y69.399 E30.27422
G1 X156.471 Y69.799 E30.29629
G1 X103.264 Y69.799 E32.06597
G1 X102.867 Y70.199 E32.08472
G1 X156.868 Y70.199 E33.88081
G1 X157.265 Y70.599 E33.89956
G1 X102.470 Y70.599 E35.72207
G1 X102.073 Y70.999 E35.74082
G1 X157.663 Y70.999 E37.58974
G1 X158.060 Y71.399 E37.60848
G1 X101.676 Y71.399 E39.48382
G1 X101.279 Y71.799 E39.50256
G1 X158.457 Y71.799 E41.40431
G1 X158.854 Y72.199 E41.42306
G1 X100.882 Y72.199 E43.35122
G1 X100.484 Y72.599 E43.36997
G1 X159.251 Y72.599 E45.32454
G1 X159.648 Y72.999 E45.34329
G1 X100.087 Y72.999 E47.32428
G1 X99.690 Y73.399 E47.34302
G1 X160.045 Y73.399 E49.35043
G1 X160.442 Y73.799 E49.36917
G1 X99.293 Y73.799 E51.40299
G1 X98.896 Y74.199 E51.42174
G1 X160.839 Y74.199 E53.48197
G1 X161.104 Y74.599 E53.49792
G1 X98.631 Y74.599 E55.57576
G1 X98.234 Y74.999 E55.59450
G1 X161.501 Y74.999 E57.69876
G1 X161.766 Y75.399 E57.71471
G1 X97.970 Y75.399 E59.83657
G1 X97.573 Y75.799 E59.85531
G1 X162.163 Y75.799 E62.00359
G1 X162.427 Y76.199 E62.01954
G1 X97.308 Y76.199 E64.18542
G1 X97.043 Y76.599 E64.20137
G1 X162.692 Y76.599 E66.38486
G1 X163.089 Y76.999 E66.40361
G1 X96.646 Y76.999 E68.61351
G1 X96.381 Y77.399 E68.62946
G1 X163.354 Y77.399 E70.85697
G1 X163.619 Y77.799 E70.87293
G1 X95.984 Y77.799 E73.12245
G1 X95.852 Y78.199 E73.13647
G1 X163.883 Y78.199 E75.39920
G1 X164.148 Y78.599 E75.41516
G1 X95.587 Y78.599 E77.69550
G1 X95.323 Y78.999 E77.71145
G1 X164.413 Y78.999 E80.00940
G1 X164.677 Y79.399 E80.02535
G1 X95.058 Y79.399 E82.34091
G1 X94.926 Y79.799 E82.35493
G1 X164.810 Y79.799 E84.67929
G1 X165.075 Y80.199 E84.69524
G1 X94.661 Y80.199 E87.03722
G1 X94.396 Y80.599 E87.05317
G1 X165.339 Y80.599 E89.41275
G1 X165.604 Y80.999 E89.42870
G1 X94.131 Y80.999 E91.80589
G1 X93.999 Y81.399 E91.81991
G1 X165.736 Y81.399 E94.20590
G1 X166.001 Y81.799 E94.22186
G1 X93.734 Y81.799 E96.62546
G1 X93.470 Y82.199 E96.64141
G1 X166.266 Y82.199 E99.06262
G1 X166.530 Y82.599 E99.07858
G1 X93.205 Y82.599 E101.51740
G1 X93.073 Y82.999 E101.53141
G1 X166.663 Y82.999 E103.97903
G1 X166.795 Y83.399 E103.99305
G1 X92.940 Y83.399 E106.44948
G1 X92.808 Y83.799 E106.46349
G1 X166.927 Y83.799 E108.92873
G1 X167.192 Y84.199 E108.94468
G1 X92.675 Y84.199 E111.42312
G1 X92.411 Y84.599 E111.43907
G1 X167.325 Y84.599 E113.93072
G1 X167.457 Y84.999 E113.94473
G1 X92.278 Y84.999 E116.44518
G1 X92.146 Y85.399 E116.45920
G1 X167.589 Y85.399 E118.96845
G1 X167.722 Y85.799 E118.98247
G1 X92.014 Y85.799 E121.50053
G1 X91.881 Y86.199 E121.51454
G1 X167.854 Y86.199 E124.04140
G1 X168.119 Y86.599 E124.05736
G1 X91.749 Y86.599 E126.59743
G1 X91.484 Y86.999 E126.61338
G1 X168.251 Y86.999 E129.16666
G1 X168.383 Y87.399 E129.18066
G1 X91.352 Y87.399 E131.74274
G1 X91.220 Y87.799 E131.75674
G1 X168.516 Y87.799 E134.32762
G1 X168.516 Y88.199 E134.34093
G1 X91.220 Y88.199 E136.91180
G1 X91.087 Y88.599 E136.92581
G1 X168.648 Y88.599 E139.50549
G1 X168.780 Y88.999 E139.51950
G1 X90.955 Y88.999 E142.10799
G1 X90.955 Y89.399 E142.12129
G1 X168.780 Y89.399 E144.70978
G1 X168.913 Y89.799 E144.72379
G1 X90.822 Y89.799 E147.32108
G1 X90.690 Y90.199 E147.33508
G1 X169.045 Y90.199 E149.94118
G1 X169.045 Y90.599 E149.95448
G1 X90.690 Y90.599 E152.56058
G1 X90.558 Y90.999 E152.57458
G1 X169.178 Y90.999 E155.18948
G1 X169.310 Y91.399 E155.20349
G1 X90.425 Y91.399 E157.82719
G1 X90.425 Y91.799 E157.84050
G1 X169.310 Y91.799 E160.46420
G1 X169.442 Y92.199 E160.47821
G1 X90.293 Y92.199 E163.11072
G1 X90.161 Y92.599 E163.12473
G1 X169.575 Y92.599 E165.76605
G1 X169.575 Y92.999 E165.77936
G1 X90.161 Y92.999 E168.42068
G1 X90.161 Y93.399 E168.43400
G1 X169.575 Y93.399 E171.07532
G1 X169.575 Y93.799 E171.08862
G1 X90.161 Y93.799 E173.72994
G1 X90.028 Y94.199 E173.74396
G1 X169.575 Y94.199 E176.38968
G1 X169.707 Y94.599 E176.40368
G1 X90.028 Y94.599 E179.05382
G1 X90.028 Y94.999 E179.06712
G1 X169.707 Y94.999 E181.71726
G1 X169.707 Y95.399 E181.73056
G1 X90.028 Y95.399 E184.38070
G1 X90.028 Y95.799 E184.39400
G1 X169.707 Y95.799 E187.04412
G1 X169.839 Y96.199 E187.05814
G1 X89.896 Y96.199 E189.71708
G1 X89.896 Y96.599 E189.73038
G1 X169.839 Y96.599 E192.38932
G1 X169.839 Y96.999 E192.40262
G1 X89.896 Y96.999 E195.06156
G1 X89.896 Y97.399 E195.07486
G1 X169.839 Y97.399 E197.73380
G1 X169.972 Y97.799 E197.74780
G1 X89.764 Y97.799 E200.41554
G1 X89.764 Y98.199 E200.42884
G1 X169.972 Y98.199 E203.09658
G1 X169.972 Y98.599 E203.10990
G1 X89.764 Y98.599 E205.77764
G1 X89.764 Y98.999 E205.79094
G1 X169.972 Y98.999 E208.45868
G1 X169.972 Y99.399 E208.47198
G1 X89.764 Y99.399 E211.13972
G1 X89.764 Y99.799 E211.15304
G1 X169.972 Y99.799 E213.82078
G1 X169.972 Y100.199 E213.83408
G1 X89.764 Y100.199 E216.50182
G1 X89.764 Y100.599 E216.51512
G1 X169.972 Y100.599 E219.18286
G1 X169.972 Y100.999 E219.19616
G1 X89.764 Y100.999 E221.86390
G1 X89.764 Y101.399 E221.87722
G1 X169.972 Y101.399 E224.54496
G1 X169.972 Y101.799 E224.55826
G1 X89.764 Y101.799 E227.22600
G1 X89.764 Y102.199 E227.23930
G1 X169.972 Y102.199 E229.90704
G1 X169.839 Y102.599 E229.92106
G1 X89.896 Y102.599 E232.57998
G1 X89.896 Y102.999 E232.59330
G1 X169.839 Y102.999 E235.25222
G1 X169.839 Y103.399 E235.26554
G1 X89.896 Y103.399 E237.92446
G1 X89.896 Y103.799 E237.93778
G1 X169.839 Y103.799 E240.59672
G1 X169.707 Y104.199 E240.61072
G1 X90.028 Y104.199 E243.26084
G1 X90.028 Y104.599 E243.27416
G1 X169.707 Y104.599 E245.92428
G1 X169.707 Y104.999 E245.93760
G1 X90.028 Y104.999 E248.58772
G1 X90.028 Y105.399 E248.60102
G1 X169.707 Y105.399 E251.25116
G1 X169.707 Y105.799 E251.26446
G1 X90.028 Y105.799 E253.91460
G1 X90.161 Y106.199 E253.92860
G1 X169.575 Y106.199 E256.56992
G1 X169.575 Y106.599 E256.58322
G1 X90.161 Y106.599 E259.22454
G1 X90.161 Y106.999 E259.23786
G1 X169.575 Y106.999 E261.87918
G1 X169.575 Y107.399 E261.89248
G1 X90.161 Y107.399 E264.53382
G1 X90.293 Y107.799 E264.54782
G1 X169.442 Y107.799 E267.18032
G1 X169.442 Y108.199 E267.19364
G1 X90.293 Y108.199 E269.82614
G1 X90.425 Y108.599 E269.84014
G1 X169.310 Y108.599 E272.46386
G1 X169.178 Y108.999 E272.47788
G1 X90.558 Y108.999 E275.09278
G1 X90.558 Y109.399 E275.10608
G1 X169.178 Y109.399 E277.72098
G1 X169.045 Y109.799 E277.73498
G1 X90.690 Y109.799 E280.34110
G1 X90.822 Y110.199 E280.35510
G1 X168.913 Y110.199 E282.95240
G1 X168.913 Y110.599 E282.96570
G1 X90.955 Y110.599 E285.55860
G1 X90.955 Y110.999 E285.57190
G1 X168.780 Y110.999 E288.16040
G1 X168.648 Y111.399 E288.17440
G1 X91.087 Y111.399 E290.75408
G1 X91.220 Y111.799 E290.76810
G1 X168.516 Y111.799 E293.33898
G1 X168.516 Y112.199 E293.35230
G1 X91.220 Y112.199 E295.92318
G1 X91.352 Y112.599 E295.93720
G1 X168.383 Y112.599 E298.49926
G1 X168.251 Y112.999 E298.51328
G1 X91.484 Y112.999 E301.06656
G1 X91.617 Y113.399 E301.08056
G1 X168.119 Y113.399 E303.62504
G1 X167.986 Y113.799 E303.63904
G1 X91.749 Y113.799 E306.17472
G1 X91.881 Y114.199 E306.18872
G1 X167.722 Y114.199 E308.71118
G1 X167.589 Y114.599 E308.72518
G1 X92.146 Y114.599 E311.23444
G1 X92.278 Y114.999 E311.24844
G1 X167.457 Y114.999 E313.74890
G1 X167.325 Y115.399 E313.76290
G1 X92.411 Y115.399 E316.25454
G1 X92.543 Y115.799 E316.26856
G1 X167.192 Y115.799 E318.75140
G1 X167.060 Y116.199 E318.76542
G1 X92.675 Y116.199 E321.23944
G1 X92.940 Y116.599 E321.25540
G1 X166.795 Y116.599 E323.71182
G1 X166.663 Y116.999 E323.72584
G1 X93.073 Y116.999 E326.17346
G1 X93.205 Y117.399 E326.18746
G1 X166.530 Y117.399 E328.62628
G1 X166.398 Y117.799 E328.64028
G1 X93.337 Y117.799 E331.07032
G1 X93.602 Y118.199 E331.08628
G1 X166.133 Y118.199 E333.49868
G1 X165.869 Y118.599 E333.51464
G1 X93.867 Y118.599 E335.90944
G1 X94.131 Y118.999 E335.92540
G1 X165.604 Y118.999 E338.30260
G1 X165.339 Y119.399 E338.31856
G1 X94.396 Y119.399 E340.67816
G1 X94.661 Y119.799 E340.69412
G1 X165.207 Y119.799 E343.04048
G1 X164.942 Y120.199 E343.05644
G1 X94.793 Y120.199 E345.38960
G1 X95.058 Y120.599 E345.40556
G1 X164.677 Y120.599 E347.72112
G1 X164.413 Y120.999 E347.73708
G1 X95.323 Y120.999 E350.03504
G1 X95.455 Y121.399 E350.04904
G1 X164.280 Y121.399 E352.33820
G1 X164.016 Y121.799 E352.35416
G1 X95.720 Y121.799 E354.62572
G1 X95.984 Y122.199 E354.64168
G1 X163.751 Y122.199 E356.89560
G1 X163.486 Y122.599 E356.91156
G1 X96.249 Y122.599 E359.14788
G1 X96.646 Y122.999 E359.16664
G1 X163.089 Y122.999 E361.37652
G1 X162.824 Y123.399 E361.39248
G1 X96.911 Y123.399 E363.58476
G1 X97.176 Y123.799 E363.60072
G1 X162.560 Y123.799 E365.77544
G1 X162.163 Y124.199 E365.79416
G1 X97.573 Y124.199 E367.94244
G1 X97.837 Y124.599 E367.95840
G1 X161.898 Y124.599 E370.08908
G1 X161.501 Y124.999 E370.10780
G1 X98.234 Y124.999 E372.21208
G1 X98.499 Y125.399 E372.22804
G1 X161.236 Y125.399 E374.31468
G1 X160.839 Y125.799 E374.33340
G1 X98.896 Y125.799 E376.39364
G1 X99.161 Y126.199 E376.40960
G1 X160.574 Y126.199 E378.45224
G1 X160.177 Y126.599 E378.47096
G1 X99.558 Y126.599 E380.48720
G1 X99.955 Y126.999 E380.50592
G1 X159.780 Y126.999 E382.49572
G1 X159.383 Y127.399 E382.51448
G1 X100.352 Y127.399 E384.47784
G1 X100.749 Y127.799 E384.49660
G1 X158.986 Y127.799 E386.43356
G1 X158.589 Y128.199 E386.45232
G1 X101.146 Y128.199 E388.36284
G1 X101.543 Y128.599 E388.38160
G1 X158.192 Y128.599 E390.26576
G1 X157.795 Y128.999 E390.28448
G1 X101.940 Y128.999 E392.14220
G1 X102.337 Y129.399 E392.16096
G1 X157.398 Y129.399 E393.99228
G1 X157.001 Y129.799 E394.01100
G1 X102.735 Y129.799 E395.81592
G1 X103.264 Y130.199 E395.83800
G1 X156.471 Y130.199 E397.60768
G1 X156.074 Y130.599 E397.62640
G1 X103.661 Y130.599 E399.36964
G1 X104.058 Y130.999 E399.38840
G1 X155.677 Y130.999 E401.10524
G1 X155.280 Y131.399 E401.12400
G1 X104.455 Y131.399 E402.81444
G1 X104.985 Y131.799 E402.83648
G1 X154.751 Y131.799 E404.49168
G1 X154.354 Y132.199 E404.51044
G1 X105.382 Y132.199 E406.13924
G1 X105.779 Y132.599 E406.15800
G1 X153.957 Y132.599 E407.76036
G1 X153.295 Y132.999 E407.78612
G1 X106.441 Y132.999 E409.34448
G1 X106.970 Y133.399 E409.36656
G1 X152.765 Y133.399 E410.88972
G1 X152.104 Y133.799 E410.91544
G1 X107.632 Y133.799 E412.39456
G1 X108.161 Y134.199 E412.41664
G1 X151.574 Y134.199 E413.86052
G1 X151.045 Y134.599 E413.88260
G1 X108.691 Y134.599 E415.29128
G1 X109.352 Y134.999 E415.31700
G1 X150.383 Y134.999 E416.68172
G1 X149.853 Y135.399 E416.70376
G1 X109.882 Y135.399 E418.03324
G1 X110.676 Y135.799 E418.06280
G1 X149.059 Y135.799 E419.33944
G1 X148.265 Y136.199 E419.36900
G1 X111.470 Y136.199 E420.59284
G0 X112.661 Y136.599 F7200
G1 X147.074 Y136.599 E421.73740 F2400
G1 X146.280 Y136.999 E421.76696
G1 X113.455 Y136.999 E422.85872
G1 X114.250 Y137.399 E422.88828
G1 X145.486 Y137.399 E423.92720
G0 X144.427 Y137.799 F7200
G1 X115.308 Y137.799 E424.89568 F2400
G0 X116.632 Y138.199 F7200
G1 X143.103 Y138.199 E425.77608 F2400
G0 X141.780 Y138.599 F7200
G1 X117.823 Y138.599 E426.57288 F2400
G0 X119.147 Y138.999 F7200
G1 X140.456 Y138.999 E427.28160 F2400
G0 X138.471 Y139.399 F7200
G1 X121.264 Y139.399 E427.85392 F2400
G0 X123.912 Y139.799 F7200
G1 X135.824 Y139.799 E428.25012 F2400



; ------------------------------------
; Raft Layer #3
; ------------------------------------
M106 S255 ;set fan speed
G92 E0 ;reset extr
G0 F600 Z1.000
;segType:Raft
G0 F3000 E-1.00000
G0 F600 Z3.000
G0 X167.001 Y116.280 F7200
G0 F600 Z1.000
G0 F3000 E0.00000
G1 X167.001 Y83.985 E1.07414 F2400
G1 X166.601 Y83.058 E1.10770
G1 X166.601 Y117.206 E2.24347
G1 X166.201 Y118.133 E2.27703
G1 X166.201 Y82.132 E3.47443
G1 X165.801 Y81.205 E3.50800
G1 X165.801 Y119.059 E4.76703
G1 X165.401 Y119.721 E4.79274
G1 X165.401 Y80.544 E6.09580
G1 X165.001 Y79.882 E6.12151
G1 X165.001 Y120.383 E7.46859
G1 X164.601 Y121.045 E7.49431
G1 X164.601 Y79.220 E8.88540
G1 X164.201 Y78.426 E8.91498
G1 X164.201 Y121.839 E10.35890
G1 X163.801 Y122.368 E10.38097
G1 X163.801 Y77.896 E11.86011
G1 X163.401 Y77.367 E11.88218
G1 X163.401 Y122.898 E13.39653
G1 X163.001 Y123.427 E13.41860
G1 X163.001 Y76.838 E14.96818
G1 X162.601 Y76.308 E14.99025
G1 X162.601 Y123.957 E16.57504
G1 X162.201 Y124.354 E16.59378
G1 X162.201 Y75.779 E18.20939
G1 X161.801 Y75.382 E18.22813
G1 X161.801 Y124.883 E19.87456
G1 X161.401 Y125.412 E19.89663
G1 X161.401 Y74.852 E21.57827
G1 X161.001 Y74.323 E21.60034
G1 X161.001 Y125.810 E23.31279
G1 X160.601 Y126.339 E23.33486
G1 X160.601 Y73.926 E25.07813
G1 X160.201 Y73.529 E25.09688
G1 X160.201 Y126.736 E26.86657
G1 X159.801 Y127.133 E26.88531
G1 X159.801 Y73.132 E28.68141
G1 X159.401 Y72.735 E28.70015
G1 X159.401 Y127.530 E30.52266
G1 X159.001 Y127.927 E30.54141
G1 X159.001 Y72.337 E32.39033
G1 X158.601 Y71.940 E32.40908
G1 X158.601 Y128.324 E34.28441
G1 X158.201 Y128.721 E34.30316
G1 X158.201 Y71.543 E36.20491
G1 X157.801 Y71.146 E36.22365
G1 X157.801 Y129.118 E38.15182
G1 X157.401 Y129.516 E38.17056
G1 X157.401 Y70.749 E40.12514
G1 X157.001 Y70.352 E40.14388
G1 X157.001 Y129.913 E42.12487
G1 X156.601 Y130.177 E42.14083
G1 X156.601 Y69.955 E44.14383
G1 X156.201 Y69.690 E44.15978
G1 X156.201 Y130.574 E46.18479
G1 X155.801 Y130.971 E46.20354
G1 X155.801 Y69.293 E48.25497
G1 X155.401 Y68.896 E48.27371
G1 X155.401 Y131.369 E50.35155
G1 X155.001 Y131.766 E50.37030
G1 X155.001 Y68.499 E52.47455
G1 X154.601 Y68.234 E52.49050
G1 X154.601 Y132.030 E54.61236
G1 X154.201 Y132.427 E54.63111
G1 X154.201 Y67.837 E56.77938
G1 X153.801 Y67.440 E56.79812
G1 X153.801 Y132.692 E58.96841
G1 X153.401 Y132.957 E58.98436
G1 X153.401 Y67.176 E61.17226
G1 X153.001 Y66.911 E61.18821
G1 X153.001 Y133.222 E63.39371
G1 X152.601 Y133.486 E63.40966
G1 X152.601 Y66.646 E65.63278
G1 X152.201 Y66.381 E65.64873
G1 X152.201 Y133.751 E67.88945
G1 X151.801 Y134.016 E67.90541
G1 X151.801 Y66.117 E70.16374
G1 X151.401 Y65.852 E70.17969
G1 X151.401 Y134.413 E72.46003
G1 X151.001 Y134.677 E72.47599
G1 X151.001 Y65.587 E74.77394
G1 X150.601 Y65.323 E74.78989
G1 X150.601 Y134.942 E77.10545
G1 X150.201 Y135.207 E77.12140
G1 X150.201 Y65.058 E79.45457
G1 X149.801 Y64.793 E79.47052
G1 X149.801 Y135.472 E81.82130
G1 X149.401 Y135.604 E81.83531
G1 X149.401 Y64.528 E84.19930
G1 X149.001 Y64.396 E84.21331
G1 X149.001 Y135.869 E86.59050
G1 X148.601 Y136.001 E86.60452
G1 X148.601 Y64.264 E88.99051
G1 X148.201 Y63.999 E89.00646
G1 X148.201 Y136.266 E91.41006
G1 X147.801 Y136.530 E91.42602
G1 X147.801 Y63.734 E93.84723
G1 X147.401 Y63.602 E93.86124
G1 X147.401 Y136.663 E96.29126
G1 X147.001 Y136.795 E96.30527
G1 X147.001 Y63.337 E98.74850
G1 X146.601 Y63.205 E98.76251
G1 X146.601 Y137.060 E101.21894
G1 X146.201 Y137.192 E101.23296
G1 X146.201 Y62.940 E103.70259
G1 X145.801 Y62.808 E103.71661
G1 X145.801 Y137.457 E106.19945
G1 X145.401 Y137.589 E106.21346
G1 X145.401 Y62.675 E108.70511
G1 X145.001 Y62.411 E108.72106
G1 X145.001 Y137.722 E111.22591
G1 X144.601 Y137.854 E111.23993
G1 X144.601 Y62.278 E113.75359
G1 X144.201 Y62.146 E113.76760
G1 X144.201 Y137.986 E116.29006
G1 X143.801 Y138.119 E116.30408
G1 X143.801 Y62.146 E118.83094
G1 X143.401 Y62.014 E118.84496
G1 X143.401 Y138.251 E121.38062
G1 X143.001 Y138.383 E121.39464
G1 X143.001 Y61.881 E123.93911
G1 X142.601 Y61.749 E123.95312
G1 X142.601 Y138.516 E126.50640
G1 X142.201 Y138.648 E126.52042
G1 X142.201 Y61.617 E129.08249
G1 X141.801 Y61.484 E129.09650
G1 X141.801 Y138.781 E131.66739
G1 X141.401 Y138.913 E131.68140
G1 X141.401 Y61.352 E134.26108
G1 X141.001 Y61.220 E134.27509
G1 X141.001 Y139.045 E136.86357
G1 X140.601 Y139.045 E136.87688
G1 X140.601 Y61.087 E139.46977
G1 X140.201 Y60.955 E139.48378
G1 X140.201 Y139.178 E142.08548
G1 X139.801 Y139.310 E142.09949
G1 X139.801 Y60.955 E144.70560
G1 X139.401 Y60.822 E144.71960
G1 X139.401 Y139.442 E147.33450
G1 X139.001 Y139.442 E147.34781
G1 X139.001 Y60.822 E149.96271
G1 X138.601 Y60.690 E149.97672
G1 X138.601 Y139.442 E152.59602
G1 X138.201 Y139.575 E152.61003
G1 X138.201 Y60.690 E155.23373
G1 X137.801 Y60.558 E155.24774
G1 X137.801 Y139.575 E157.87585
G1 X137.401 Y139.707 E157.88986
G1 X137.401 Y60.558 E160.52237
G1 X137.001 Y60.425 E160.53638
G1 X137.001 Y139.707 E163.17329
G1 X136.601 Y139.839 E163.18730
G1 X136.601 Y60.425 E165.82863
G1 X136.201 Y60.425 E165.84193
G1 X136.201 Y139.839 E168.48326
G1 X135.801 Y139.972 E168.49726
G1 X135.801 Y60.293 E171.14740
G1 X135.401 Y60.293 E171.16070
G1 X135.401 Y139.972 E173.81084
G1 X135.001 Y140.104 E173.82484
G1 X135.001 Y60.161 E176.48378
G1 X134.601 Y60.161 E176.49708
G1 X134.601 Y140.104 E179.15602
G1 X134.201 Y140.104 E179.16932
G1 X134.201 Y60.161 E181.82826
G1 X133.801 Y60.161 E181.84156
G1 X133.801 Y140.104 E184.50050
G1 X133.401 Y140.104 E184.51380
G1 X133.401 Y60.161 E187.17274
G1 X133.001 Y60.161 E187.18606
G1 X133.001 Y140.104 E189.84498
G1 X132.601 Y140.104 E189.85830
G1 X132.601 Y60.161 E192.51722
G1 X132.201 Y60.161 E192.53054
G1 X132.201 Y140.104 E195.18946
G1 X131.801 Y140.104 E195.20278
G1 X131.801 Y60.161 E197.86170
G1 X131.401 Y60.161 E197.87502
G1 X131.401 Y140.104 E200.53396
G1 X131.001 Y140.104 E200.54726
G1 X131.001 Y60.161 E203.20620
G1 X130.601 Y60.161 E203.21950
G1 X130.601 Y140.104 E205.87844
G1 X130.201 Y140.104 E205.89174
G1 X130.201 Y60.161 E208.55068
G1 X129.801 Y60.161 E208.56398
G1 X129.801 Y140.104 E211.22292
G1 X129.401 Y140.104 E211.23622
G1 X129.401 Y60.161 E213.89516
G1 X129.001 Y60.161 E213.90846
G1 X129.001 Y140.104 E216.56740
G1 X128.601 Y140.104 E216.58070
G1 X128.601 Y60.161 E219.23964
G1 X128.201 Y60.161 E219.25294
G1 X128.201 Y140.104 E221.91188
G1 X127.801 Y140.104 E221.92518
G1 X127.801 Y60.161 E224.58412
G1 X127.401 Y60.161 E224.59742
G1 X127.401 Y140.104 E227.25636
G1 X127.001 Y140.104 E227.26966
G1 X127.001 Y60.161 E229.92860
G1 X126.601 Y60.161 E229.94190
G1 X126.601 Y140.104 E232.60084
G1 X126.201 Y140.104 E232.61416
G1 X126.201 Y60.161 E235.27308
G1 X125.801 Y60.161 E235.28640
G1 X125.801 Y140.104 E237.94532
G1 X125.401 Y140.104 E237.95864
G1 X125.401 Y60.161 E240.61756
G1 X125.001 Y60.161 E240.63088
G1 X125.001 Y140.104 E243.28982
G1 X124.601 Y139.972 E243.30382
G1 X124.601 Y60.161 E245.95834
G1 X124.201 Y60.293 E245.97236
G1 X124.201 Y139.972 E248.62248
G1 X123.801 Y139.839 E248.63648
G1 X123.801 Y60.293 E251.28222
G1 X123.401 Y60.425 E251.29622
G1 X123.401 Y139.839 E253.93754
G1 X123.001 Y139.707 E253.95156
G1 X123.001 Y60.425 E256.58848
G1 X122.601 Y60.558 E256.60248
G1 X122.601 Y139.707 E259.23498
G1 X122.201 Y139.707 E259.24830
G1 X122.201 Y60.558 E261.88080
G1 X121.801 Y60.690 E261.89480
G1 X121.801 Y139.575 E264.51852
G1 X121.401 Y139.575 E264.53182
G1 X121.401 Y60.690 E267.15554
G1 X121.001 Y60.822 E267.16956
G1 X121.001 Y139.442 E269.78446
G1 X120.601 Y139.442 E269.79776
G1 X120.601 Y60.822 E272.41266
G1 X120.201 Y60.822 E272.42596
G1 X120.201 Y139.310 E275.03646
G1 X119.801 Y139.310 E275.04978
G1 X119.801 Y60.955 E277.65588
G1 X119.401 Y61.087 E277.66990
G1 X119.401 Y139.178 E280.26718
G1 X119.001 Y139.045 E280.28118
G1 X119.001 Y61.220 E282.86968
G1 X118.601 Y61.352 E282.88370
G1 X118.601 Y138.913 E285.46338
G1 X118.201 Y138.781 E285.47738
G1 X118.201 Y61.484 E288.04828
G1 X117.801 Y61.617 E288.06228
G1 X117.801 Y138.648 E290.62436
G1 X117.401 Y138.516 E290.63836
G1 X117.401 Y61.749 E293.19166
G1 X117.001 Y61.749 E293.20496
G1 X117.001 Y138.383 E295.75382
G1 X116.601 Y138.251 E295.76782
G1 X116.601 Y61.881 E298.30790
G1 X116.201 Y62.014 E298.32190
G1 X116.201 Y138.251 E300.85758
G1 X115.801 Y138.119 E300.87158
G1 X115.801 Y62.146 E303.39844
G1 X115.401 Y62.278 E303.41244
G1 X115.401 Y137.986 E305.93052
G1 X115.001 Y137.854 E305.94452
G1 X115.001 Y62.411 E308.45376
G1 X114.601 Y62.543 E308.46778
G1 X114.601 Y137.722 E310.96824
G1 X114.201 Y137.457 E310.98420
G1 X114.201 Y62.675 E313.47144
G1 X113.801 Y62.940 E313.48740
G1 X113.801 Y137.325 E315.96142
G1 X113.401 Y137.060 E315.97738
G1 X113.401 Y63.073 E318.43820
G1 X113.001 Y63.337 E318.45416
G1 X113.001 Y136.928 E320.90180
G1 X112.601 Y136.663 E320.91776
G1 X112.601 Y63.470 E323.35218
G1 X112.201 Y63.734 E323.36814
G1 X112.201 Y136.530 E325.78934
G1 X111.801 Y136.398 E325.80334
G1 X111.801 Y63.867 E328.21576
G1 X111.401 Y64.131 E328.23172
G1 X111.401 Y136.133 E330.62652
G1 X111.001 Y135.869 E330.64248
G1 X111.001 Y64.396 E333.01968
G1 X110.601 Y64.528 E333.03370
G1 X110.601 Y135.736 E335.40206
G1 X110.201 Y135.472 E335.41802
G1 X110.201 Y64.661 E337.77320
G1 X109.801 Y64.926 E337.78916
G1 X109.801 Y135.207 E340.12672
G1 X109.401 Y134.942 E340.14268
G1 X109.401 Y65.190 E342.46260
G1 X109.001 Y65.455 E342.47856
G1 X109.001 Y134.677 E344.78092
G1 X108.601 Y134.413 E344.79688
G1 X108.601 Y65.852 E347.07720
G1 X108.201 Y66.117 E347.09316
G1 X108.201 Y134.148 E349.35588
G1 X107.801 Y133.883 E349.37184
G1 X107.801 Y66.381 E351.61696
G1 X107.401 Y66.646 E351.63292
G1 X107.401 Y133.619 E353.86044
G1 X107.001 Y133.354 E353.87640
G1 X107.001 Y66.911 E356.08632
G1 X106.601 Y67.176 E356.10228
G1 X106.601 Y133.089 E358.29456
G1 X106.201 Y132.824 E358.31052
G1 X106.201 Y67.440 E360.48520
G1 X105.801 Y67.705 E360.50116
G1 X105.801 Y132.560 E362.65824
G1 X105.401 Y132.163 E362.67696
G1 X105.401 Y67.970 E364.81204
G1 X105.001 Y68.367 E364.83080
G1 X105.001 Y131.766 E366.93944
G1 X104.601 Y131.501 E366.95540
G1 X104.601 Y68.764 E369.04204
G1 X104.201 Y69.161 E369.06076
G1 X104.201 Y131.104 E371.12100
G1 X103.801 Y130.707 E371.13972
G1 X103.801 Y69.558 E373.17356
G1 X103.401 Y69.823 E373.18952
G1 X103.401 Y130.310 E375.20132
G1 X103.001 Y129.913 E375.22008
G1 X103.001 Y70.220 E377.20544
G1 X102.601 Y70.617 E377.22420
G1 X102.601 Y129.648 E379.18756
G1 X102.201 Y129.251 E379.20628
G1 X102.201 Y71.014 E381.14328
G1 X101.801 Y71.411 E381.16200
G1 X101.801 Y128.854 E383.07256
G1 X101.401 Y128.457 E383.09132
G1 X101.401 Y71.808 E384.97548
G1 X101.001 Y72.205 E384.99420
G1 X101.001 Y128.060 E386.85192
G1 X100.601 Y127.663 E386.87068
G1 X100.601 Y72.602 E388.70200
G1 X100.201 Y72.999 E388.72072
G1 X100.201 Y127.265 E390.52564
G1 X99.801 Y126.868 E390.54436
G1 X99.801 Y73.396 E392.32288
G1 X99.401 Y73.793 E392.34160
G1 X99.401 Y126.471 E394.09368
G1 X99.001 Y126.074 E394.11244
G1 X99.001 Y74.190 E395.83808
G1 X98.601 Y74.720 E395.86012
G1 X98.601 Y125.545 E397.55056
G1 X98.201 Y125.015 E397.57264
G1 X98.201 Y75.249 E399.22784
G1 X97.801 Y75.646 E399.24660
G1 X97.801 Y124.618 E400.87540
G1 X97.401 Y124.089 E400.89748
G1 X97.401 Y76.176 E402.49104
G1 X97.001 Y76.705 E402.51312
G1 X97.001 Y123.559 E404.07152
G1 X96.601 Y123.030 E404.09356
G1 X96.601 Y77.102 E405.62112
G1 X96.201 Y77.632 E405.64320
G1 X96.201 Y122.501 E407.13552
G1 X95.801 Y121.971 E407.15760
G1 X95.801 Y78.294 E408.61032
G1 X95.401 Y78.955 E408.63604
G1 X95.401 Y121.309 E410.04472
G1 X95.001 Y120.648 E410.07048
G1 X95.001 Y79.617 E411.43516
G1 X94.601 Y80.279 E411.46088
G1 X94.601 Y119.854 E412.77712
G1 X94.201 Y119.192 E412.80284
G1 X94.201 Y80.941 E414.07512
G1 X93.801 Y81.735 E414.10468
G1 X93.801 Y118.530 E415.32848
G1 X93.401 Y117.603 E415.36208
G1 X93.401 Y82.661 E416.52424
G1 X93.001 Y83.588 E416.55780
G1 X93.001 Y116.545 E417.65396
G1 X92.601 Y115.618 E417.68752
G1 X92.601 Y84.647 E418.71764
G0 X92.201 Y85.705 F7200
G1 X92.201 Y114.559 E419.67732 F2400
G1 X91.801 Y113.633 E419.71092
G1 X91.801 Y86.764 E420.60456
G0 X91.401 Y87.823 F7200
G1 X91.401 Y112.442 E421.42336 F2400
G0 X91.001 Y110.589 F7200
G1 X91.001 Y89.544 E422.12332 F2400
G0 X90.601 Y91.397 F7200
G1 X90.601 Y108.868 E422.70440 F2400
G0 X90.201 Y105.956 F7200
G1 X90.201 Y94.176 E423.09620 F2400
G0 X167.401 Y84.911 F7200
G1 X167.401 Y115.221 E424.10432 F2400
G0 X168.601 Y111.780 F7200
G1 X168.601 Y88.353 E424.88348 F2400
G0 X168.201 Y87.029 F7200
G1 X168.201 Y113.236 E425.75512 F2400
G1 X167.801 Y114.162 E425.78868
G1 X167.801 Y85.970 E426.72636
G0 X169.001 Y90.206 F7200
G1 X169.001 Y110.059 E427.38672 F2400
G0 X169.401 Y108.338 F7200
G1 X169.401 Y91.926 E427.93260 F2400
G0 X169.801 Y96.029 F7200
G1 X169.801 Y104.235 E428.20552 F2400


; ------------------------------------
; Layer #0
; ------------------------------------
G21 ; mm
G90 ; abs
G92 E0 ;reset extr
G0 F600 Z1.450
;segType:HShell
G0 F3000 E-1.00000
G0 X130.970 Y66.057 F5400
G0 F3000 E0.00000
G1 X163.967 Y99.054 E1.55208 F2400
G0 X164.531 Y99.306 F5400
;segType:Perimeter
G1 X164.796 Y100.061 E1.57868 F1200
G1 X164.411 Y105.186 E1.74962
G1 X163.254 Y110.258 E1.92264
G1 X161.354 Y115.099 E2.09563
G1 X158.753 Y119.604 E2.26863
G1 X155.510 Y123.670 E2.44160
G1 X151.698 Y127.208 E2.61459
G1 X147.400 Y130.138 E2.78759
G1 X142.714 Y132.394 E2.96059
G1 X137.744 Y133.928 E3.13359
G1 X132.601 Y134.703 E3.30658
G1 X127.399 Y134.703 E3.47957
G1 X122.256 Y133.928 E3.65256
G1 X117.286 Y132.394 E3.82556
G1 X112.600 Y130.138 E3.99855
G1 X108.302 Y127.208 E4.17154
G1 X104.490 Y123.670 E4.34454
G1 X101.247 Y119.604 E4.51752
G1 X98.646 Y115.099 E4.69052
G1 X96.746 Y110.258 E4.86351
G1 X95.589 Y105.187 E5.03650
G1 X95.200 Y100.000 E5.20950
G1 X95.589 Y94.813 E5.38250
G1 X96.746 Y89.742 E5.55549
G1 X98.646 Y84.901 E5.72848
G1 X101.247 Y80.396 E5.90148
G1 X104.490 Y76.330 E6.07447
G1 X108.302 Y72.792 E6.24745
G1 X112.600 Y69.862 E6.42044
G1 X117.286 Y67.606 E6.59344
G1 X122.256 Y66.072 E6.76644
G1 X127.399 Y65.297 E6.93942
G1 X132.601 Y65.297 E7.11242
G1 X137.744 Y66.073 E7.28543
G1 X142.714 Y67.606 E7.45841
G1 X147.401 Y69.863 E7.63143
G1 X151.697 Y72.791 E7.80436
G1 X155.510 Y76.330 E7.97740
G1 X158.753 Y80.396 E8.15037
G1 X161.354 Y84.902 E8.32340
G1 X163.254 Y89.743 E8.49638
G1 X164.411 Y94.812 E8.66931
G1 X164.796 Y99.942 E8.84041
G0 X164.796 Y100.061 F5400
G0 X164.676 Y101.657
G0 X164.319 Y101.068
;segType:Loop
G1 X164.015 Y105.127 E8.97578 F2400
G1 X162.871 Y110.139 E9.14677
G1 X160.992 Y114.925 E9.31777
G1 X158.421 Y119.378 E9.48880
G1 X155.216 Y123.398 E9.65978
G1 X151.448 Y126.894 E9.83076
G1 X147.200 Y129.790 E10.00176
G1 X142.567 Y132.021 E10.17277
G1 X137.654 Y133.536 E10.34377
G1 X132.571 Y134.303 E10.51477
G1 X127.429 Y134.303 E10.68576
G1 X122.346 Y133.536 E10.85676
G1 X117.432 Y132.021 E11.02777
G1 X112.800 Y129.790 E11.19877
G1 X108.552 Y126.894 E11.36977
G1 X104.784 Y123.397 E11.54076
G1 X101.578 Y119.378 E11.71176
G1 X99.008 Y114.925 E11.88276
G1 X97.129 Y110.139 E12.05375
G1 X95.985 Y105.127 E12.22475
G1 X95.601 Y100.000 E12.39576
G1 X95.985 Y94.873 E12.56676
G1 X97.129 Y89.861 E12.73776
G1 X99.008 Y85.075 E12.90875
G1 X101.578 Y80.622 E13.07975
G1 X104.784 Y76.602 E13.25078
G1 X108.552 Y73.106 E13.42173
G1 X112.800 Y70.210 E13.59274
G1 X117.432 Y67.979 E13.76374
G1 X122.345 Y66.464 E13.93474
G1 X127.430 Y65.697 E14.10577
G1 X132.571 Y65.697 E14.27674
G1 X137.654 Y66.463 E14.44772
G1 X142.568 Y67.979 E14.61876
G1 X147.200 Y70.210 E14.78977
G1 X151.446 Y73.104 E14.96067
G1 X155.216 Y76.603 E15.13173
G1 X158.422 Y80.623 E15.30275
G1 X160.993 Y85.076 E15.47377
G1 X162.871 Y89.861 E15.64474
G1 X164.014 Y94.872 E15.81571
G1 X164.399 Y100.001 E15.98677
G1 X164.334 Y100.869 E16.01572
G0 X163.921 Y98.443 F5400
;segType:HShell
G1 X131.536 Y66.057 E17.53903 F2400
G0 X132.101 Y66.057 F5400
G1 X163.875 Y97.831 E19.03357 F2400
G0 X163.829 Y97.220 F5400
G1 X132.689 Y66.079 E20.49832 F2400
G0 X133.355 Y66.180 F5400
G1 X163.783 Y96.608 E21.92959 F2400
G0 X163.738 Y95.997 F5400
G1 X134.021 Y66.280 E23.32736 F2400
G0 X134.687 Y66.380 F5400
G1 X163.692 Y95.385 E24.69165 F2400
G0 X163.616 Y94.743 F5400
G1 X135.353 Y66.481 E26.02103 F2400
G0 X136.019 Y66.581 F5400
G1 X163.448 Y94.010 E27.31121 F2400
G0 X163.281 Y93.277 F5400
G1 X136.685 Y66.682 E28.56219 F2400
G0 X137.351 Y66.782 F5400
G1 X163.114 Y92.544 E29.77397 F2400
G0 X162.946 Y91.811 F5400
G1 X138.119 Y66.984 E30.94179 F2400
G0 X138.937 Y67.236 F5400
G1 X162.779 Y91.078 E32.06326 F2400
G0 X162.612 Y90.345 F5400
G1 X139.755 Y67.488 E33.13838 F2400
G0 X140.573 Y67.741 F5400
G1 X162.349 Y89.516 E34.16265 F2400
G0 X161.983 Y88.585 F5400
G1 X141.391 Y67.993 E35.13125 F2400
G0 X142.209 Y68.245 F5400
G1 X161.618 Y87.654 E36.04419 F2400
G0 X161.252 Y86.723 F5400
G1 X143.224 Y68.695 E36.89218 F2400
G0 X144.315 Y69.221 F5400
G1 X160.887 Y85.792 E37.67165 F2400
G0 X160.359 Y84.698 F5400
G1 X145.407 Y69.746 E38.37496 F2400
G0 X146.498 Y70.272 F5400
G1 X159.586 Y83.360 E38.99060 F2400
G0 X158.814 Y82.022 F5400
G1 X147.947 Y71.155 E39.50173 F2400
G0 X149.724 Y72.366 F5400
G1 X157.886 Y80.528 E39.88564 F2400
G0 X152.459 Y74.536 F5400
G1 X155.659 Y77.735 E40.03614 F2400
G0 X130.404 Y66.057 F5400
G1 X164.013 Y99.666 E41.61698 F2400
G0 X164.020 Y100.239 F5400
G1 X129.839 Y66.057 E43.22477 F2400
G0 X129.273 Y66.057 F5400
G1 X163.981 Y100.765 E44.85731 F2400
G0 X163.941 Y101.291 F5400
G1 X128.707 Y66.057 E46.51461 F2400
G0 X128.142 Y66.057 F5400
G1 X163.902 Y101.818 E48.19666 F2400
G0 X163.862 Y102.344 F5400
G1 X127.576 Y66.057 E49.90346 F2400
G0 X127.069 Y66.116 F5400
G1 X163.823 Y102.870 E51.63225 F2400
G0 X163.783 Y103.396 F5400
G1 X126.577 Y66.190 E53.38232 F2400
G0 X126.085 Y66.264 F5400
G1 X163.744 Y103.922 E55.15365 F2400
G0 X163.704 Y104.449 F5400
G1 X125.594 Y66.338 E56.94625 F2400
G0 X125.102 Y66.412 F5400
G1 X163.665 Y104.975 E58.76012 F2400
G0 X163.572 Y105.448 F5400
G1 X124.611 Y66.486 E60.59274 F2400
G0 X124.119 Y66.560 F5400
G1 X163.467 Y105.908 E62.44354 F2400
G0 X163.362 Y106.369 F5400
G1 X123.627 Y66.635 E64.31252 F2400
G0 X123.136 Y66.709 F5400
G1 X163.257 Y106.829 E66.19968 F2400
G0 X163.152 Y107.290 F5400
G1 X122.644 Y66.783 E68.10501 F2400
G0 X122.186 Y66.890 F5400
G1 X163.046 Y107.751 E70.02698 F2400
G0 X162.941 Y108.211 F5400
G1 X121.753 Y67.023 E71.96434 F2400
G0 X121.321 Y67.156 F5400
G1 X162.836 Y108.672 E73.91709 F2400
G0 X162.731 Y109.132 F5400
G1 X120.889 Y67.290 E75.88523 F2400
G0 X120.456 Y67.423 F5400
G1 X162.626 Y109.593 E77.86875 F2400
G0 X162.518 Y110.051 F5400
G1 X120.024 Y67.557 E79.86756 F2400
G0 X119.592 Y67.690 F5400
G1 X162.359 Y110.457 E81.87920 F2400
G0 X162.199 Y110.863 F5400
G1 X119.159 Y67.823 E83.90367 F2400
G0 X118.727 Y67.957 F5400
G1 X162.040 Y111.270 E85.94098 F2400
G0 X161.881 Y111.676 F5400
G1 X118.295 Y68.090 E87.99113 F2400
G0 X117.862 Y68.223 F5400
G1 X161.721 Y112.082 E90.05411 F2400
G0 X161.562 Y112.488 F5400
G1 X117.446 Y68.372 E92.12919 F2400
G0 X117.064 Y68.556 F5400
G1 X161.402 Y112.895 E94.21473 F2400
G0 X161.243 Y113.301 F5400
G1 X116.682 Y68.740 E96.31073 F2400
G0 X116.300 Y68.924 F5400
G1 X161.083 Y113.707 E98.41719 F2400
G0 X160.924 Y114.113 F5400
G1 X115.918 Y69.108 E100.53411 F2400
G0 X115.537 Y69.292 F5400
G1 X160.765 Y114.520 E102.66149 F2400
G0 X160.587 Y114.907 F5400
G1 X115.155 Y69.476 E104.79846 F2400
G0 X114.773 Y69.659 F5400
G1 X160.380 Y115.266 E106.94366 F2400
G0 X160.173 Y115.625 F5400
G1 X114.391 Y69.843 E109.09707 F2400
G0 X114.009 Y70.027 F5400
G1 X159.966 Y115.983 E111.25871 F2400
G0 X159.758 Y116.342 F5400
G1 X113.628 Y70.211 E113.42856 F2400
G0 X113.246 Y70.395 F5400
G1 X159.551 Y116.701 E115.60663 F2400
G0 X159.344 Y117.059 F5400
G1 X112.878 Y70.593 E117.79227 F2400
G0 X112.542 Y70.822 F5400
G1 X159.137 Y117.418 E119.98399 F2400
G0 X158.930 Y117.776 F5400
G1 X112.205 Y71.051 E122.18179 F2400
G0 X111.869 Y71.281 F5400
G1 X158.723 Y118.135 E124.38568 F2400
G0 X158.516 Y118.494 F5400
G1 X111.532 Y71.510 E126.59565 F2400
G0 X111.196 Y71.739 F5400
G1 X158.309 Y118.852 E128.81171 F2400
G0 X158.098 Y119.207 F5400
G1 X110.860 Y71.969 E131.03363 F2400
G0 X110.523 Y72.198 F5400
G1 X157.847 Y119.521 E133.25957 F2400
G0 X157.596 Y119.836 F5400
G1 X110.187 Y72.427 E135.48952 F2400
G0 X109.851 Y72.657 F5400
G1 X157.345 Y120.151 E137.72350 F2400
G0 X157.094 Y120.465 F5400
G1 X109.514 Y72.886 E139.96149 F2400
G0 X109.178 Y73.115 F5400
G1 X156.843 Y120.780 E142.20349 F2400
G0 X156.592 Y121.095 F5400
G1 X108.842 Y73.345 E144.44951 F2400
G0 X108.540 Y73.609 F5400
G1 X156.341 Y121.409 E146.69791 F2400
G0 X156.090 Y121.724 F5400
G1 X108.246 Y73.881 E148.94830 F2400
G0 X107.953 Y74.153 F5400
G1 X155.839 Y122.039 E151.20070 F2400
G0 X155.588 Y122.354 F5400
G1 X107.660 Y74.426 E153.45509 F2400
G0 X107.366 Y74.698 F5400
G1 X155.337 Y122.668 E155.71147 F2400
G0 X155.086 Y122.983 F5400
G1 X107.073 Y74.970 E157.96985 F2400
G0 X106.779 Y75.242 F5400
G1 X154.815 Y123.278 E160.22929 F2400
G0 X154.522 Y123.550 F5400
G1 X106.486 Y75.515 E162.48874 F2400
G0 X106.193 Y75.787 F5400
G1 X154.228 Y123.823 E164.74818 F2400
G0 X153.935 Y124.095 F5400
G1 X105.899 Y76.059 E167.00763 F2400
G0 X105.606 Y76.331 F5400
G1 X153.641 Y124.367 E169.26708 F2400
G0 X153.348 Y124.639 F5400
G1 X105.312 Y76.604 E171.52652 F2400
G0 X105.023 Y76.880 F5400
G1 X153.055 Y124.912 E173.78576 F2400
G0 X152.761 Y125.184 F5400
G1 X104.772 Y77.195 E176.04302 F2400
G0 X104.521 Y77.510 F5400
G1 X152.468 Y125.456 E178.29826 F2400
G0 X152.174 Y125.728 F5400
G1 X104.270 Y77.824 E180.55152 F2400
G0 X104.019 Y78.139 F5400
G1 X151.881 Y126.001 E182.80278 F2400
G0 X151.588 Y126.273 F5400
G1 X103.768 Y78.454 E185.05204 F2400
G0 X103.517 Y78.769 F5400
G1 X151.294 Y126.545 E187.29932 F2400
G0 X150.968 Y126.785 F5400
G1 X103.266 Y79.083 E189.54306 F2400
G0 X103.015 Y79.398 F5400
G1 X150.632 Y127.014 E191.78280 F2400
G0 X150.296 Y127.244 F5400
G1 X102.765 Y79.713 E194.01850 F2400
G0 X102.514 Y80.027 F5400
G1 X149.959 Y127.473 E196.25022 F2400
G0 X149.623 Y127.702 F5400
G1 X102.263 Y80.342 E198.47790 F2400
G0 X102.012 Y80.657 F5400
G1 X149.286 Y127.932 E200.70156 F2400
G0 X148.950 Y128.161 F5400
G1 X101.781 Y80.992 E202.92024 F2400
G0 X101.574 Y81.350 F5400
G1 X148.614 Y128.390 E205.13286 F2400
G0 X148.277 Y128.620 F5400
G1 X101.367 Y81.709 E207.33938 F2400
G0 X101.160 Y82.068 F5400
G1 X147.941 Y128.849 E209.53982 F2400
G0 X147.605 Y129.078 F5400
G1 X100.953 Y82.426 E211.73420 F2400
G0 X100.746 Y82.785 F5400
G1 X147.268 Y129.308 E213.92248 F2400
G0 X146.920 Y129.525 F5400
G1 X100.539 Y83.144 E216.10412 F2400
G0 X100.332 Y83.502 F5400
G1 X146.538 Y129.709 E218.27754 F2400
G0 X146.156 Y129.893 F5400
G1 X100.124 Y83.861 E220.44274 F2400
G0 X99.917 Y84.220 F5400
G1 X145.775 Y130.077 E222.59974 F2400
G0 X145.393 Y130.261 F5400
G1 X99.710 Y84.578 E224.74848 F2400
G0 X99.503 Y84.937 F5400
G1 X145.011 Y130.444 E226.88904 F2400
G0 X144.629 Y130.628 F5400
G1 X99.305 Y85.304 E229.02096 F2400
G0 X99.145 Y85.710 F5400
G1 X144.247 Y130.812 E231.14242 F2400
G0 X143.866 Y130.996 F5400
G1 X98.986 Y86.116 E233.25344 F2400
G0 X98.826 Y86.523 F5400
G1 X143.484 Y131.180 E235.35398 F2400
G0 X143.102 Y131.364 F5400
G1 X98.667 Y86.929 E237.44406 F2400
G0 X98.508 Y87.335 F5400
G1 X142.720 Y131.548 E239.52368 F2400
G0 X142.325 Y131.719 F5400
G1 X98.348 Y87.741 E241.59224 F2400
G0 X98.189 Y88.148 F5400
G1 X141.893 Y131.852 E243.64796 F2400
G0 X141.461 Y131.985 F5400
G1 X98.029 Y88.554 E245.69086 F2400
G0 X97.870 Y88.960 F5400
G1 X141.029 Y132.119 E247.72092 F2400
G0 X140.596 Y132.252 F5400
G1 X97.710 Y89.366 E249.73812 F2400
G0 X97.551 Y89.773 F5400
G1 X140.164 Y132.386 E251.74250 F2400
G0 X139.732 Y132.519 F5400
G1 X97.420 Y90.207 E253.73272 F2400
G0 X97.315 Y90.668 F5400
G1 X139.299 Y132.652 E255.70756 F2400
G0 X138.867 Y132.786 F5400
G1 X97.210 Y91.128 E257.66700 F2400
G0 X97.104 Y91.589 F5400
G1 X138.435 Y132.919 E259.61102 F2400
G0 X138.002 Y133.052 F5400
G1 X96.999 Y92.049 E261.53968 F2400
G0 X96.894 Y92.510 F5400
G1 X137.569 Y133.185 E263.45292 F2400
G0 X137.078 Y133.259 F5400
G1 X96.789 Y92.971 E265.34796 F2400
G0 X96.684 Y93.431 F5400
G1 X136.586 Y133.333 E267.22486 F2400
G0 X136.095 Y133.407 F5400
G1 X96.579 Y93.892 E269.08356 F2400
G0 X96.474 Y94.352 F5400
G1 X135.603 Y133.481 E270.92408 F2400
G0 X135.111 Y133.556 F5400
G1 X96.369 Y94.813 E272.74642 F2400
G0 X96.313 Y95.323 F5400
G1 X134.620 Y133.630 E274.54828 F2400
G0 X134.128 Y133.704 F5400
G1 X96.273 Y95.849 E276.32886 F2400
G0 X96.234 Y96.375 F5400
G1 X133.637 Y133.778 E278.08816 F2400
G0 X133.145 Y133.852 F5400
G1 X96.194 Y96.901 E279.82620 F2400
G0 X96.155 Y97.428 F5400
G1 X132.653 Y133.926 E281.54296 F2400
G0 X132.104 Y133.943 F5400
G1 X96.116 Y97.954 E283.23578 F2400
G0 X96.076 Y98.480 F5400
G1 X131.539 Y133.943 E284.90384 F2400
G0 X130.973 Y133.943 F5400
G1 X96.037 Y99.006 E286.54712 F2400
G0 X95.997 Y99.533 F5400
G1 X130.407 Y133.943 E288.16564 F2400
G0 X129.841 Y133.943 F5400
G1 X95.967 Y100.068 E289.75900 F2400
G0 X96.013 Y100.680 F5400
G1 X129.276 Y133.943 E291.32358 F2400
G0 X128.710 Y133.943 F5400
G1 X96.059 Y101.291 E292.85938 F2400
G0 X96.105 Y101.903 F5400
G1 X128.144 Y133.943 E294.36642 F2400
G0 X127.579 Y133.943 F5400
G1 X96.151 Y102.514 E295.84470 F2400
G0 X96.197 Y103.126 F5400
G1 X126.934 Y133.864 E297.29050 F2400
G0 X126.268 Y133.764 F5400
G1 X96.242 Y103.738 E298.70282 F2400
G0 X96.288 Y104.349 F5400
G1 X125.602 Y133.663 E300.08166 F2400
G0 X124.936 Y133.563 F5400
G1 X96.334 Y104.961 E301.42704 F2400
G0 X96.479 Y105.671 F5400
G1 X124.270 Y133.462 E302.73426 F2400
G0 X123.604 Y133.362 F5400
G1 X96.646 Y106.404 E304.00226 F2400
G0 X96.814 Y107.137 F5400
G1 X122.938 Y133.262 E305.23108 F2400
G0 X122.237 Y133.126 F5400
G1 X96.981 Y107.870 E306.41904 F2400
G0 X97.148 Y108.603 F5400
G1 X121.419 Y132.874 E307.56064 F2400
G0 X120.601 Y132.621 F5400
G1 X97.316 Y109.336 E308.65592 F2400
G0 X97.493 Y110.079 F5400
G1 X119.783 Y132.369 E309.70438 F2400
G0 X118.965 Y132.117 F5400
G1 X97.858 Y111.010 E310.69718 F2400
G0 X98.223 Y111.941 F5400
G1 X118.147 Y131.864 E311.63430 F2400
G0 X117.250 Y131.533 F5400
G1 X98.589 Y112.872 E312.51206 F2400
G0 X98.954 Y113.803 F5400
G1 X116.159 Y131.008 E313.32128 F2400
G0 X115.068 Y130.482 F5400
G1 X99.320 Y114.735 E314.06202 F2400
G0 X100.078 Y116.058 F5400
G1 X113.976 Y129.957 E314.71576 F2400
G0 X112.825 Y129.371 F5400
G1 X100.850 Y117.397 E315.27902 F2400
G0 X101.623 Y118.735 F5400
G1 X111.048 Y128.159 E315.72232 F2400
G0 X109.270 Y126.947 F5400
G1 X103.374 Y121.051 E315.99966 F2400
; ------------------------------------
; Layer #1
; ------------------------------------
G92 E0 ;reset extr
G0 F3000 E-1.00000
G0 F600 Z1.400
G0 X129.433 Y133.943 F7200
G0 F3000 E0.00000
;segType:HShell
G1 X163.992 Y99.384 E1.62554 F3600
G0 X164.531 Y99.306 F7200
;segType:Perimeter
G1 X164.796 Y100.061 E1.65215 F1800
G1 X164.411 Y105.186 E1.82309
G1 X163.254 Y110.258 E1.99611
G1 X161.354 Y115.099 E2.16909
G1 X158.753 Y119.604 E2.34209
G1 X155.510 Y123.670 E2.51507
G1 X151.698 Y127.208 E2.68805
G1 X147.400 Y130.138 E2.86106
G1 X142.714 Y132.394 E3.03405
G1 X137.744 Y133.928 E3.20705
G1 X132.601 Y134.703 E3.38004
G1 X127.399 Y134.703 E3.55303
G1 X122.256 Y133.928 E3.72602
G1 X117.286 Y132.394 E3.89902
G1 X112.600 Y130.138 E4.07201
G1 X108.302 Y127.208 E4.24501
G1 X104.490 Y123.670 E4.41800
G1 X101.247 Y119.604 E4.59099
G1 X98.646 Y115.099 E4.76398
G1 X96.746 Y110.258 E4.93697
G1 X95.589 Y105.187 E5.10997
G1 X95.200 Y100.000 E5.28296
G1 X95.589 Y94.813 E5.45596
G1 X96.746 Y89.742 E5.62895
G1 X98.646 Y84.901 E5.80194
G1 X101.247 Y80.396 E5.97494
G1 X104.490 Y76.330 E6.14793
G1 X108.302 Y72.792 E6.32092
G1 X112.600 Y69.862 E6.49390
G1 X117.286 Y67.606 E6.66690
G1 X122.256 Y66.072 E6.83991
G1 X127.399 Y65.297 E7.01288
G1 X132.601 Y65.297 E7.18588
G1 X137.744 Y66.073 E7.35889
G1 X142.714 Y67.606 E7.53187
G1 X147.401 Y69.863 E7.70489
G1 X151.697 Y72.791 E7.87783
G1 X155.510 Y76.330 E8.05086
G1 X158.753 Y80.396 E8.22383
G1 X161.354 Y84.902 E8.39687
G1 X163.254 Y89.743 E8.56984
G1 X164.411 Y94.812 E8.74277
G1 X164.796 Y99.942 E8.91387
G0 X164.796 Y100.061 F7200
G0 X164.676 Y101.657
G0 X164.319 Y101.068
;segType:Loop
G1 X164.015 Y105.127 E9.04924 F3600
G1 X162.871 Y110.139 E9.22023
G1 X160.992 Y114.925 E9.39123
G1 X158.421 Y119.378 E9.56226
G1 X155.216 Y123.398 E9.73325
G1 X151.448 Y126.894 E9.90422
G1 X147.200 Y129.790 E10.07522
G1 X142.567 Y132.021 E10.24623
G1 X137.654 Y133.536 E10.41723
G1 X132.571 Y134.303 E10.58823
G1 X127.429 Y134.303 E10.75923
G1 X122.346 Y133.536 E10.93022
G1 X117.432 Y132.021 E11.10124
G1 X112.800 Y129.790 E11.27223
G1 X108.552 Y126.894 E11.44323
G1 X104.784 Y123.397 E11.61422
G1 X101.578 Y119.378 E11.78522
G1 X99.008 Y114.925 E11.95622
G1 X97.129 Y110.139 E12.12722
G1 X95.985 Y105.127 E12.29822
G1 X95.601 Y100.000 E12.46922
G1 X95.985 Y94.873 E12.64022
G1 X97.129 Y89.861 E12.81122
G1 X99.008 Y85.075 E12.98222
G1 X101.578 Y80.622 E13.15322
G1 X104.784 Y76.602 E13.32424
G1 X108.552 Y73.106 E13.49519
G1 X112.800 Y70.210 E13.66620
G1 X117.432 Y67.979 E13.83720
G1 X122.345 Y66.464 E14.00820
G1 X127.430 Y65.697 E14.17923
G1 X132.571 Y65.697 E14.35021
G1 X137.654 Y66.463 E14.52118
G1 X142.568 Y67.979 E14.69222
G1 X147.200 Y70.210 E14.86323
G1 X151.446 Y73.104 E15.03413
G1 X155.216 Y76.603 E15.20519
G1 X158.422 Y80.623 E15.37621
G1 X160.993 Y85.076 E15.54724
G1 X162.871 Y89.861 E15.71820
G1 X164.014 Y94.872 E15.88917
G1 X164.399 Y100.001 E16.06023
G1 X164.334 Y100.869 E16.08918
G0 X164.031 Y99.910 F7200
;segType:HShell
G1 X129.999 Y133.943 E17.68997 F3600
G0 X130.564 Y133.943 F7200
G1 X164.000 Y100.507 E19.26268 F3600
G0 X163.954 Y101.118 F7200
G1 X131.130 Y133.943 E20.80663 F3600
G0 X131.696 Y133.943 F7200
G1 X163.908 Y101.730 E22.32181 F3600
G0 X163.862 Y102.342 F7200
G1 X132.261 Y133.943 E23.80823 F3600
G0 X132.877 Y133.892 F7200
G1 X163.817 Y102.953 E25.26352 F3600
G0 X163.771 Y103.565 F7200
G1 X133.543 Y133.792 E26.68532 F3600
G0 X134.209 Y133.692 F7200
G1 X163.725 Y104.176 E28.07363 F3600
G0 X163.679 Y104.788 F7200
G1 X134.875 Y133.591 E29.42845 F3600
G0 X135.542 Y133.491 F7200
G1 X163.568 Y105.464 E30.74675 F3600
G0 X163.401 Y106.197 F7200
G1 X136.208 Y133.390 E32.02584 F3600
G0 X136.874 Y133.290 F7200
G1 X163.234 Y106.930 E33.26573 F3600
G0 X163.066 Y107.663 F7200
G1 X137.540 Y133.190 E34.46642 F3600
G0 X138.350 Y132.945 F7200
G1 X162.899 Y108.396 E35.62113 F3600
G0 X162.732 Y109.129 F7200
G1 X139.168 Y132.693 E36.72950 F3600
G0 X139.986 Y132.440 F7200
G1 X162.565 Y109.862 E37.79152 F3600
G0 X162.245 Y110.747 F7200
G1 X140.804 Y132.188 E38.80005 F3600
G0 X141.622 Y131.936 F7200
G1 X161.880 Y111.678 E39.75290 F3600
G0 X161.514 Y112.609 F7200
G1 X142.442 Y131.682 E40.65003 F3600
G0 X143.533 Y131.156 F7200
G1 X161.149 Y113.540 E41.47864 F3600
G0 X160.784 Y114.471 F7200
G1 X144.624 Y130.631 E42.23873 F3600
G0 X145.715 Y130.105 F7200
G1 X160.141 Y115.680 E42.91727 F3600
G0 X159.368 Y117.018 F7200
G1 X146.806 Y129.580 E43.50814 F3600
G0 X148.450 Y128.502 F7200
G1 X158.595 Y118.357 E43.98535 F3600
G0 X157.257 Y120.261 F7200
G1 X150.228 Y127.290 E44.31599 F3600
G0 X154.678 Y123.406 F7200
G1 X155.029 Y123.055 E44.33250 F3600
G0 X128.867 Y133.943 F7200
G1 X163.952 Y98.858 E45.98279 F3600
G0 X163.913 Y98.331 F7200
G1 X128.301 Y133.943 E47.65784 F3600
G0 X127.736 Y133.943 F7200
G1 X163.873 Y97.805 E49.35763 F3600
G0 X163.834 Y97.279 F7200
G1 X127.208 Y133.905 E51.08041 F3600
G0 X126.716 Y133.831 F7200
G1 X163.794 Y96.753 E52.82446 F3600
G0 X163.755 Y96.227 F7200
G1 X126.224 Y133.757 E54.58978 F3600
G0 X125.733 Y133.683 F7200
G1 X163.715 Y95.700 E56.37636 F3600
G0 X163.676 Y95.174 F7200
G1 X125.241 Y133.609 E58.18421 F3600
G0 X124.750 Y133.535 F7200
G1 X163.602 Y94.683 E60.01169 F3600
G0 X163.497 Y94.222 F7200
G1 X124.258 Y133.461 E61.85736 F3600
G0 X123.766 Y133.386 F7200
G1 X163.392 Y93.761 E63.72119 F3600
G0 X163.286 Y93.301 F7200
G1 X123.275 Y133.312 E65.60321 F3600
G0 X122.783 Y133.238 F7200
G1 X163.181 Y92.840 E67.50341 F3600
G0 X163.076 Y92.380 F7200
G1 X122.308 Y133.148 E69.42102 F3600
G0 X121.876 Y133.015 F7200
G1 X162.971 Y91.919 E71.35402 F3600
G0 X162.866 Y91.459 F7200
G1 X121.443 Y132.881 E73.30242 F3600
G0 X121.011 Y132.748 F7200
G1 X162.761 Y90.998 E75.26620 F3600
G0 X162.656 Y90.537 F7200
G1 X120.579 Y132.615 E77.24538 F3600
G0 X120.146 Y132.481 F7200
G1 X162.551 Y90.077 E79.23995 F3600
G0 X162.404 Y89.658 F7200
G1 X119.714 Y132.348 E81.24796 F3600
G0 X119.282 Y132.214 F7200
G1 X162.245 Y89.251 E83.26881 F3600
G0 X162.085 Y88.845 F7200
G1 X118.849 Y132.081 E85.30249 F3600
G0 X118.417 Y131.948 F7200
G1 X161.926 Y88.439 E87.34901 F3600
G0 X161.766 Y88.033 F7200
G1 X117.985 Y131.814 E89.40837 F3600
G0 X117.554 Y131.680 F7200
G1 X161.607 Y87.626 E91.48050 F3600
G0 X161.447 Y87.220 F7200
G1 X117.172 Y131.496 E93.56309 F3600
G0 X116.790 Y131.312 F7200
G1 X161.288 Y86.814 E95.65614 F3600
G0 X161.129 Y86.408 F7200
G1 X116.408 Y131.128 E97.75964 F3600
G0 X116.026 Y130.944 F7200
G1 X160.969 Y86.001 E99.87361 F3600
G0 X160.810 Y85.595 F7200
G1 X115.645 Y130.760 E101.99804 F3600
G0 X115.263 Y130.576 F7200
G1 X160.645 Y85.194 E104.13269 F3600
G0 X160.438 Y84.835 F7200
G1 X114.881 Y130.393 E106.27556 F3600
G0 X114.499 Y130.209 F7200
G1 X160.231 Y84.477 E108.42664 F3600
G0 X160.024 Y84.118 F7200
G1 X114.117 Y130.025 E110.58595 F3600
G0 X113.736 Y129.841 F7200
G1 X159.817 Y83.760 E112.75348 F3600
G0 X159.610 Y83.401 F7200
G1 X113.354 Y129.657 E114.92923 F3600
G0 X112.973 Y129.472 F7200
G1 X159.403 Y83.042 E117.11314 F3600
G0 X159.196 Y82.684 F7200
G1 X112.637 Y129.243 E119.30315 F3600
G0 X112.300 Y129.013 F7200
G1 X158.989 Y82.325 E121.49923 F3600
G0 X158.782 Y81.966 F7200
G1 X111.964 Y128.784 E123.70139 F3600
G0 X111.628 Y128.555 F7200
G1 X158.575 Y81.608 E125.90965 F3600
G0 X158.368 Y81.249 F7200
G1 X111.291 Y128.325 E128.12398 F3600
G0 X110.955 Y128.096 F7200
G1 X158.161 Y80.890 E130.34439 F3600
G0 X157.917 Y80.568 F7200
G1 X110.618 Y127.867 E132.56918 F3600
G0 X110.282 Y127.638 F7200
G1 X157.666 Y80.253 E134.79800 F3600
G0 X157.416 Y79.938 F7200
G1 X109.946 Y127.408 E137.03084 F3600
G0 X109.609 Y127.179 F7200
G1 X157.165 Y79.624 E139.26768 F3600
G0 X156.914 Y79.309 F7200
G1 X109.273 Y126.950 E141.50854 F3600
G0 X108.937 Y126.720 F7200
G1 X156.663 Y78.994 E143.75343 F3600
G0 X156.412 Y78.680 F7200
G1 X108.623 Y126.468 E146.00127 F3600
G0 X108.329 Y126.196 F7200
G1 X156.161 Y78.365 E148.25110 F3600
G0 X155.910 Y78.050 F7200
G1 X108.036 Y125.924 E150.50293 F3600
G0 X107.743 Y125.651 F7200
G1 X155.659 Y77.735 E152.75676 F3600
G0 X155.408 Y77.421 F7200
G1 X107.449 Y125.379 E155.01257 F3600
G0 X107.156 Y125.107 F7200
G1 X155.157 Y77.106 E157.27039 F3600
G0 X154.898 Y76.799 F7200
G1 X106.862 Y124.835 E159.52983 F3600
G0 X106.569 Y124.562 F7200
G1 X154.605 Y76.527 E161.78928 F3600
G0 X154.311 Y76.254 F7200
G1 X106.276 Y124.290 E164.04872 F3600
G0 X105.982 Y124.018 F7200
G1 X154.018 Y75.982 E166.30817 F3600
G0 X153.724 Y75.710 F7200
G1 X105.689 Y123.746 E168.56762 F3600
G0 X105.395 Y123.473 F7200
G1 X153.431 Y75.438 E170.82706 F3600
G0 X153.138 Y75.165 F7200
G1 X105.102 Y123.201 E173.08650 F3600
G0 X104.843 Y122.894 F7200
G1 X152.844 Y74.893 E175.34432 F3600
G0 X152.551 Y74.621 F7200
G1 X104.592 Y122.579 E177.60012 F3600
G0 X104.341 Y122.265 F7200
G1 X152.257 Y74.349 E179.85394 F3600
G0 X151.964 Y74.076 F7200
G1 X104.090 Y121.950 E182.10578 F3600
G0 X103.839 Y121.635 F7200
G1 X151.670 Y73.804 E184.35560 F3600
G0 X151.377 Y73.532 F7200
G1 X103.588 Y121.320 E186.60344 F3600
G0 X103.337 Y121.006 F7200
G1 X151.064 Y73.280 E188.84832 F3600
G0 X150.727 Y73.050 F7200
G1 X103.086 Y120.691 E191.08920 F3600
G0 X102.835 Y120.376 F7200
G1 X150.391 Y72.821 E193.32606 F3600
G0 X150.054 Y72.592 F7200
G1 X102.584 Y120.062 E195.55890 F3600
G0 X102.334 Y119.747 F7200
G1 X149.718 Y72.362 E197.78772 F3600
G0 X149.382 Y72.133 F7200
G1 X102.083 Y119.432 E200.01252 F3600
G0 X101.839 Y119.110 F7200
G1 X149.045 Y71.904 E202.23294 F3600
G0 X148.709 Y71.674 F7200
G1 X101.632 Y118.751 E204.44728 F3600
G0 X101.425 Y118.392 F7200
G1 X148.373 Y71.445 E206.65554 F3600
G0 X148.036 Y71.216 F7200
G1 X101.218 Y118.034 E208.85770 F3600
G0 X101.011 Y117.675 F7200
G1 X147.700 Y70.987 E211.05378 F3600
G0 X147.363 Y70.757 F7200
G1 X100.804 Y117.316 E213.24378 F3600
G0 X100.597 Y116.958 F7200
G1 X147.027 Y70.528 E215.42770 F3600
G0 X146.646 Y70.343 F7200
G1 X100.390 Y116.599 E217.60346 F3600
G0 X100.183 Y116.241 F7200
G1 X146.264 Y70.159 E219.77098 F3600
G0 X145.883 Y69.975 F7200
G1 X99.976 Y115.882 E221.93028 F3600
G0 X99.769 Y115.523 F7200
G1 X145.501 Y69.791 E224.08138 F3600
G0 X145.119 Y69.608 F7200
G1 X99.562 Y115.165 E226.22424 F3600
G0 X99.355 Y114.806 F7200
G1 X144.737 Y69.424 E228.35888 F3600
G0 X144.355 Y69.240 F7200
G1 X99.190 Y114.405 E230.48330 F3600
G0 X99.031 Y113.999 F7200
G1 X143.974 Y69.056 E232.59728 F3600
G0 X143.592 Y68.872 F7200
G1 X98.871 Y113.592 E234.70078 F3600
G0 X98.712 Y113.186 F7200
G1 X143.210 Y68.688 E236.79382 F3600
G0 X142.828 Y68.504 F7200
G1 X98.553 Y112.780 E238.87640 F3600
G0 X98.393 Y112.374 F7200
G1 X142.446 Y68.320 E240.94854 F3600
G0 X142.015 Y68.186 F7200
G1 X98.234 Y111.967 E243.00788 F3600
G0 X98.074 Y111.561 F7200
G1 X141.583 Y68.052 E245.05442 F3600
G0 X141.151 Y67.919 F7200
G1 X97.915 Y111.155 E247.08808 F3600
G0 X97.755 Y110.749 F7200
G1 X140.718 Y67.786 E249.10894 F3600
G0 X140.286 Y67.652 F7200
G1 X97.596 Y110.342 E251.11694 F3600
G0 X97.449 Y109.923 F7200
G1 X139.854 Y67.519 E253.11152 F3600
G0 X139.421 Y67.386 F7200
G1 X97.344 Y109.463 E255.09068 F3600
G0 X97.239 Y109.002 F7200
G1 X138.989 Y67.252 E257.05448 F3600
G0 X138.557 Y67.119 F7200
G1 X97.134 Y108.541 E259.00286 F3600
G0 X97.029 Y108.081 F7200
G1 X138.124 Y66.985 E260.93588 F3600
G0 X137.692 Y66.852 F7200
G1 X96.924 Y107.620 E262.85348 F3600
G0 X96.819 Y107.160 F7200
G1 X137.217 Y66.762 E264.75370 F3600
G0 X136.725 Y66.688 F7200
G1 X96.714 Y106.699 E266.63572 F3600
G0 X96.609 Y106.239 F7200
G1 X136.234 Y66.614 E268.49954 F3600
G0 X135.742 Y66.539 F7200
G1 X96.503 Y105.778 E270.34522 F3600
G0 X96.398 Y105.317 F7200
G1 X135.250 Y66.465 E272.17270 F3600
G0 X134.759 Y66.391 F7200
G1 X96.324 Y104.826 E273.98056 F3600
G0 X96.285 Y104.300 F7200
G1 X134.267 Y66.317 E275.76716 F3600
G0 X133.776 Y66.243 F7200
G1 X96.245 Y103.774 E277.53248 F3600
G0 X96.206 Y103.247 F7200
G1 X133.284 Y66.169 E279.27652 F3600
G0 X132.792 Y66.095 F7200
G1 X96.166 Y102.721 E280.99930 F3600
G0 X96.127 Y102.195 F7200
G1 X132.264 Y66.057 E282.69910 F3600
G0 X131.699 Y66.057 F7200
G1 X96.087 Y101.669 E284.37414 F3600
G0 X96.048 Y101.142 F7200
G1 X131.133 Y66.057 E286.02444 F3600
G0 X130.567 Y66.057 F7200
G1 X96.008 Y100.616 E287.65000 F3600
G0 X95.969 Y100.090 F7200
G1 X130.001 Y66.057 E289.25080 F3600
G0 X129.436 Y66.057 F7200
G1 X96.000 Y99.493 E290.82352 F3600
G0 X96.046 Y98.882 F7200
G1 X128.870 Y66.057 E292.36746 F3600
G0 X128.304 Y66.057 F7200
G1 X96.092 Y98.270 E293.88262 F3600
G0 X96.138 Y97.658 F7200
G1 X127.739 Y66.057 E295.36904 F3600
G0 X127.123 Y66.108 F7200
G1 X96.184 Y97.047 E296.82434 F3600
G0 X96.229 Y96.435 F7200
G1 X126.457 Y66.208 E298.24612 F3600
G0 X125.791 Y66.309 F7200
G1 X96.275 Y95.824 E299.63442 F3600
G0 X96.321 Y95.212 F7200
G1 X125.124 Y66.409 E300.98926 F3600
G0 X124.458 Y66.509 F7200
G1 X96.432 Y94.536 E302.30756 F3600
G0 X96.599 Y93.803 F7200
G1 X123.792 Y66.610 E303.58664 F3600
G0 X123.126 Y66.710 F7200
G1 X96.766 Y93.070 E304.82654 F3600
G0 X96.934 Y92.337 F7200
G1 X122.460 Y66.810 E306.02722 F3600
G0 X121.650 Y67.055 F7200
G1 X97.101 Y91.604 E307.18194 F3600
G0 X97.268 Y90.871 F7200
G1 X120.832 Y67.307 E308.29032 F3600
G0 X120.014 Y67.560 F7200
G1 X97.436 Y90.138 E309.35232 F3600
G0 X97.755 Y89.253 F7200
G1 X119.196 Y67.812 E310.36088 F3600
G0 X118.378 Y68.064 F7200
G1 X98.120 Y88.322 E311.31372 F3600
G0 X98.486 Y87.391 F7200
G1 X117.558 Y68.318 E312.21084 F3600
G0 X116.467 Y68.844 F7200
G1 X98.851 Y86.460 E313.03946 F3600
G0 X99.216 Y85.529 F7200
G1 X115.376 Y69.369 E313.79956 F3600
G0 X111.550 Y71.498 F7200
G1 X101.405 Y81.643 E314.27676 F3600
G0 X100.632 Y82.982 F7200
G1 X113.194 Y70.420 E314.86764 F3600
G0 X114.285 Y69.895 F7200
G1 X99.859 Y84.320 E315.54618 F3600
G0 X102.744 Y79.739 F7200
G1 X109.773 Y72.710 E315.87678 F3600
G0 X104.972 Y76.945 F7200
G1 X105.321 Y76.595 E315.89318 F3600
; ------------------------------------
; Layer #2
; ------------------------------------
G92 E0 ;reset extr
G0 F3000 E-1.00000
G0 F600 Z1.600
G0 X130.970 Y66.057 F7200
G0 F3000 E0.00000
;segType:HShell
G1 X163.967 Y99.054 E1.55208 F3600
G0 X164.531 Y99.306 F7200
;segType:Perimeter
G1 X164.796 Y100.061 E1.57868 F1800
G1 X164.411 Y105.186 E1.74962
G1 X163.254 Y110.258 E1.92264
G1 X161.354 Y115.099 E2.09563
G1 X158.753 Y119.604 E2.26863
G1 X155.510 Y123.670 E2.44160
G1 X151.698 Y127.208 E2.61459
G1 X147.400 Y130.138 E2.78759
G1 X142.714 Y132.394 E2.96059
G1 X137.744 Y133.928 E3.13359
G1 X132.601 Y134.703 E3.30658
G1 X127.399 Y134.703 E3.47957
G1 X122.256 Y133.928 E3.65256
G1 X117.286 Y132.394 E3.82556
G1 X112.600 Y130.138 E3.99855
G1 X108.302 Y127.208 E4.17154
G1 X104.490 Y123.670 E4.34454
G1 X101.247 Y119.604 E4.51752
G1 X98.646 Y115.099 E4.69052
G1 X96.746 Y110.258 E4.86351
G1 X95.589 Y105.187 E5.03650
G1 X95.200 Y100.000 E5.20950
G1 X95.589 Y94.813 E5.38250
G1 X96.746 Y89.742 E5.55549
G1 X98.646 Y84.901 E5.72848
G1 X101.247 Y80.396 E5.90148
G1 X104.490 Y76.330 E6.07447
G1 X108.302 Y72.792 E6.24745
G1 X112.600 Y69.862 E6.42044
G1 X117.286 Y67.606 E6.59344
G1 X122.256 Y66.072 E6.76645
G1 X127.399 Y65.297 E6.93942
G1 X132.601 Y65.297 E7.11242
G1 X137.744 Y66.073 E7.28543
G1 X142.714 Y67.606 E7.45841
G1 X147.401 Y69.863 E7.63143
G1 X151.697 Y72.791 E7.80436
G1 X155.510 Y76.330 E7.97740
G1 X158.753 Y80.396 E8.15037
G1 X161.354 Y84.902 E8.32340
G1 X163.254 Y89.743 E8.49638
G1 X164.411 Y94.812 E8.66931
G1 X164.796 Y99.942 E8.84041
G0 X164.796 Y100.061 F7200
G0 X164.676 Y101.657
G0 X164.319 Y101.068
;segType:Loop
G1 X164.015 Y105.127 E8.97578 F3600
G1 X162.871 Y110.139 E9.14677
G1 X160.992 Y114.925 E9.31777
G1 X158.421 Y119.378 E9.48880
G1 X155.216 Y123.398 E9.65978
G1 X151.448 Y126.894 E9.83076
G1 X147.200 Y129.790 E10.00176
G1 X142.567 Y132.021 E10.17277
G1 X137.654 Y133.536 E10.34377
G1 X132.571 Y134.303 E10.51477
G1 X127.429 Y134.303 E10.68576
G1 X122.346 Y133.536 E10.85676
G1 X117.432 Y132.021 E11.02777
G1 X112.800 Y129.790 E11.19877
G1 X108.552 Y126.894 E11.36977
G1 X104.784 Y123.397 E11.54076
G1 X101.578 Y119.378 E11.71176
G1 X99.008 Y114.925 E11.88276
G1 X97.129 Y110.139 E12.05375
G1 X95.985 Y105.127 E12.22475
G1 X95.601 Y100.000 E12.39576
G1 X95.985 Y94.873 E12.56676
G1 X97.129 Y89.861 E12.73776
G1 X99.008 Y85.075 E12.90875
G1 X101.578 Y80.622 E13.07975
G1 X104.784 Y76.602 E13.25078
G1 X108.552 Y73.106 E13.42173
G1 X112.800 Y70.210 E13.59274
G1 X117.432 Y67.979 E13.76374
G1 X122.345 Y66.464 E13.93474
G1 X127.430 Y65.697 E14.10577
G1 X132.571 Y65.697 E14.27674
G1 X137.654 Y66.463 E14.44772
G1 X142.568 Y67.979 E14.61876
G1 X147.200 Y70.210 E14.78977
G1 X151.446 Y73.104 E14.96067
G1 X155.216 Y76.603 E15.13173
G1 X158.422 Y80.623 E15.30275
G1 X160.993 Y85.076 E15.47377
G1 X162.871 Y89.861 E15.64474
G1 X164.014 Y94.872 E15.81571
G1 X164.399 Y100.001 E15.98677
G1 X164.334 Y100.869 E16.01572
G0 X163.921 Y98.443 F7200
;segType:HShell
G1 X131.536 Y66.057 E17.53903 F3600
G0 X132.101 Y66.057 F7200
G1 X163.875 Y97.831 E19.03357 F3600
G0 X163.829 Y97.220 F7200
G1 X132.689 Y66.079 E20.49832 F3600
G0 X133.355 Y66.180 F7200
G1 X163.783 Y96.608 E21.92959 F3600
G0 X163.738 Y95.997 F7200
G1 X134.021 Y66.280 E23.32736 F3600
G0 X134.687 Y66.380 F7200
G1 X163.692 Y95.385 E24.69165 F3600
G0 X163.616 Y94.743 F7200
G1 X135.353 Y66.481 E26.02103 F3600
G0 X136.019 Y66.581 F7200
G1 X163.448 Y94.010 E27.31121 F3600
G0 X163.281 Y93.277 F7200
G1 X136.685 Y66.682 E28.56219 F3600
G0 X137.351 Y66.782 F7200
G1 X163.114 Y92.544 E29.77397 F3600
G0 X162.946 Y91.811 F7200
G1 X138.119 Y66.984 E30.94179 F3600
G0 X138.937 Y67.236 F7200
G1 X162.779 Y91.078 E32.06326 F3600
G0 X162.612 Y90.345 F7200
G1 X139.755 Y67.488 E33.13838 F3600
G0 X140.573 Y67.741 F7200
G1 X162.349 Y89.516 E34.16265 F3600
G0 X161.983 Y88.585 F7200
G1 X141.391 Y67.993 E35.13125 F3600
G0 X142.209 Y68.245 F7200
G1 X161.618 Y87.654 E36.04419 F3600
G0 X161.252 Y86.723 F7200
G1 X143.224 Y68.695 E36.89218 F3600
G0 X144.315 Y69.221 F7200
G1 X160.887 Y85.792 E37.67165 F3600
G0 X160.359 Y84.698 F7200
G1 X145.407 Y69.746 E38.37496 F3600
G0 X146.498 Y70.272 F7200
G1 X159.586 Y83.360 E38.99060 F3600
G0 X158.814 Y82.022 F7200
G1 X147.947 Y71.155 E39.50173 F3600
G0 X130.404 Y66.057 F7200
G1 X164.013 Y99.666 E41.08257 F3600
G0 X164.020 Y100.239 F7200
G1 X129.839 Y66.057 E42.69037 F3600
G0 X129.273 Y66.057 F7200
G1 X163.981 Y100.765 E44.32291 F3600
G0 X163.941 Y101.291 F7200
G1 X128.707 Y66.057 E45.98020 F3600
G0 X128.142 Y66.057 F7200
G1 X163.902 Y101.818 E47.66225 F3600
G0 X163.862 Y102.344 F7200
G1 X127.576 Y66.057 E49.36905 F3600
G0 X127.069 Y66.116 F7200
G1 X163.823 Y102.870 E51.09785 F3600
G0 X163.783 Y103.396 F7200
G1 X126.577 Y66.190 E52.84791 F3600
G0 X126.085 Y66.264 F7200
G1 X163.744 Y103.922 E54.61925 F3600
G0 X163.704 Y104.449 F7200
G1 X125.594 Y66.338 E56.41184 F3600
G0 X125.102 Y66.412 F7200
G1 X163.665 Y104.975 E58.22571 F3600
G0 X163.572 Y105.448 F7200
G1 X124.611 Y66.486 E60.05833 F3600
G0 X124.119 Y66.560 F7200
G1 X163.467 Y105.908 E61.90913 F3600
G0 X163.362 Y106.369 F7200
G1 X123.627 Y66.635 E63.77811 F3600
G0 X123.136 Y66.709 F7200
G1 X163.257 Y106.829 E65.66527 F3600
G0 X163.152 Y107.290 F7200
G1 X122.644 Y66.783 E67.57060 F3600
G0 X122.186 Y66.890 F7200
G1 X163.046 Y107.751 E69.49257 F3600
G0 X162.941 Y108.211 F7200
G1 X121.753 Y67.023 E71.42993 F3600
G0 X121.321 Y67.156 F7200
G1 X162.836 Y108.672 E73.38268 F3600
G0 X162.731 Y109.132 F7200
G1 X120.889 Y67.290 E75.35082 F3600
G0 X120.456 Y67.423 F7200
G1 X162.626 Y109.593 E77.33435 F3600
G0 X162.518 Y110.051 F7200
G1 X120.024 Y67.557 E79.33315 F3600
G0 X119.592 Y67.690 F7200
G1 X162.359 Y110.457 E81.34479 F3600
G0 X162.199 Y110.863 F7200
G1 X119.159 Y67.823 E83.36927 F3600
G0 X118.727 Y67.957 F7200
G1 X162.040 Y111.270 E85.40657 F3600
G0 X161.881 Y111.676 F7200
G1 X118.295 Y68.090 E87.45672 F3600
G0 X117.862 Y68.223 F7200
G1 X161.721 Y112.082 E89.51970 F3600
G0 X161.562 Y112.488 F7200
G1 X117.446 Y68.372 E91.59478 F3600
G0 X117.064 Y68.556 F7200
G1 X161.402 Y112.895 E93.68032 F3600
G0 X161.243 Y113.301 F7200
G1 X116.682 Y68.740 E95.77632 F3600
G0 X116.300 Y68.924 F7200
G1 X161.083 Y113.707 E97.88278 F3600
G0 X160.924 Y114.113 F7200
G1 X115.918 Y69.108 E99.99970 F3600
G0 X115.537 Y69.292 F7200
G1 X160.765 Y114.520 E102.12708 F3600
G0 X160.587 Y114.907 F7200
G1 X115.155 Y69.476 E104.26405 F3600
G0 X114.773 Y69.659 F7200
G1 X160.380 Y115.266 E106.40925 F3600
G0 X160.173 Y115.625 F7200
G1 X114.391 Y69.843 E108.56266 F3600
G0 X114.009 Y70.027 F7200
G1 X159.966 Y115.983 E110.72430 F3600
G0 X159.758 Y116.342 F7200
G1 X113.628 Y70.211 E112.89415 F3600
G0 X113.246 Y70.395 F7200
G1 X159.551 Y116.701 E115.07223 F3600
G0 X159.344 Y117.059 F7200
G1 X112.878 Y70.593 E117.25787 F3600
G0 X112.542 Y70.822 F7200
G1 X159.137 Y117.418 E119.44958 F3600
G0 X158.930 Y117.776 F7200
G1 X112.205 Y71.051 E121.64739 F3600
G0 X111.869 Y71.281 F7200
G1 X158.723 Y118.135 E123.85128 F3600
G0 X158.516 Y118.494 F7200
G1 X111.532 Y71.510 E126.06125 F3600
G0 X111.196 Y71.739 F7200
G1 X158.309 Y118.852 E128.27730 F3600
G0 X158.098 Y119.207 F7200
G1 X110.860 Y71.969 E130.49922 F3600
G0 X110.523 Y72.198 F7200
G1 X157.847 Y119.521 E132.72516 F3600
G0 X157.596 Y119.836 F7200
G1 X110.187 Y72.427 E134.95511 F3600
G0 X109.851 Y72.657 F7200
G1 X157.345 Y120.151 E137.18909 F3600
G0 X157.094 Y120.465 F7200
G1 X109.514 Y72.886 E139.42708 F3600
G0 X109.178 Y73.115 F7200
G1 X156.843 Y120.780 E141.66908 F3600
G0 X156.592 Y121.095 F7200
G1 X108.842 Y73.345 E143.91510 F3600
G0 X108.540 Y73.609 F7200
G1 X156.341 Y121.409 E146.16350 F3600
G0 X156.090 Y121.724 F7200
G1 X108.246 Y73.881 E148.41389 F3600
G0 X107.953 Y74.153 F7200
G1 X155.839 Y122.039 E150.66629 F3600
G0 X155.588 Y122.354 F7200
G1 X107.660 Y74.426 E152.92068 F3600
G0 X107.366 Y74.698 F7200
G1 X155.337 Y122.668 E155.17706 F3600
G0 X155.086 Y122.983 F7200
G1 X107.073 Y74.970 E157.43544 F3600
G0 X106.779 Y75.242 F7200
G1 X154.815 Y123.278 E159.69489 F3600
G0 X154.522 Y123.550 F7200
G1 X106.486 Y75.515 E161.95433 F3600
G0 X106.193 Y75.787 F7200
G1 X154.228 Y123.823 E164.21378 F3600
G0 X153.935 Y124.095 F7200
G1 X105.899 Y76.059 E166.47322 F3600
G0 X105.606 Y76.331 F7200
G1 X153.641 Y124.367 E168.73266 F3600
G0 X153.348 Y124.639 F7200
G1 X105.312 Y76.604 E170.99212 F3600
G0 X105.023 Y76.880 F7200
G1 X153.055 Y124.912 E173.25136 F3600
G0 X152.761 Y125.184 F7200
G1 X104.772 Y77.195 E175.50860 F3600
G0 X104.521 Y77.510 F7200
G1 X152.468 Y125.456 E177.76386 F3600
G0 X152.174 Y125.728 F7200
G1 X104.270 Y77.824 E180.01710 F3600
G0 X104.019 Y78.139 F7200
G1 X151.881 Y126.001 E182.26838 F3600
G0 X151.588 Y126.273 F7200
G1 X103.768 Y78.454 E184.51764 F3600
G0 X103.517 Y78.769 F7200
G1 X151.294 Y126.545 E186.76490 F3600
G0 X150.968 Y126.785 F7200
G1 X103.266 Y79.083 E189.00866 F3600
G0 X103.015 Y79.398 F7200
G1 X150.632 Y127.014 E191.24838 F3600
G0 X150.296 Y127.244 F7200
G1 X102.765 Y79.713 E193.48410 F3600
G0 X102.514 Y80.027 F7200
G1 X149.959 Y127.473 E195.71580 F3600
G0 X149.623 Y127.702 F7200
G1 X102.263 Y80.342 E197.94348 F3600
G0 X102.012 Y80.657 F7200
G1 X149.286 Y127.932 E200.16714 F3600
G0 X148.950 Y128.161 F7200
G1 X101.781 Y80.992 E202.38584 F3600
G0 X101.574 Y81.350 F7200
G1 X148.614 Y128.390 E204.59844 F3600
G0 X148.277 Y128.620 F7200
G1 X101.367 Y81.709 E206.80498 F3600
G0 X101.160 Y82.068 F7200
G1 X147.941 Y128.849 E209.00542 F3600
G0 X147.605 Y129.078 F7200
G1 X100.953 Y82.426 E211.19978 F3600
G0 X100.746 Y82.785 F7200
G1 X147.268 Y129.308 E213.38806 F3600
G0 X146.920 Y129.525 F7200
G1 X100.539 Y83.144 E215.56970 F3600
G0 X100.332 Y83.502 F7200
G1 X146.538 Y129.709 E217.74314 F3600
G0 X146.156 Y129.893 F7200
G1 X100.124 Y83.861 E219.90834 F3600
G0 X99.917 Y84.220 F7200
G1 X145.775 Y130.077 E222.06532 F3600
G0 X145.393 Y130.261 F7200
G1 X99.710 Y84.578 E224.21408 F3600
G0 X99.503 Y84.937 F7200
G1 X145.011 Y130.444 E226.35462 F3600
G0 X144.629 Y130.628 F7200
G1 X99.305 Y85.304 E228.48656 F3600
G0 X99.145 Y85.710 F7200
G1 X144.247 Y130.812 E230.60802 F3600
G0 X143.866 Y130.996 F7200
G1 X98.986 Y86.116 E232.71902 F3600
G0 X98.826 Y86.523 F7200
G1 X143.484 Y131.180 E234.81956 F3600
G0 X143.102 Y131.364 F7200
G1 X98.667 Y86.929 E236.90966 F3600
G0 X98.508 Y87.335 F7200
G1 X142.720 Y131.548 E238.98928 F3600
G0 X142.326 Y131.719 F7200
G1 X98.348 Y87.741 E241.05784 F3600
G0 X98.189 Y88.148 F7200
G1 X141.893 Y131.852 E243.11356 F3600
G0 X141.461 Y131.985 F7200
G1 X98.029 Y88.554 E245.15644 F3600
G0 X97.870 Y88.960 F7200
G1 X141.029 Y132.119 E247.18650 F3600
G0 X140.596 Y132.252 F7200
G1 X97.710 Y89.366 E249.20372 F3600
G0 X97.551 Y89.773 F7200
G1 X140.164 Y132.386 E251.20810 F3600
G0 X139.732 Y132.519 F7200
G1 X97.420 Y90.207 E253.19832 F3600
G0 X97.315 Y90.668 F7200
G1 X139.299 Y132.652 E255.17314 F3600
G0 X138.867 Y132.786 F7200
G1 X97.210 Y91.128 E257.13256 F3600
G0 X97.104 Y91.589 F7200
G1 X138.435 Y132.919 E259.07660 F3600
G0 X138.002 Y133.052 F7200
G1 X96.999 Y92.049 E261.00524 F3600
G0 X96.894 Y92.510 F7200
G1 X137.569 Y133.185 E262.91848 F3600
G0 X137.078 Y133.259 F7200
G1 X96.789 Y92.971 E264.81354 F3600
G0 X96.684 Y93.431 F7200
G1 X136.586 Y133.333 E266.69042 F3600
G0 X136.095 Y133.407 F7200
G1 X96.579 Y93.892 E268.54914 F3600
G0 X96.474 Y94.352 F7200
G1 X135.603 Y133.481 E270.38964 F3600
G0 X135.111 Y133.556 F7200
G1 X96.369 Y94.813 E272.21200 F3600
G0 X96.313 Y95.323 F7200
G1 X134.620 Y133.630 E274.01386 F3600
G0 X134.128 Y133.704 F7200
G1 X96.273 Y95.849 E275.79444 F3600
G0 X96.234 Y96.375 F7200
G1 X133.637 Y133.778 E277.55374 F3600
G0 X133.145 Y133.852 F7200
G1 X96.194 Y96.901 E279.29178 F3600
G0 X96.155 Y97.428 F7200
G1 X132.653 Y133.926 E281.00854 F3600
G0 X132.104 Y133.943 F7200
G1 X96.116 Y97.954 E282.70136 F3600
G0 X96.076 Y98.480 F7200
G1 X131.539 Y133.943 E284.36942 F3600
G0 X130.973 Y133.943 F7200
G1 X96.037 Y99.006 E286.01270 F3600
G0 X95.997 Y99.533 F7200
G1 X130.407 Y133.943 E287.63122 F3600
G0 X129.841 Y133.943 F7200
G1 X95.967 Y100.068 E289.22458 F3600
G0 X96.013 Y100.680 F7200
G1 X129.276 Y133.943 E290.78916 F3600
G0 X128.710 Y133.943 F7200
G1 X96.059 Y101.291 E292.32496 F3600
G0 X96.105 Y101.903 F7200
G1 X128.144 Y133.943 E293.83200 F3600
G0 X127.579 Y133.943 F7200
G1 X96.151 Y102.514 E295.31028 F3600
G0 X96.197 Y103.126 F7200
G1 X126.934 Y133.864 E296.75610 F3600
G0 X126.268 Y133.764 F7200
G1 X96.242 Y103.738 E298.16842 F3600
G0 X96.288 Y104.349 F7200
G1 X125.602 Y133.663 E299.54728 F3600
G0 X124.936 Y133.563 F7200
G1 X96.334 Y104.961 E300.89264 F3600
G0 X96.479 Y105.671 F7200
G1 X124.270 Y133.462 E302.19986 F3600
G0 X123.604 Y133.362 F7200
G1 X96.646 Y106.404 E303.46786 F3600
G0 X96.814 Y107.137 F7200
G1 X122.938 Y133.262 E304.69668 F3600
G0 X122.237 Y133.126 F7200
G1 X96.981 Y107.870 E305.88464 F3600
G0 X97.148 Y108.603 F7200
G1 X121.419 Y132.874 E307.02624 F3600
G0 X120.601 Y132.621 F7200
G1 X97.316 Y109.336 E308.12152 F3600
G0 X97.493 Y110.079 F7200
G1 X119.783 Y132.369 E309.16998 F3600
G0 X118.965 Y132.117 F7200
G1 X97.858 Y111.010 E310.16278 F3600
G0 X98.223 Y111.941 F7200
G1 X118.147 Y131.864 E311.09992 F3600
G0 X117.250 Y131.533 F7200
G1 X98.589 Y112.872 E311.97766 F3600
G0 X98.954 Y113.803 F7200
G1 X116.159 Y131.008 E312.78690 F3600
G0 X115.068 Y130.482 F7200
G1 X99.320 Y114.735 E313.52762 F3600
G0 X100.078 Y116.058 F7200
G1 X113.976 Y129.957 E314.18136 F3600
G0 X112.825 Y129.371 F7200
G1 X100.850 Y117.397 E314.74462 F3600
G0 X101.623 Y118.735 F7200
G1 X111.048 Y128.159 E315.18792 F3600
G0 X109.270 Y126.947 F7200
G1 X103.374 Y121.051 E315.46528 F3600
G0 F3000 E314.46528
G0 X103.123 Y121.314 F7200
G0 X149.976 Y72.102
G0 X149.724 Y72.366
G0 F3000 E315.46528
G1 X157.886 Y80.528 E315.84918 F3600
G0 X155.659 Y77.735 F7200
G1 X152.459 Y74.536 E315.99966 F3600
; ------------------------------------
; Layer #3
; ------------------------------------
G92 E0 ;reset extr
G0 F3000 E-1.00000
G0 F600 Z1.800
G0 X129.433 Y133.943 F7200
G0 F3000 E0.00000
;segType:HShell
G1 X163.992 Y99.384 E1.62554 F3600
G0 X164.531 Y99.306 F7200
;segType:Perimeter
G1 X164.796 Y100.061 E1.65215 F1800
G1 X164.411 Y105.186 E1.82309
G1 X163.254 Y110.258 E1.99611
G1 X161.354 Y115.099 E2.16909
G1 X158.753 Y119.604 E2.34209
G1 X155.510 Y123.670 E2.51507
G1 X151.698 Y127.208 E2.68805
G1 X147.400 Y130.138 E2.86106
G1 X142.714 Y132.394 E3.03405
G1 X137.744 Y133.928 E3.20705
G1 X132.601 Y134.703 E3.38004
G1 X127.399 Y134.703 E3.55303
G1 X122.256 Y133.928 E3.72602
G1 X117.286 Y132.394 E3.89902
G1 X112.600 Y130.138 E4.07201
G1 X108.302 Y127.208 E4.24501
G1 X104.490 Y123.670 E4.41800
G1 X101.247 Y119.604 E4.59099
G1 X98.646 Y115.099 E4.76398
G1 X96.746 Y110.258 E4.93697
G1 X95.589 Y105.187 E5.10997
G1 X95.200 Y100.000 E5.28296
G1 X95.589 Y94.813 E5.45596
G1 X96.746 Y89.742 E5.62895
G1 X98.646 Y84.901 E5.80194
G1 X101.247 Y80.396 E5.97494
G1 X104.490 Y76.330 E6.14793
G1 X108.302 Y72.792 E6.32092
G1 X112.600 Y69.862 E6.49390
G1 X117.286 Y67.606 E6.66690
G1 X122.256 Y66.072 E6.83991
G1 X127.399 Y65.297 E7.01288
G1 X132.601 Y65.297 E7.18588
G1 X137.744 Y66.073 E7.35889
G1 X142.714 Y67.606 E7.53187
G1 X147.401 Y69.863 E7.70489
G1 X151.697 Y72.791 E7.87783
G1 X155.510 Y76.330 E8.05086
G1 X158.753 Y80.396 E8.22383
G1 X161.354 Y84.902 E8.39687
G1 X163.254 Y89.743 E8.56984
G1 X164.411 Y94.812 E8.74277
G1 X164.796 Y99.942 E8.91387
G0 X164.796 Y100.061 F7200
G0 X164.676 Y101.657
G0 X164.319 Y101.068
;segType:Loop
G1 X164.015 Y105.127 E9.04924 F3600
G1 X162.871 Y110.139 E9.22023
G1 X160.992 Y114.925 E9.39123
G1 X158.421 Y119.378 E9.56226
G1 X155.216 Y123.398 E9.73324
G1 X151.448 Y126.894 E9.90422
G1 X147.200 Y129.790 E10.07522
G1 X142.567 Y132.021 E10.24623
G1 X137.654 Y133.536 E10.41723
G1 X132.571 Y134.303 E10.58823
G1 X127.429 Y134.303 E10.75922
G1 X122.346 Y133.536 E10.93022
G1 X117.432 Y132.021 E11.10123
G1 X112.800 Y129.790 E11.27223
G1 X108.552 Y126.894 E11.44323
G1 X104.784 Y123.397 E11.61422
G1 X101.578 Y119.378 E11.78522
G1 X99.008 Y114.925 E11.95622
G1 X97.129 Y110.139 E12.12721
G1 X95.985 Y105.127 E12.29821
G1 X95.601 Y100.000 E12.46922
G1 X95.985 Y94.873 E12.64022
G1 X97.129 Y89.861 E12.81122
G1 X99.008 Y85.075 E12.98221
G1 X101.578 Y80.622 E13.15321
G1 X104.784 Y76.602 E13.32424
G1 X108.552 Y73.106 E13.49519
G1 X112.800 Y70.210 E13.66620
G1 X117.432 Y67.979 E13.83720
G1 X122.345 Y66.464 E14.00820
G1 X127.430 Y65.697 E14.17923
G1 X132.571 Y65.697 E14.35020
G1 X137.654 Y66.463 E14.52118
G1 X142.568 Y67.979 E14.69221
G1 X147.200 Y70.210 E14.86323
G1 X151.446 Y73.104 E15.03413
G1 X155.216 Y76.603 E15.20519
G1 X158.422 Y80.623 E15.37621
G1 X160.993 Y85.076 E15.54723
G1 X162.871 Y89.861 E15.71819
G1 X164.014 Y94.872 E15.88917
G1 X164.399 Y100.001 E16.06023
G1 X164.334 Y100.869 E16.08918
G0 X164.031 Y99.910 F7200
;segType:HShell
G1 X129.999 Y133.943 E17.68997 F3600
G0 X130.564 Y133.943 F7200
G1 X164.000 Y100.507 E19.26268 F3600
G0 X163.954 Y101.118 F7200
G1 X131.130 Y133.943 E20.80663 F3600
G0 X131.696 Y133.943 F7200
G1 X163.908 Y101.730 E22.32182 F3600
G0 X163.862 Y102.341 F7200
G1 X132.261 Y133.943 E23.80824 F3600
G0 X132.877 Y133.892 F7200
G1 X163.817 Y102.953 E25.26352 F3600
G0 X163.771 Y103.565 F7200
G1 X133.543 Y133.792 E26.68532 F3600
G0 X134.209 Y133.692 F7200
G1 X163.725 Y104.176 E28.07363 F3600
G0 X163.679 Y104.788 F7200
G1 X134.875 Y133.591 E29.42846 F3600
G0 X135.542 Y133.491 F7200
G1 X163.568 Y105.464 E30.74675 F3600
G0 X163.401 Y106.197 F7200
G1 X136.208 Y133.390 E32.02584 F3600
G0 X136.874 Y133.290 F7200
G1 X163.234 Y106.930 E33.26573 F3600
G0 X163.066 Y107.663 F7200
G1 X137.540 Y133.190 E34.46642 F3600
G0 X138.350 Y132.945 F7200
G1 X162.899 Y108.396 E35.62114 F3600
G0 X162.732 Y109.129 F7200
G1 X139.168 Y132.693 E36.72950 F3600
G0 X139.986 Y132.440 F7200
G1 X162.565 Y109.862 E37.79153 F3600
G0 X162.245 Y110.747 F7200
G1 X140.804 Y132.188 E38.80005 F3600
G0 X141.622 Y131.936 F7200
G1 X161.880 Y111.678 E39.75292 F3600
G0 X161.514 Y112.609 F7200
G1 X142.442 Y131.682 E40.65004 F3600
G0 X143.533 Y131.156 F7200
G1 X161.149 Y113.540 E41.47865 F3600
G0 X160.784 Y114.471 F7200
G1 X144.624 Y130.631 E42.23875 F3600
G0 X128.867 Y133.943 F7200
G1 X163.952 Y98.858 E43.88904 F3600
G0 X163.913 Y98.331 F7200
G1 X128.301 Y133.943 E45.56408 F3600
G0 X127.736 Y133.943 F7200
G1 X163.873 Y97.805 E47.26388 F3600
G0 X163.834 Y97.279 F7200
G1 X127.208 Y133.905 E48.98666 F3600
G0 X126.716 Y133.831 F7200
G1 X163.794 Y96.753 E50.73071 F3600
G0 X163.755 Y96.226 F7200
G1 X126.224 Y133.757 E52.49602 F3600
G0 X125.733 Y133.683 F7200
G1 X163.715 Y95.700 E54.28261 F3600
G0 X163.676 Y95.174 F7200
G1 X125.241 Y133.609 E56.09046 F3600
G0 X124.750 Y133.535 F7200
G1 X163.602 Y94.683 E57.91794 F3600
G0 X163.497 Y94.222 F7200
G1 X124.258 Y133.461 E59.76360 F3600
G0 X123.766 Y133.386 F7200
G1 X163.392 Y93.761 E61.62744 F3600
G0 X163.286 Y93.301 F7200
G1 X123.275 Y133.312 E63.50946 F3600
G0 X122.783 Y133.238 F7200
G1 X163.181 Y92.840 E65.40966 F3600
G0 X163.076 Y92.380 F7200
G1 X122.308 Y133.148 E67.32727 F3600
G0 X121.876 Y133.015 F7200
G1 X162.971 Y91.919 E69.26027 F3600
G0 X162.866 Y91.459 F7200
G1 X121.443 Y132.881 E71.20867 F3600
G0 X121.011 Y132.748 F7200
G1 X162.761 Y90.998 E73.17245 F3600
G0 X162.656 Y90.537 F7200
G1 X120.579 Y132.615 E75.15163 F3600
G0 X120.146 Y132.481 F7200
G1 X162.551 Y90.077 E77.14620 F3600
G0 X162.404 Y89.658 F7200
G1 X119.714 Y132.348 E79.15421 F3600
G0 X119.282 Y132.214 F7200
G1 X162.245 Y89.251 E81.17506 F3600
G0 X162.085 Y88.845 F7200
G1 X118.849 Y132.081 E83.20874 F3600
G0 X118.417 Y131.948 F7200
G1 X161.926 Y88.439 E85.25526 F3600
G0 X161.766 Y88.033 F7200
G1 X117.985 Y131.814 E87.31462 F3600
G0 X117.554 Y131.680 F7200
G1 X161.607 Y87.626 E89.38675 F3600
G0 X161.447 Y87.220 F7200
G1 X117.172 Y131.496 E91.46934 F3600
G0 X116.790 Y131.312 F7200
G1 X161.288 Y86.814 E93.56239 F3600
G0 X161.129 Y86.408 F7200
G1 X116.408 Y131.128 E95.66589 F3600
G0 X116.026 Y130.944 F7200
G1 X160.969 Y86.001 E97.77986 F3600
G0 X160.810 Y85.595 F7200
G1 X115.645 Y130.760 E99.90429 F3600
G0 X115.263 Y130.576 F7200
G1 X160.645 Y85.194 E102.03893 F3600
G0 X160.438 Y84.835 F7200
G1 X114.881 Y130.393 E104.18180 F3600
G0 X114.499 Y130.209 F7200
G1 X160.231 Y84.477 E106.33289 F3600
G0 X160.024 Y84.118 F7200
G1 X114.117 Y130.025 E108.49220 F3600
G0 X113.736 Y129.841 F7200
G1 X159.817 Y83.760 E110.65972 F3600
G0 X159.610 Y83.401 F7200
G1 X113.354 Y129.657 E112.83546 F3600
G0 X112.973 Y129.472 F7200
G1 X159.403 Y83.042 E115.01938 F3600
G0 X159.196 Y82.684 F7200
G1 X112.637 Y129.243 E117.20938 F3600
G0 X112.300 Y129.013 F7200
G1 X158.989 Y82.325 E119.40546 F3600
G0 X158.782 Y81.966 F7200
G1 X111.964 Y128.784 E121.60763 F3600
G0 X111.628 Y128.555 F7200
G1 X158.575 Y81.608 E123.81587 F3600
G0 X158.368 Y81.249 F7200
G1 X111.291 Y128.325 E126.03020 F3600
G0 X110.955 Y128.096 F7200
G1 X158.161 Y80.890 E128.25061 F3600
G0 X157.917 Y80.568 F7200
G1 X110.618 Y127.867 E130.47540 F3600
G0 X110.282 Y127.638 F7200
G1 X157.666 Y80.253 E132.70422 F3600
G0 X157.416 Y79.938 F7200
G1 X109.946 Y127.408 E134.93706 F3600
G0 X109.609 Y127.179 F7200
G1 X157.165 Y79.624 E137.17390 F3600
G0 X156.914 Y79.309 F7200
G1 X109.273 Y126.950 E139.41476 F3600
G0 X108.937 Y126.720 F7200
G1 X156.663 Y78.994 E141.65965 F3600
G0 X156.412 Y78.680 F7200
G1 X108.623 Y126.468 E143.90749 F3600
G0 X108.330 Y126.196 F7200
G1 X156.161 Y78.365 E146.15732 F3600
G0 X155.910 Y78.050 F7200
G1 X108.036 Y125.924 E148.40915 F3600
G0 X107.743 Y125.651 F7200
G1 X155.659 Y77.735 E150.66296 F3600
G0 X155.408 Y77.421 F7200
G1 X107.449 Y125.379 E152.91878 F3600
G0 X107.156 Y125.107 F7200
G1 X155.157 Y77.106 E155.17659 F3600
G0 X154.898 Y76.799 F7200
G1 X106.862 Y124.835 E157.43604 F3600
G0 X106.569 Y124.562 F7200
G1 X154.605 Y76.527 E159.69548 F3600
G0 X154.311 Y76.254 F7200
G1 X106.276 Y124.290 E161.95493 F3600
G0 X105.982 Y124.018 F7200
G1 X154.018 Y75.982 E164.21437 F3600
G0 X153.724 Y75.710 F7200
G1 X105.689 Y123.746 E166.47382 F3600
G0 X105.395 Y123.473 F7200
G1 X153.431 Y75.438 E168.73326 F3600
G0 X153.138 Y75.165 F7200
G1 X105.102 Y123.201 E170.99270 F3600
G0 X104.843 Y122.894 F7200
G1 X152.844 Y74.893 E173.25052 F3600
G0 X152.551 Y74.621 F7200
G1 X104.592 Y122.579 E175.50634 F3600
G0 X104.341 Y122.265 F7200
G1 X152.257 Y74.349 E177.76016 F3600
G0 X151.964 Y74.076 F7200
G1 X104.090 Y121.950 E180.01200 F3600
G0 X103.839 Y121.635 F7200
G1 X151.671 Y73.804 E182.26182 F3600
G0 X151.377 Y73.532 F7200
G1 X103.588 Y121.320 E184.50966 F3600
G0 X103.337 Y121.006 F7200
G1 X151.064 Y73.280 E186.75454 F3600
G0 X150.727 Y73.050 F7200
G1 X103.086 Y120.691 E188.99542 F3600
G0 X102.835 Y120.376 F7200
G1 X150.391 Y72.821 E191.23228 F3600
G0 X150.054 Y72.592 F7200
G1 X102.584 Y120.062 E193.46512 F3600
G0 X102.333 Y119.747 F7200
G1 X149.718 Y72.362 E195.69394 F3600
G0 X149.382 Y72.133 F7200
G1 X102.083 Y119.432 E197.91874 F3600
G0 X101.839 Y119.110 F7200
G1 X149.045 Y71.904 E200.13916 F3600
G0 X148.709 Y71.674 F7200
G1 X101.632 Y118.751 E202.35350 F3600
G0 X101.425 Y118.392 F7200
G1 X148.373 Y71.445 E204.56176 F3600
G0 X148.036 Y71.216 F7200
G1 X101.218 Y118.034 E206.76392 F3600
G0 X101.011 Y117.675 F7200
G1 X147.700 Y70.987 E208.96000 F3600
G0 X147.363 Y70.757 F7200
G1 X100.804 Y117.316 E211.15000 F3600
G0 X100.597 Y116.958 F7200
G1 X147.027 Y70.528 E213.33392 F3600
G0 X146.646 Y70.343 F7200
G1 X100.390 Y116.599 E215.50968 F3600
G0 X100.183 Y116.241 F7200
G1 X146.264 Y70.159 E217.67720 F3600
G0 X145.883 Y69.975 F7200
G1 X99.976 Y115.882 E219.83650 F3600
G0 X99.769 Y115.523 F7200
G1 X145.501 Y69.791 E221.98760 F3600
G0 X145.119 Y69.608 F7200
G1 X99.562 Y115.165 E224.13046 F3600
G0 X99.355 Y114.806 F7200
G1 X144.737 Y69.424 E226.26510 F3600
G0 X144.355 Y69.240 F7200
G1 X99.190 Y114.405 E228.38952 F3600
G0 X99.031 Y113.999 F7200
G1 X143.974 Y69.056 E230.50350 F3600
G0 X143.592 Y68.872 F7200
G1 X98.871 Y113.592 E232.60700 F3600
G0 X98.712 Y113.186 F7200
G1 X143.210 Y68.688 E234.70004 F3600
G0 X142.828 Y68.504 F7200
G1 X98.553 Y112.780 E236.78262 F3600
G0 X98.393 Y112.374 F7200
G1 X142.446 Y68.320 E238.85476 F3600
G0 X142.015 Y68.186 F7200
G1 X98.234 Y111.967 E240.91410 F3600
G0 X98.074 Y111.561 F7200
G1 X141.583 Y68.052 E242.96064 F3600
G0 X141.151 Y67.919 F7200
G1 X97.915 Y111.155 E244.99430 F3600
G0 X97.755 Y110.749 F7200
G1 X140.718 Y67.786 E247.01516 F3600
G0 X140.286 Y67.652 F7200
G1 X97.596 Y110.342 E249.02316 F3600
G0 X97.449 Y109.923 F7200
G1 X139.854 Y67.519 E251.01774 F3600
G0 X139.421 Y67.385 F7200
G1 X97.344 Y109.463 E252.99690 F3600
G0 X97.239 Y109.002 F7200
G1 X138.989 Y67.252 E254.96070 F3600
G0 X138.557 Y67.119 F7200
G1 X97.134 Y108.541 E256.90908 F3600
G0 X97.029 Y108.081 F7200
G1 X138.124 Y66.985 E258.84210 F3600
G0 X137.692 Y66.852 F7200
G1 X96.924 Y107.620 E260.75970 F3600
G0 X96.819 Y107.160 F7200
G1 X137.217 Y66.762 E262.65992 F3600
G0 X136.725 Y66.688 F7200
G1 X96.714 Y106.699 E264.54194 F3600
G0 X96.609 Y106.239 F7200
G1 X136.234 Y66.614 E266.40576 F3600
G0 X135.742 Y66.539 F7200
G1 X96.503 Y105.778 E268.25144 F3600
G0 X96.398 Y105.317 F7200
G1 X135.250 Y66.465 E270.07892 F3600
G0 X134.759 Y66.391 F7200
G1 X96.324 Y104.826 E271.88678 F3600
G0 X96.285 Y104.300 F7200
G1 X134.267 Y66.317 E273.67338 F3600
G0 X133.776 Y66.243 F7200
G1 X96.245 Y103.774 E275.43870 F3600
G0 X96.206 Y103.247 F7200
G1 X133.284 Y66.169 E277.18274 F3600
G0 X132.792 Y66.095 F7200
G1 X96.166 Y102.721 E278.90552 F3600
G0 X96.127 Y102.195 F7200
G1 X132.264 Y66.057 E280.60532 F3600
G0 X131.699 Y66.057 F7200
G1 X96.087 Y101.669 E282.28036 F3600
G0 X96.048 Y101.142 F7200
G1 X131.133 Y66.057 E283.93066 F3600
G0 X130.567 Y66.057 F7200
G1 X96.008 Y100.616 E285.55622 F3600
G0 X95.969 Y100.090 F7200
G1 X130.001 Y66.057 E287.15702 F3600
G0 X129.436 Y66.057 F7200
G1 X96.000 Y99.493 E288.72974 F3600
G0 X96.046 Y98.882 F7200
G1 X128.870 Y66.057 E290.27368 F3600
G0 X128.304 Y66.057 F7200
G1 X96.092 Y98.270 E291.78884 F3600
G0 X96.138 Y97.658 F7200
G1 X127.739 Y66.057 E293.27526 F3600
G0 X127.123 Y66.108 F7200
G1 X96.184 Y97.047 E294.73056 F3600
G0 X96.229 Y96.435 F7200
G1 X126.457 Y66.208 E296.15234 F3600
G0 X125.790 Y66.309 F7200
G1 X96.275 Y95.824 E297.54064 F3600
G0 X96.321 Y95.212 F7200
G1 X125.124 Y66.409 E298.89548 F3600
G0 X124.458 Y66.509 F7200
G1 X96.432 Y94.536 E300.21378 F3600
G0 X96.599 Y93.803 F7200
G1 X123.792 Y66.610 E301.49286 F3600
G0 X123.126 Y66.710 F7200
G1 X96.766 Y93.070 E302.73276 F3600
G0 X96.934 Y92.337 F7200
G1 X122.460 Y66.810 E303.93344 F3600
G0 X121.650 Y67.055 F7200
