; #disp params :
; Printmode:0
; Layer:13
; Xmin:89.764 mm
; Xmax:170.038 mm
; XDimension:80.274 mm
; Ymin:59.972 mm
; Ymax:140.104 mm
; YDimension:80.132 mm
; Zmax:4.9 mm
; E0diam:0.4 mm
; E0len:5.22388 m
; E0temp:215 C
; Bedtemp:215 C
; Time:39.322 min
; #params end
; GCode generated by CraftWare

G28 X Y ; home horizontally
G28 Z ; home vertically


M104 S215 ;set head temp (no wait)
M190 S60 ;set bed temp (wait)
M109 S215 ;set head temp (wait)

; ------------------------------------
; Raft Layer #0
; ------------------------------------
M106 S0 ;turn off fan
G21 ; mm
G90 ; abs
G92 E0 ;reset extr
G0 F600 Z0.300
;segType:Raft
G0 F3000 E-1.00000
G0 F600 Z2.300
G0 X102.735 Y129.714 F5400
G0 F600 Z0.300
G0 F3000 E0.00000
G1 X99.029 Y126.008 E0.39222 F600
G1 X98.830 Y125.677 E0.42112
G1 X98.565 Y125.412 E0.44914
G1 X98.367 Y125.082 E0.47799
G1 X98.102 Y124.817 E0.50600
G1 X97.903 Y124.486 E0.53491
G1 X97.374 Y123.957 E0.59094
G1 X97.176 Y123.626 E0.61979
G1 X96.911 Y123.361 E0.64780
G1 X96.712 Y123.030 E0.67671
G1 X96.447 Y122.765 E0.70472
G1 X96.249 Y122.435 E0.73357
G1 X95.984 Y122.170 E0.76159
G1 X94.991 Y120.515 E0.90600
G1 X94.859 Y120.118 E0.93733
G1 X94.594 Y119.854 E0.96534
G1 X94.462 Y119.456 E0.99666
G1 X93.271 Y117.471 E1.16993
G1 X93.271 Y117.206 E1.18974
G1 X93.073 Y116.876 E1.21859
G1 X92.940 Y116.479 E1.24991
G1 X92.741 Y116.148 E1.27882
G1 X92.741 Y115.883 E1.29863
G1 X92.543 Y115.552 E1.32748
G1 X92.411 Y115.155 E1.35880
G1 X92.212 Y114.824 E1.38771
G1 X92.212 Y114.559 E1.40751
G1 X92.014 Y114.229 E1.43637
G1 X91.881 Y113.832 E1.46769
G1 X91.683 Y113.500 E1.49659
G1 X91.683 Y113.236 E1.51640
G1 X91.484 Y112.905 E1.54525
G1 X91.418 Y112.442 E1.58029
G1 X91.285 Y112.044 E1.61162
G1 X91.285 Y111.780 E1.63143
G1 X91.153 Y111.647 E1.64543
G1 X91.021 Y110.721 E1.71547
G1 X90.888 Y110.324 E1.74680
G1 X90.888 Y110.059 E1.76660
G1 X90.756 Y109.927 E1.78061
G1 X90.756 Y109.397 E1.82023
G1 X90.624 Y109.265 E1.83424
G1 X90.491 Y108.338 E1.90428
G1 X90.359 Y108.206 E1.91829
G1 X90.227 Y107.280 E1.98833
G1 X90.227 Y105.956 E2.08737
G1 X90.094 Y105.824 E2.10138
G1 X90.094 Y104.235 E2.22024
G1 X89.962 Y104.103 E2.23425
G1 X89.962 Y103.044 E2.31349
G1 X89.830 Y102.118 E2.38353
G1 X89.830 Y97.618 E2.72030
G1 X89.962 Y97.485 E2.73430
G1 X89.962 Y96.426 E2.81354
G1 X90.094 Y95.500 E2.88358
G1 X90.094 Y94.176 E2.98263
G1 X90.227 Y94.044 E2.99664
G1 X90.227 Y92.456 E3.11550
G1 X90.359 Y92.323 E3.12951
G1 X90.491 Y91.397 E3.19954
G1 X90.624 Y91.000 E3.23087
G1 X90.624 Y90.735 E3.25068
G1 X90.756 Y90.603 E3.26468
G1 X90.756 Y90.073 E3.30430
G1 X90.888 Y89.941 E3.31831
G1 X91.021 Y89.014 E3.38835
G1 X91.153 Y88.882 E3.40236
G1 X91.153 Y88.353 E3.44198
G1 X91.285 Y88.220 E3.45599
G1 X91.418 Y87.294 E3.52602
G1 X91.617 Y86.963 E3.55493
G1 X91.749 Y86.566 E3.58625
G1 X91.947 Y86.235 E3.61510
G1 X91.947 Y85.970 E3.63491
G1 X92.146 Y85.639 E3.66382
G1 X92.278 Y85.242 E3.69514
G1 X92.477 Y84.911 E3.72399
G1 X92.477 Y84.647 E3.74380
G1 X92.609 Y84.514 E3.75781
G1 X92.609 Y84.250 E3.77762
G1 X92.808 Y83.918 E3.80652
G1 X92.940 Y83.521 E3.83784
G1 X93.138 Y83.191 E3.86669
G1 X93.138 Y82.926 E3.88650
G1 X93.535 Y82.264 E3.94426
G1 X93.668 Y81.867 E3.97558
G1 X93.933 Y81.602 E4.00360
G1 X94.065 Y81.205 E4.03492
G1 X96.050 Y77.896 E4.32370
G1 X96.315 Y77.632 E4.35171
G1 X96.712 Y76.970 E4.40947
G1 X97.241 Y76.441 E4.46550
G1 X97.440 Y76.109 E4.49440
G1 X97.705 Y75.845 E4.52242
G1 X97.903 Y75.514 E4.55127
G1 X98.168 Y75.249 E4.57928
G1 X98.367 Y74.918 E4.60819
G1 X98.631 Y74.653 E4.63620
G1 X98.830 Y74.323 E4.66505
G1 X103.065 Y70.087 E5.11330
G1 X103.330 Y69.823 E5.14132
G1 X103.661 Y69.624 E5.17022
G1 X105.249 Y68.036 E5.33831
G1 X105.580 Y67.837 E5.36716
G1 X105.845 Y67.573 E5.39518
G1 X106.176 Y67.374 E5.42408
G1 X106.441 Y67.109 E5.45210
G1 X107.433 Y66.514 E5.53871
G1 X107.698 Y66.249 E5.56672
G1 X108.691 Y65.653 E5.65338
G1 X108.955 Y65.388 E5.68140
G1 X110.610 Y64.396 E5.82576
G1 X111.007 Y64.264 E5.85708
G1 X111.338 Y64.065 E5.88599
G1 X111.735 Y63.933 E5.91731
G1 X112.397 Y63.536 E5.97506
G1 X112.794 Y63.403 E6.00639
G1 X113.455 Y63.006 E6.06414
G1 X113.852 Y62.874 E6.09546
G1 X113.985 Y62.741 E6.10947
G1 X114.250 Y62.741 E6.12928
G1 X114.911 Y62.344 E6.18704
G1 X115.374 Y62.278 E6.22203
G1 X116.566 Y61.881 E6.31600
G1 X117.029 Y61.815 E6.35104
G1 X117.161 Y61.683 E6.36505
G1 X117.426 Y61.683 E6.38486
G1 X117.558 Y61.550 E6.39887
G1 X117.823 Y61.550 E6.41868
G1 X117.956 Y61.418 E6.43269
G1 X118.220 Y61.418 E6.45250
G1 X118.353 Y61.285 E6.46650
G1 X118.816 Y61.220 E6.50150
G1 X119.610 Y60.955 E6.56415
G1 X120.073 Y60.888 E6.59919
G1 X120.470 Y60.756 E6.63051
G1 X121.000 Y60.756 E6.67013
G1 X121.132 Y60.624 E6.68414
G1 X121.926 Y60.624 E6.74357
G1 X122.059 Y60.491 E6.75757
G1 X122.853 Y60.491 E6.81700
G1 X122.985 Y60.359 E6.83101
G1 X123.515 Y60.359 E6.87063
G1 X123.912 Y60.227 E6.90195
G1 X124.441 Y60.227 E6.94157
G1 X124.573 Y60.094 E6.95558
G1 X133.044 Y60.094 E7.58950
G1 X135.162 Y60.094 E7.74798
G1 X135.559 Y60.227 E7.77930
G1 X136.088 Y60.227 E7.81892
G1 X136.221 Y60.359 E7.83293
G1 X137.015 Y60.359 E7.89236
G1 X137.147 Y60.491 E7.90636
G1 X137.677 Y60.491 E7.94598
G1 X138.074 Y60.624 E7.97731
G1 X138.603 Y60.624 E8.01693
G1 X139.000 Y60.756 E8.04825
G1 X139.530 Y60.756 E8.08787
G1 X139.662 Y60.888 E8.10188
G1 X140.191 Y60.888 E8.14150
G1 X141.780 Y61.418 E8.26678
G1 X142.044 Y61.418 E8.28659
G1 X142.177 Y61.550 E8.30060
G1 X142.442 Y61.550 E8.32041
G1 X142.574 Y61.683 E8.33442
G1 X142.839 Y61.683 E8.35423
G1 X142.971 Y61.815 E8.36824
G1 X143.236 Y61.815 E8.38805
G1 X143.368 Y61.947 E8.40205
G1 X143.832 Y62.014 E8.43710
G1 X145.023 Y62.411 E8.53106
G1 X145.353 Y62.609 E8.55991
G1 X146.148 Y62.874 E8.62256
G1 X146.809 Y63.271 E8.68031
G1 X147.206 Y63.403 E8.71163
G1 X147.868 Y63.800 E8.76939
G1 X148.265 Y63.933 E8.80071
G1 X148.927 Y64.330 E8.85847
G1 X149.721 Y64.594 E8.92111
G1 X149.986 Y64.859 E8.94913
G1 X150.979 Y65.455 E9.03579
G1 X151.244 Y65.720 E9.06380
G1 X152.236 Y66.315 E9.15041
G1 X152.501 Y66.580 E9.17842
G1 X153.824 Y67.374 E9.29393
G1 X154.354 Y67.903 E9.34996
G1 X154.685 Y68.102 E9.37887
G1 X156.008 Y69.426 E9.51895
G1 X156.339 Y69.624 E9.54780
G1 X160.574 Y73.859 E9.99604
G1 X160.839 Y74.124 E10.02406
G1 X161.038 Y74.455 E10.05296
G1 X161.567 Y74.985 E10.10899
G1 X161.766 Y75.315 E10.13785
G1 X162.030 Y75.580 E10.16586
G1 X162.229 Y75.911 E10.19476
G1 X162.494 Y76.176 E10.22278
G1 X162.692 Y76.506 E10.25163
G1 X162.957 Y76.771 E10.27965
G1 X163.156 Y77.102 E10.30855
G1 X163.685 Y77.632 E10.36458
G1 X165.273 Y80.279 E10.59560
G1 X165.406 Y80.676 E10.62692
G1 X165.670 Y80.941 E10.65494
G1 X165.803 Y81.338 E10.68626
G1 X166.597 Y82.661 E10.80177
G1 X166.862 Y83.455 E10.86442
G1 X166.994 Y83.588 E10.87842
G1 X166.994 Y83.853 E10.89823
G1 X167.126 Y83.985 E10.91224
G1 X167.126 Y84.250 E10.93205
G1 X167.325 Y84.580 E10.96090
G1 X167.457 Y84.977 E10.99222
G1 X167.656 Y85.308 E11.02113
G1 X167.656 Y85.573 E11.04094
G1 X167.854 Y85.904 E11.06979
G1 X167.986 Y86.301 E11.10111
G1 X168.185 Y86.632 E11.13002
G1 X168.185 Y86.897 E11.14982
G1 X168.383 Y87.227 E11.17868
G1 X168.450 Y87.691 E11.21372
G1 X168.582 Y87.823 E11.22772
G1 X168.582 Y88.353 E11.26735
G1 X168.715 Y88.485 E11.28135
G1 X168.847 Y89.411 E11.35139
G1 X168.979 Y89.809 E11.38271
G1 X168.979 Y90.073 E11.40252
G1 X169.112 Y90.206 E11.41653
G1 X169.244 Y91.132 E11.48657
G1 X169.376 Y91.529 E11.51789
G1 X169.376 Y91.794 E11.53770
G1 X169.509 Y91.926 E11.55171
G1 X169.641 Y92.853 E11.62175
G1 X169.641 Y94.176 E11.72080
G1 X169.773 Y94.309 E11.73480
G1 X169.773 Y95.897 E11.85366
G1 X169.906 Y96.029 E11.86767
G1 X169.906 Y97.088 E11.94691
G1 X170.038 Y98.015 E12.01695
G1 X170.038 Y102.250 E12.33391
G1 X169.906 Y102.647 E12.36523
G1 X169.906 Y103.706 E12.44447
G1 X169.773 Y104.632 E12.51451
G1 X169.773 Y105.956 E12.61356
G1 X169.641 Y106.088 E12.62757
G1 X169.641 Y107.677 E12.74643
G1 X169.509 Y107.809 E12.76043
G1 X169.376 Y108.736 E12.83047
G1 X169.244 Y109.133 E12.86179
G1 X169.244 Y109.397 E12.88160
G1 X169.112 Y109.530 E12.89561
G1 X169.112 Y110.059 E12.93523
G1 X168.979 Y110.191 E12.94924
G1 X168.847 Y111.118 E13.01928
G1 X168.715 Y111.250 E13.03328
G1 X168.582 Y112.177 E13.10332
G1 X168.450 Y112.574 E13.13465
G1 X168.450 Y112.839 E13.15445
G1 X168.251 Y113.170 E13.18336
G1 X168.119 Y113.567 E13.21468
G1 X167.920 Y113.897 E13.24353
G1 X167.920 Y114.162 E13.26334
G1 X167.722 Y114.493 E13.29225
G1 X167.589 Y114.890 E13.32357
G1 X167.391 Y115.221 E13.35242
G1 X167.391 Y115.486 E13.37223
G1 X167.192 Y115.817 E13.40113
G1 X167.060 Y116.214 E13.43246
G1 X166.862 Y116.545 E13.46131
G1 X166.862 Y116.809 E13.48112
G1 X166.663 Y117.140 E13.51002
G1 X166.530 Y117.538 E13.54134
G1 X165.935 Y118.530 E13.62795
G1 X165.803 Y118.927 E13.65927
G1 X165.538 Y119.192 E13.68729
G1 X165.406 Y119.589 E13.71861
G1 X163.817 Y122.236 E13.94963
G1 X163.553 Y122.501 E13.97765
G1 X163.354 Y122.832 E14.00655
G1 X163.089 Y123.097 E14.03457
G1 X162.891 Y123.427 E14.06342
G1 X162.626 Y123.692 E14.09143
G1 X162.427 Y124.023 E14.12034
G1 X162.163 Y124.288 E14.14835
G1 X161.964 Y124.618 E14.17720
G1 X161.435 Y125.148 E14.23323
G1 X161.236 Y125.479 E14.26214
G1 X160.971 Y125.744 E14.29015
G1 X160.773 Y126.074 E14.31900
G1 X157.067 Y129.780 E14.71122
G1 X156.736 Y129.979 E14.74012
G1 X155.148 Y131.567 E14.90822
G1 X154.817 Y131.766 E14.93707
G1 X154.023 Y132.560 E15.02111
G1 X153.030 Y133.156 E15.10777
G1 X152.765 Y133.420 E15.13579
G1 X152.104 Y133.817 E15.19355
G1 X151.839 Y134.082 E15.22156
G1 X150.515 Y134.876 E15.33707
G1 X150.251 Y135.141 E15.36509
G1 X149.589 Y135.538 E15.42284
G1 X149.192 Y135.670 E15.45416
G1 X148.530 Y136.067 E15.51192
G1 X148.133 Y136.200 E15.54324
G1 X148.001 Y136.332 E15.55725
G1 X147.736 Y136.332 E15.57706
G1 X147.074 Y136.729 E15.63481
G1 X146.677 Y136.862 E15.66614
G1 X146.015 Y137.259 E15.72389
G1 X145.618 Y137.391 E15.75521
G1 X145.287 Y137.589 E15.78406
G1 X144.493 Y137.854 E15.84671
G1 X144.030 Y137.920 E15.88175
G1 X143.897 Y138.053 E15.89576
G1 X143.633 Y138.053 E15.91557
G1 X143.500 Y138.185 E15.92958
G1 X143.236 Y138.185 E15.94939
G1 X143.103 Y138.318 E15.96339
G1 X142.839 Y138.318 E15.98320
G1 X142.706 Y138.450 E15.99721
G1 X142.243 Y138.516 E16.03221
G1 X141.052 Y138.913 E16.12618
G1 X140.589 Y138.979 E16.16122
G1 X140.456 Y139.112 E16.17522
G1 X140.191 Y139.112 E16.19503
G1 X140.059 Y139.244 E16.20904
G1 X139.530 Y139.244 E16.24866
G1 X139.397 Y139.376 E16.26267
G1 X138.603 Y139.376 E16.32210
G1 X138.471 Y139.509 E16.33611
G1 X137.677 Y139.509 E16.39554
G1 X137.544 Y139.641 E16.40954
G1 X137.015 Y139.641 E16.44916
G1 X136.618 Y139.773 E16.48048
G1 X136.088 Y139.773 E16.52010
G1 X135.691 Y139.906 E16.55143
G1 X135.162 Y139.906 E16.59105
G1 X135.030 Y140.038 E16.60505
G1 X126.559 Y140.038 E17.23897
G1 X124.970 Y140.038 E17.35783
G1 X124.573 Y139.906 E17.38915
G1 X124.044 Y139.906 E17.42877
G1 X123.647 Y139.773 E17.46010
G1 X123.117 Y139.773 E17.49971
G1 X122.985 Y139.641 E17.51372
G1 X122.191 Y139.641 E17.57315
G1 X122.059 Y139.509 E17.58716
G1 X121.529 Y139.509 E17.62678
G1 X121.132 Y139.376 E17.65810
G1 X120.603 Y139.376 E17.69772
G1 X120.206 Y139.244 E17.72904
G1 X119.676 Y139.244 E17.76866
G1 X119.544 Y139.112 E17.78267
G1 X119.279 Y139.112 E17.80248
G1 X119.147 Y138.979 E17.81649
G1 X118.882 Y138.979 E17.83630
G1 X118.750 Y138.847 E17.85030
G1 X118.286 Y138.781 E17.88535
G1 X116.897 Y138.318 E17.99495
G1 X116.632 Y138.318 E18.01476
G1 X116.500 Y138.185 E18.02877
G1 X116.235 Y138.185 E18.04858
G1 X116.103 Y138.053 E18.06258
G1 X115.838 Y138.053 E18.08239
G1 X115.705 Y137.920 E18.09640
G1 X115.441 Y137.920 E18.11621
G1 X115.308 Y137.788 E18.13022
G1 X115.044 Y137.788 E18.15003
G1 X114.911 Y137.656 E18.16404
G1 X114.647 Y137.656 E18.18385
G1 X113.985 Y137.259 E18.24160
G1 X113.588 Y137.126 E18.27293
G1 X112.926 Y136.729 E18.33068
G1 X112.661 Y136.729 E18.35049
G1 X112.000 Y136.332 E18.40825
G1 X111.602 Y136.200 E18.43957
G1 X110.941 Y135.803 E18.49732
G1 X110.544 Y135.670 E18.52865
G1 X109.220 Y134.876 E18.64416
G1 X108.955 Y134.612 E18.67217
G1 X108.294 Y134.214 E18.72993
G1 X108.029 Y133.950 E18.75794
G1 X106.705 Y133.156 E18.87345
G1 X106.441 Y132.891 E18.90147
G1 X105.779 Y132.494 E18.95922
G1 X104.985 Y131.700 E19.04327
G1 X104.653 Y131.501 E19.07217
G1 X103.065 Y129.913 E19.24027
G1 X102.735 Y129.714 E19.26912
G0 X103.135 Y129.516 F5400
G1 X103.135 Y70.749 E23.66692 F600
G0 X105.801 Y68.367 F5400
G1 X105.801 Y131.898 E28.42129 F600
G0 X108.468 Y133.751 F5400
G1 X108.468 Y66.381 E33.46291 F600
G0 X111.135 Y64.793 F5400
G1 X111.135 Y135.472 E38.75215 F600
G0 X113.801 Y136.795 F5400
G1 X113.801 Y63.470 E44.23949 F600
G0 X116.468 Y62.411 F5400
G1 X116.468 Y137.854 E49.88531 F600
G0 X119.135 Y138.648 F5400
G1 X119.135 Y61.617 E55.64999 F600
G0 X121.801 Y61.087 F5400
G1 X121.801 Y139.178 E61.49391 F600
G0 X124.468 Y139.575 F5400
G1 X124.468 Y60.690 E67.39726 F600
G0 X127.135 Y60.558 F5400
G1 X127.135 Y139.707 E73.32041 F600
G0 X129.801 Y139.707 F5400
G1 X129.801 Y60.558 E79.24357 F600
G0 X132.468 Y60.558 F5400
G1 X132.468 Y139.707 E85.16673 F600
G0 X135.135 Y139.575 F5400
G1 X135.135 Y60.690 E91.07008 F600
G0 X137.801 Y61.087 F5400
G1 X137.801 Y139.178 E96.91399 F600
G0 X140.468 Y138.648 F5400
G1 X140.468 Y61.484 E102.68858 F600
G0 X143.135 Y62.411 F5400
G1 X143.135 Y137.854 E108.33440 F600
G0 X145.801 Y136.928 F5400
G1 X145.801 Y63.337 E113.84155 F600
G0 X148.468 Y64.661 F5400
G1 X148.468 Y135.604 E119.15060 F600
G0 X151.135 Y134.016 F5400
G1 X151.135 Y66.249 E124.22193 F600
G0 X153.801 Y68.102 F5400
G1 X153.801 Y132.163 E129.01593 F600
G0 X156.468 Y129.648 F5400
G1 X156.468 Y70.484 E133.44344 F600
G0 X159.135 Y73.132 F5400
G1 X159.135 Y127.133 E137.48465 F600
G0 X161.801 Y124.089 F5400
G1 X161.801 Y76.176 E141.07024 F600
G0 X164.468 Y79.882 F5400
G1 X164.468 Y120.383 E144.10115 F600
G0 X167.135 Y114.692 F5400
G1 X167.135 Y85.573 E146.28024 F600
G0 X100.468 Y73.396 F5400
G1 X100.468 Y126.868 E150.28185 F600
G0 X97.801 Y123.824 F5400
G1 X97.801 Y76.441 E153.82782 F600
G0 X95.135 Y80.279 F5400
G1 X95.135 Y119.854 E156.78940 F600
G0 X92.468 Y114.030 F5400
G1 X92.468 Y86.235 E158.86943 F600



; ------------------------------------
; Raft Layer #1
; ------------------------------------
G92 E0 ;reset extr
G0 F600 Z0.600
;segType:Raft
G0 X92.411 Y84.726 F7200
G1 X114.911 Y62.226 E2.38129 F1800
G0 X117.558 Y61.464 F7200
G1 X91.220 Y87.803 E5.16881 F1800
G0 X90.690 Y90.218 F7200
G1 X120.073 Y60.835 E8.27849 F1800
G0 X122.323 Y60.471 F7200
G1 X90.161 Y92.633 E11.68234 F1800
G0 X90.028 Y94.651 F7200
G1 X124.706 Y59.974 E15.35233 F1800
G0 X126.559 Y60.007 F7200
G1 X89.896 Y96.669 E19.23244 F1800
G0 X89.764 Y98.687 F7200
G1 X128.412 Y60.039 E23.32266 F1800
G0 X130.265 Y60.072 F7200
G1 X89.764 Y100.572 E27.60899 F1800
G0 X89.764 Y102.458 F7200
G1 X132.250 Y59.972 E32.10543 F1800
G0 X134.103 Y60.005 F7200
G1 X90.028 Y104.079 E36.76996 F1800
G0 X90.161 Y105.832 F7200
G1 X135.824 Y60.170 E41.60258 F1800
G0 X137.412 Y60.467 F7200
G1 X90.161 Y107.718 E46.60330 F1800
G0 X90.558 Y109.206 F7200
G1 X139.133 Y60.632 E51.74409 F1800
G0 X140.721 Y60.930 F7200
G1 X90.955 Y110.695 E57.01094 F1800
G0 X91.352 Y112.183 F7200
G1 X142.044 Y61.492 E62.37586 F1800
G0 X143.500 Y61.921 F7200
G1 X91.749 Y113.672 E67.85283 F1800
G0 X92.278 Y115.028 F7200
G1 X144.956 Y62.351 E73.42786 F1800
G0 X146.280 Y62.913 F7200
G1 X92.808 Y116.384 E79.08693 F1800
G0 X93.337 Y117.741 F7200
G1 X147.471 Y63.608 E84.81604 F1800
G0 X148.795 Y64.170 F7200
G1 X93.999 Y118.964 E90.61519 F1800
G0 X94.793 Y120.056 F7200
G1 X150.118 Y64.732 E96.47037 F1800
G0 X151.177 Y65.558 F7200
G1 X95.455 Y121.280 E102.36757 F1800
G0 X96.249 Y122.371 F7200
G1 X152.236 Y66.385 E108.29279 F1800
G0 X153.427 Y67.080 F7200
G1 X97.043 Y123.463 E114.26003 F1800
G0 X97.837 Y124.554 F7200
G1 X154.486 Y67.906 E120.25528 F1800
G0 X155.412 Y68.866 F7200
G1 X98.764 Y125.513 E126.25053 F1800
G0 X99.558 Y126.605 F7200
G1 X156.471 Y69.692 E132.27380 F1800
G0 X157.398 Y70.652 F7200
G1 X100.484 Y127.564 E138.29707 F1800
G0 X101.543 Y128.391 F7200
G1 X158.324 Y71.611 E144.30634 F1800
G0 X159.283 Y72.537 F7200
G1 X102.502 Y129.317 E150.31560 F1800
G0 X103.462 Y130.244 F7200
G1 X160.243 Y73.464 E156.32486 F1800
G0 X161.069 Y74.522 F7200
G1 X104.421 Y131.170 E162.32011 F1800
G0 X105.380 Y132.097 F7200
G1 X162.028 Y75.449 E168.31536 F1800
G0 X162.855 Y76.508 F7200
G1 X106.471 Y132.891 E174.28260 F1800
G0 X107.695 Y133.553 F7200
G1 X163.682 Y77.567 E180.20782 F1800
G0 X164.376 Y78.758 F7200
G1 X108.654 Y134.479 E186.10502 F1800
G0 X109.878 Y135.141 F7200
G1 X165.071 Y79.949 E191.94620 F1800
G0 X165.765 Y81.140 F7200
G1 X111.102 Y135.803 E197.73134 F1800
G0 X112.326 Y136.464 F7200
G1 X166.460 Y82.331 E203.46044 F1800
G0 X166.889 Y83.787 F7200
G1 X113.682 Y136.994 E209.09150 F1800
G0 X114.906 Y137.656 F7200
G1 X167.451 Y85.111 E214.65252 F1800
G0 X168.013 Y86.434 F7200
G1 X116.394 Y138.053 E220.11550 F1800
G0 X117.883 Y138.450 F7200
G1 X168.575 Y87.758 E225.48040 F1800
G0 X168.740 Y89.479 F7200
G1 X119.239 Y138.979 E230.71926 F1800
G0 X120.860 Y139.244 F7200
G1 X169.170 Y90.934 E235.83204 F1800
G0 X169.600 Y92.390 F7200
G1 X122.481 Y139.509 E240.81874 F1800
G0 X124.102 Y139.773 F7200
G1 X169.765 Y94.111 E245.65136 F1800
G0 X169.797 Y95.964 F7200
G1 X125.855 Y139.906 E250.30190 F1800
G0 X127.741 Y139.906 F7200
G1 X169.962 Y97.685 E254.77032 F1800
G0 X169.995 Y99.538 F7200
G1 X129.626 Y139.906 E259.04264 F1800
G0 X131.512 Y139.906 F7200
G1 X170.028 Y101.390 E263.11884 F1800
G0 X169.796 Y103.508 F7200
G1 X133.397 Y139.906 E266.97092 F1800
G0 X135.415 Y139.773 F7200
G1 X169.696 Y105.493 E270.59888 F1800
G0 X169.596 Y107.478 F7200
G1 X137.433 Y139.641 E274.00274 F1800
G0 X139.782 Y139.310 F7200
G1 X169.165 Y109.927 E277.11242 F1800
G0 X168.668 Y112.309 F7200
G1 X142.462 Y138.516 E279.88592 F1800
G0 X145.142 Y137.722 F7200
G1 X167.510 Y115.353 E282.25320 F1800
G0 X165.822 Y118.927 F7200
G1 X148.748 Y136.001 E284.06018 F1800
G0 X153.942 Y132.692 F7200
G1 X162.016 Y124.618 E284.91464 F1800
G0 X111.073 Y64.178 F7200
G1 X93.999 Y81.252 E286.72162 F1800
G0 X97.705 Y75.661 F7200
G1 X106.043 Y67.322 E287.60410 F1800



; ------------------------------------
; Raft Layer #2
; ------------------------------------
G92 E0 ;reset extr
G0 F600 Z0.800
;segType:Raft
G0 F3000 E-1.00000
G0 F600 Z2.800
G0 X112.000 Y63.799 F7200
G0 F600 Z0.800
G0 F3000 E0.00000
G1 X147.736 Y63.799 E1.78289 F2400
G1 X146.942 Y63.399 E1.82725
G1 X112.794 Y63.399 E3.53090
G1 X113.588 Y62.999 E3.57527
G1 X146.148 Y62.999 E5.19968
G1 X145.221 Y62.599 E5.25002
G1 X114.514 Y62.599 E6.78199
G0 X115.705 Y62.199 F7200
G1 X144.162 Y62.199 E8.20170 F2400
G0 X142.839 Y61.799 F7200
G1 X117.029 Y61.799 E9.48934 F2400
G0 X118.220 Y61.399 F7200
G1 X141.515 Y61.399 E10.65152 F2400
G0 X140.324 Y60.999 F7200
G1 X119.544 Y60.999 E11.68824 F2400
G0 X121.926 Y60.599 F7200
G1 X137.809 Y60.599 E12.48064 F2400
G0 X135.294 Y60.199 F7200
G1 X124.441 Y60.199 E13.02211 F2400
G0 X148.795 Y64.199 F7200
G1 X110.941 Y64.199 E14.91065 F2400
G1 X110.014 Y64.599 E14.96100
G1 X149.721 Y64.599 E16.94199
G1 X150.251 Y64.999 E16.97509
G1 X109.485 Y64.999 E19.00891
G1 X108.823 Y65.399 E19.04749
G1 X150.912 Y65.399 E21.14734
G1 X151.442 Y65.799 E21.18044
G1 X108.294 Y65.799 E23.33312
G1 X107.632 Y66.199 E23.37170
G1 X151.971 Y66.199 E25.58380
G1 X152.633 Y66.599 E25.62238
G1 X107.102 Y66.599 E27.89391
G1 X106.573 Y66.999 E27.92702
G1 X153.162 Y66.999 E30.25138
G1 X153.824 Y67.399 E30.28996
G1 X105.911 Y67.399 E32.68035
G1 X105.514 Y67.799 E32.70847
G1 X154.221 Y67.799 E35.13848
G1 X154.751 Y68.199 E35.17159
G1 X104.985 Y68.199 E37.65443
G1 X104.588 Y68.599 E37.68255
G1 X155.148 Y68.599 E40.20501
G1 X155.545 Y68.999 E40.23313
G1 X104.190 Y68.999 E42.79521
G1 X103.793 Y69.399 E42.82332
G1 X155.942 Y69.399 E45.42502
G1 X156.471 Y69.799 E45.45813
G1 X103.264 Y69.799 E48.11265
G1 X102.867 Y70.199 E48.14077
G1 X156.868 Y70.199 E50.83492
G1 X157.265 Y70.599 E50.86304
G1 X102.470 Y70.599 E53.59680
G1 X102.073 Y70.999 E53.62492
G1 X157.663 Y70.999 E56.39830
G1 X158.060 Y71.399 E56.42642
G1 X101.676 Y71.399 E59.23942
G1 X101.279 Y71.799 E59.26754
G1 X158.457 Y71.799 E62.12017
G1 X158.854 Y72.199 E62.14828
G1 X100.882 Y72.199 E65.04053
G1 X100.484 Y72.599 E65.06865
G1 X159.251 Y72.599 E68.00051
G1 X159.648 Y72.999 E68.02864
G1 X100.087 Y72.999 E71.00012
G1 X99.690 Y73.399 E71.02824
G1 X160.045 Y73.399 E74.03934
G1 X160.442 Y73.799 E74.06746
G1 X99.293 Y73.799 E77.11818
G1 X98.896 Y74.199 E77.14630
G1 X160.839 Y74.199 E80.23664
G1 X161.104 Y74.599 E80.26058
G1 X98.631 Y74.599 E83.37734
G1 X98.234 Y74.999 E83.40546
G1 X161.501 Y74.999 E86.56184
G1 X161.766 Y75.399 E86.58577
G1 X97.970 Y75.399 E89.76856
G1 X97.705 Y75.799 E89.79250
G1 X162.030 Y75.799 E93.00170
G1 X162.427 Y76.199 E93.02982
G1 X97.308 Y76.199 E96.27865
G1 X97.043 Y76.599 E96.30258
G1 X162.692 Y76.599 E99.57782
G1 X163.089 Y76.999 E99.60594
G1 X96.646 Y76.999 E102.92080
G1 X96.381 Y77.399 E102.94473
G1 X163.354 Y77.399 E106.28600
G1 X163.619 Y77.799 E106.30994
G1 X96.117 Y77.799 E109.67762
G1 X95.852 Y78.199 E109.70155
G1 X164.016 Y78.199 E113.10225
G1 X164.148 Y78.599 E113.12327
G1 X95.587 Y78.599 E116.54378
G1 X95.323 Y78.999 E116.56771
G1 X164.413 Y78.999 E120.01463
G1 X164.677 Y79.399 E120.03857
G1 X95.058 Y79.399 E123.51190
G1 X94.926 Y79.799 E123.53292
G1 X164.810 Y79.799 E127.01946
G1 X165.075 Y80.199 E127.04340
G1 X94.661 Y80.199 E130.55635
G1 X94.396 Y80.599 E130.58028
G1 X165.339 Y80.599 E134.11964
G1 X165.604 Y80.999 E134.14357
G1 X94.131 Y80.999 E137.70935
G1 X93.999 Y81.399 E137.73038
G1 X165.736 Y81.399 E141.30937
G1 X166.001 Y81.799 E141.33330
G1 X93.734 Y81.799 E144.93871
G1 X93.470 Y82.199 E144.96263
G1 X166.266 Y82.199 E148.59445
G1 X166.530 Y82.599 E148.61838
G1 X93.205 Y82.599 E152.27661
G1 X93.073 Y82.999 E152.29764
G1 X166.663 Y82.999 E155.96907
G1 X166.795 Y83.399 E155.99010
G1 X92.940 Y83.399 E159.67474
G1 X92.808 Y83.799 E159.69577
G1 X166.927 Y83.799 E163.39362
G1 X167.060 Y84.199 E163.41464
G1 X92.543 Y84.199 E167.13229
G1 X92.411 Y84.599 E167.15332
G1 X167.325 Y84.599 E170.89080
G1 X167.457 Y84.999 E170.91182
G1 X92.278 Y84.999 E174.66250
G1 X92.146 Y85.399 E174.68352
G1 X167.589 Y85.399 E178.44740
G1 X167.722 Y85.799 E178.46842
G1 X92.014 Y85.799 E182.24552
G1 X91.881 Y86.199 E182.26654
G1 X167.854 Y86.199 E186.05684
G1 X168.119 Y86.599 E186.08076
G1 X91.617 Y86.599 E189.89748
G1 X91.484 Y86.999 E189.91850
G1 X168.251 Y86.999 E193.74842
G1 X168.383 Y87.399 E193.76944
G1 X91.352 Y87.399 E197.61256
G1 X91.220 Y87.799 E197.63360
G1 X168.516 Y87.799 E201.48992
G1 X168.516 Y88.199 E201.50988
G1 X91.220 Y88.199 E205.36620
G1 X91.087 Y88.599 E205.38722
G1 X168.648 Y88.599 E209.25676
G1 X168.780 Y88.999 E209.27778
G1 X90.955 Y88.999 E213.16052
G1 X90.955 Y89.399 E213.18048
G1 X168.780 Y89.399 E217.06322
G1 X168.913 Y89.799 E217.08424
G1 X90.822 Y89.799 E220.98020
G1 X90.690 Y90.199 E221.00122
G1 X169.045 Y90.199 E224.91036
G1 X169.045 Y90.599 E224.93032
G1 X90.690 Y90.599 E228.83948
G1 X90.558 Y90.999 E228.86050
G1 X169.178 Y90.999 E232.78286
G1 X169.310 Y91.399 E232.80390
G1 X90.425 Y91.399 E236.73946
G1 X90.425 Y91.799 E236.75942
G1 X169.310 Y91.799 E240.69498
G1 X169.442 Y92.199 E240.71600
G1 X90.293 Y92.199 E244.66478
G1 X90.161 Y92.599 E244.68580
G1 X169.575 Y92.599 E248.64778
G1 X169.575 Y92.999 E248.66774
G1 X90.161 Y92.999 E252.62972
G1 X90.161 Y93.399 E252.64968
G1 X169.575 Y93.399 E256.61166
G1 X169.575 Y93.799 E256.63162
G1 X90.161 Y93.799 E260.59360
G1 X90.028 Y94.199 E260.61462
G1 X169.575 Y94.199 E264.58320
G1 X169.707 Y94.599 E264.60422
G1 X90.028 Y94.599 E268.57940
G1 X90.028 Y94.999 E268.59936
G1 X169.707 Y94.999 E272.57456
G1 X169.707 Y95.399 E272.59452
G1 X90.028 Y95.399 E276.56970
G1 X90.028 Y95.799 E276.58966
G1 X169.707 Y95.799 E280.56484
G1 X169.839 Y96.199 E280.58588
G1 X89.896 Y96.199 E284.57428
G1 X89.896 Y96.599 E284.59424
G1 X169.839 Y96.599 E288.58264
G1 X169.839 Y96.999 E288.60260
G1 X89.896 Y96.999 E292.59100
G1 X89.896 Y97.399 E292.61096
G1 X169.839 Y97.399 E296.59936
G1 X169.972 Y97.799 E296.62040
G1 X89.764 Y97.799 E300.62198
G1 X89.764 Y98.199 E300.64194
G1 X169.972 Y98.199 E304.64352
G1 X169.972 Y98.599 E304.66348
G1 X89.764 Y98.599 E308.66506
G1 X89.764 Y98.999 E308.68502
G1 X169.972 Y98.999 E312.68662
G1 X169.972 Y99.399 E312.70658
G1 X89.764 Y99.399 E316.70816
G1 X89.764 Y99.799 E316.72812
G1 X169.972 Y99.799 E320.72970
G1 X169.972 Y100.199 E320.74966
G1 X89.764 Y100.199 E324.75126
G1 X89.764 Y100.599 E324.77120
G1 X169.972 Y100.599 E328.77280
G1 X169.972 Y100.999 E328.79276
G1 X89.764 Y100.999 E332.79434
G1 X89.764 Y101.399 E332.81430
G1 X169.972 Y101.399 E336.81588
G1 X169.972 Y101.799 E336.83584
G1 X89.764 Y101.799 E340.83744
G1 X89.764 Y102.199 E340.85740
G1 X169.972 Y102.199 E344.85896
G1 X169.839 Y102.599 E344.88000
G1 X89.896 Y102.599 E348.86840
G1 X89.896 Y102.999 E348.88836
G1 X169.839 Y102.999 E352.87676
G1 X169.839 Y103.399 E352.89672
G1 X89.896 Y103.399 E356.88512
G1 X89.896 Y103.799 E356.90508
G1 X169.839 Y103.799 E360.89348
G1 X169.707 Y104.199 E360.91452
G1 X90.028 Y104.199 E364.88972
G1 X90.028 Y104.599 E364.90968
G1 X169.707 Y104.599 E368.88484
G1 X169.707 Y104.999 E368.90480
G1 X90.028 Y104.999 E372.88000
G1 X90.028 Y105.399 E372.89996
G1 X169.707 Y105.399 E376.87516
G1 X169.707 Y105.799 E376.89512
G1 X90.028 Y105.799 E380.87032
G1 X90.161 Y106.199 E380.89132
G1 X169.575 Y106.199 E384.85332
G1 X169.575 Y106.599 E384.87328
G1 X90.161 Y106.599 E388.83524
G1 X90.161 Y106.999 E388.85520
G1 X169.575 Y106.999 E392.81716
G1 X169.575 Y107.399 E392.83712
G1 X90.161 Y107.399 E396.79912
G1 X90.293 Y107.799 E396.82012
G1 X169.442 Y107.799 E400.76888
G1 X169.442 Y108.199 E400.78884
G1 X90.293 Y108.199 E404.73760
G1 X90.425 Y108.599 E404.75864
G1 X169.310 Y108.599 E408.69420
G1 X169.178 Y108.999 E408.71524
G1 X90.558 Y108.999 E412.63760
G1 X90.690 Y109.399 E412.65864
G1 X169.178 Y109.399 E416.57436
G1 X169.045 Y109.799 E416.59540
G1 X90.690 Y109.799 E420.50456
G1 X90.822 Y110.199 E420.52556
G1 X168.913 Y110.199 E424.42152
G1 X168.913 Y110.599 E424.44148
G1 X90.955 Y110.599 E428.33080
G1 X90.955 Y110.999 E428.35076
G1 X168.780 Y110.999 E432.23352
G1 X168.648 Y111.399 E432.25456
G1 X91.087 Y111.399 E436.12408
G1 X91.220 Y111.799 E436.14512
G1 X168.516 Y111.799 E440.00144
G1 X168.516 Y112.199 E440.02140
G1 X91.220 Y112.199 E443.87772
G1 X91.352 Y112.599 E443.89876
G1 X168.383 Y112.599 E447.74184
G1 X168.251 Y112.999 E447.76288
G1 X91.484 Y112.999 E451.59280
G1 X91.617 Y113.399 E451.61384
G1 X168.119 Y113.399 E455.43056
G1 X167.986 Y113.799 E455.45156
G1 X91.749 Y113.799 E459.25508
G1 X91.881 Y114.199 E459.27608
G1 X167.854 Y114.199 E463.06636
G1 X167.589 Y114.599 E463.09032
G1 X92.146 Y114.599 E466.85420
G1 X92.278 Y114.999 E466.87520
G1 X167.457 Y114.999 E470.62588
G1 X167.325 Y115.399 E470.64692
G1 X92.411 Y115.399 E474.38436
G1 X92.543 Y115.799 E474.40540
G1 X167.192 Y115.799 E478.12968
G1 X167.060 Y116.199 E478.15068
G1 X92.675 Y116.199 E481.86176
G1 X92.940 Y116.599 E481.88568
G1 X166.795 Y116.599 E485.57032
G1 X166.663 Y116.999 E485.59132
G1 X93.073 Y116.999 E489.26280
G1 X93.205 Y117.399 E489.28380
G1 X166.530 Y117.399 E492.94204
G1 X166.398 Y117.799 E492.96308
G1 X93.337 Y117.799 E496.60808
G1 X93.602 Y118.199 E496.63200
G1 X166.133 Y118.199 E500.25064
G1 X165.869 Y118.599 E500.27456
G1 X93.867 Y118.599 E503.86676
G1 X94.131 Y118.999 E503.89068
G1 X165.604 Y118.999 E507.45648
G1 X165.339 Y119.399 E507.48040
G1 X94.396 Y119.399 E511.01976
G1 X94.528 Y119.799 E511.04080
G1 X165.207 Y119.799 E514.56696
G1 X164.942 Y120.199 E514.59088
G1 X94.793 Y120.199 E518.09064
G1 X95.058 Y120.599 E518.11456
G1 X164.677 Y120.599 E521.58788
G1 X164.413 Y120.999 E521.61180
G1 X95.323 Y120.999 E525.05872
G1 X95.455 Y121.399 E525.07972
G1 X164.280 Y121.399 E528.51344
G1 X164.016 Y121.799 E528.53736
G1 X95.720 Y121.799 E531.94464
G1 X95.984 Y122.199 E531.96856
G1 X163.751 Y122.199 E535.34944
G1 X163.354 Y122.599 E535.37756
G1 X96.249 Y122.599 E538.72548
G1 X96.646 Y122.999 E538.75360
G1 X163.089 Y122.999 E542.06848
G1 X162.824 Y123.399 E542.09240
G1 X96.911 Y123.399 E545.38084
G1 X97.308 Y123.799 E545.40900
G1 X162.427 Y123.799 E548.65784
G1 X162.163 Y124.199 E548.68176
G1 X97.573 Y124.199 E551.90416
G1 X97.837 Y124.599 E551.92812
G1 X161.898 Y124.599 E555.12408
G1 X161.501 Y124.999 E555.15224
G1 X98.234 Y124.999 E558.30860
G1 X98.499 Y125.399 E558.33252
G1 X161.236 Y125.399 E561.46248
G1 X160.839 Y125.799 E561.49060
G1 X98.896 Y125.799 E564.58092
G1 X99.161 Y126.199 E564.60484
G1 X160.574 Y126.199 E567.66876
G1 X160.177 Y126.599 E567.69688
G1 X99.558 Y126.599 E570.72120
G1 X99.955 Y126.999 E570.74932
G1 X159.780 Y126.999 E573.73400
G1 X159.383 Y127.399 E573.76216
G1 X100.352 Y127.399 E576.70720
G1 X100.749 Y127.799 E576.73536
G1 X158.986 Y127.799 E579.64080
G1 X158.589 Y128.199 E579.66896
G1 X101.146 Y128.199 E582.53480
G1 X101.543 Y128.599 E582.56292
G1 X158.192 Y128.599 E585.38916
G1 X157.795 Y128.999 E585.41728
G1 X101.940 Y128.999 E588.20392
G1 X102.337 Y129.399 E588.23204
G1 X157.398 Y129.399 E590.97900
G1 X157.001 Y129.799 E591.00716
G1 X102.735 Y129.799 E593.71448
G1 X103.264 Y130.199 E593.74756
G1 X156.471 Y130.199 E596.40208
G1 X156.074 Y130.599 E596.43024
G1 X103.661 Y130.599 E599.04516
G1 X104.058 Y130.999 E599.07332
G1 X155.677 Y130.999 E601.64856
G1 X155.280 Y131.399 E601.67668
G1 X104.455 Y131.399 E604.21236
G1 X104.985 Y131.799 E604.24544
G1 X154.751 Y131.799 E606.72828
G1 X154.354 Y132.199 E606.75640
G1 X105.382 Y132.199 E609.19964
G1 X105.779 Y132.599 E609.22780
G1 X153.957 Y132.599 E611.63140
G1 X153.295 Y132.999 E611.67000
G1 X106.441 Y132.999 E614.00756
G1 X106.970 Y133.399 E614.04064
G1 X152.765 Y133.399 E616.32536
G1 X152.236 Y133.799 E616.35844
G1 X107.632 Y133.799 E618.58380
G1 X108.161 Y134.199 E618.61688
G1 X151.574 Y134.199 E620.78276
G1 X151.045 Y134.599 E620.81584
G1 X108.691 Y134.599 E622.92888
G1 X109.352 Y134.999 E622.96748
G1 X150.383 Y134.999 E625.01448
G1 X149.853 Y135.399 E625.04756
G1 X109.882 Y135.399 E627.04176
G1 X110.676 Y135.799 E627.08612
G1 X149.059 Y135.799 E629.00108
G1 X148.265 Y136.199 E629.04548
G1 X111.470 Y136.199 E630.88116
G0 X112.529 Y136.599 F7200
G1 X147.074 Y136.599 E632.60460 F2400
G1 X146.280 Y136.999 E632.64900
G1 X113.455 Y136.999 E634.28664
G1 X114.250 Y137.399 E634.33100
G1 X145.486 Y137.399 E635.88936
G0 X144.427 Y137.799 F7200
G1 X115.308 Y137.799 E637.34204 F2400
G0 X116.500 Y138.199 F7200
G1 X143.103 Y138.199 E638.66932 F2400
G0 X141.780 Y138.599 F7200
G1 X117.823 Y138.599 E639.86452 F2400
G0 X119.147 Y138.999 F7200
G1 X140.456 Y138.999 E640.92760 F2400
G0 X138.471 Y139.399 F7200
G1 X121.264 Y139.399 E641.78600 F2400
G0 X123.779 Y139.799 F7200
G1 X135.824 Y139.799 E642.38692 F2400



; ------------------------------------
; Raft Layer #3
; ------------------------------------
M106 S255 ;set fan speed
G92 E0 ;reset extr
G0 F600 Z1.000
;segType:Raft
G0 F3000 E-1.00000
G0 F600 Z3.000
G0 X167.001 Y116.280 F7200
G0 F600 Z1.000
G0 F3000 E0.00000
G1 X167.001 Y83.985 E1.61120 F2400
G0 X166.601 Y82.926 F7200
G1 X166.601 Y117.206 E3.32146 F2400
G1 X166.201 Y118.133 E3.37181
G1 X166.201 Y82.132 E5.16790
G1 X165.801 Y81.205 E5.21825
G1 X165.801 Y119.059 E7.10679
G1 X165.401 Y119.721 E7.14537
G1 X165.401 Y80.544 E9.09995
G1 X165.001 Y79.882 E9.13853
G1 X165.001 Y120.383 E11.15914
G1 X164.601 Y121.045 E11.19772
G1 X164.601 Y79.088 E13.29096
G1 X164.201 Y78.426 E13.32954
G1 X164.201 Y121.706 E15.48882
G1 X163.801 Y122.368 E15.52740
G1 X163.801 Y77.896 E17.74611
G1 X163.401 Y77.367 E17.77921
G1 X163.401 Y122.898 E20.05075
G1 X163.001 Y123.427 E20.08385
G1 X163.001 Y76.838 E22.40821
G1 X162.601 Y76.308 E22.44132
G1 X162.601 Y123.824 E24.81190
G1 X162.201 Y124.354 E24.84500
G1 X162.201 Y75.911 E27.26181
G1 X161.801 Y75.382 E27.29492
G1 X161.801 Y124.883 E29.76455
G1 X161.401 Y125.412 E29.79765
G1 X161.401 Y74.852 E32.32011
G1 X161.001 Y74.323 E32.35322
G1 X161.001 Y125.810 E34.92190
G1 X160.601 Y126.339 E34.95500
G1 X160.601 Y73.926 E37.56991
G1 X160.201 Y73.529 E37.59803
G1 X160.201 Y126.736 E40.25255
G1 X159.801 Y127.133 E40.28067
G1 X159.801 Y73.132 E42.97482
G1 X159.401 Y72.735 E43.00294
G1 X159.401 Y127.530 E45.73670
G1 X159.001 Y127.927 E45.76482
G1 X159.001 Y72.337 E48.53820
G1 X158.601 Y71.940 E48.56632
G1 X158.601 Y128.324 E51.37932
G1 X158.201 Y128.721 E51.40744
G1 X158.201 Y71.543 E54.26007
G1 X157.801 Y71.146 E54.28818
G1 X157.801 Y129.118 E57.18043
G1 X157.401 Y129.516 E57.20855
G1 X157.401 Y70.749 E60.14041
G1 X157.001 Y70.352 E60.16853
G1 X157.001 Y129.913 E63.14002
G1 X156.601 Y130.177 E63.16395
G1 X156.601 Y69.955 E66.16844
G1 X156.201 Y69.690 E66.19238
G1 X156.201 Y130.574 E69.22989
G1 X155.801 Y130.971 E69.25801
G1 X155.801 Y69.293 E72.33515
G1 X155.401 Y68.896 E72.36327
G1 X155.401 Y131.369 E75.48003
G1 X155.001 Y131.766 E75.50815
G1 X155.001 Y68.499 E78.66453
G1 X154.601 Y68.102 E78.69265
G1 X154.601 Y132.030 E81.88204
G1 X154.201 Y132.427 E81.91017
G1 X154.201 Y67.837 E85.13258
G1 X153.801 Y67.440 E85.16070
G1 X153.801 Y132.692 E88.41612
G1 X153.401 Y132.957 E88.44006
G1 X153.401 Y67.176 E91.72189
G1 X153.001 Y66.911 E91.74583
G1 X153.001 Y133.222 E95.05408
G1 X152.601 Y133.619 E95.08220
G1 X152.601 Y66.646 E98.42347
G1 X152.201 Y66.381 E98.44740
G1 X152.201 Y133.883 E101.81509
G1 X151.801 Y134.148 E101.83902
G1 X151.801 Y66.117 E105.23312
G1 X151.401 Y65.852 E105.25705
G1 X151.401 Y134.413 E108.67756
G1 X151.001 Y134.677 E108.70149
G1 X151.001 Y65.587 E112.14841
G1 X150.601 Y65.323 E112.17235
G1 X150.601 Y134.942 E115.64568
G1 X150.201 Y135.207 E115.66962
G1 X150.201 Y65.058 E119.16936
G1 X149.801 Y64.793 E119.19330
G1 X149.801 Y135.472 E122.71946
G1 X149.401 Y135.604 E122.74048
G1 X149.401 Y64.528 E126.28645
G1 X149.001 Y64.396 E126.30747
G1 X149.001 Y135.869 E129.87326
G1 X148.601 Y136.001 E129.89429
G1 X148.601 Y64.264 E133.47328
G1 X148.201 Y63.999 E133.49721
G1 X148.201 Y136.266 E137.10262
G1 X147.801 Y136.398 E137.12364
G1 X147.801 Y63.734 E140.74886
G1 X147.401 Y63.602 E140.76988
G1 X147.401 Y136.663 E144.41490
G1 X147.001 Y136.795 E144.43593
G1 X147.001 Y63.337 E148.10075
G1 X146.601 Y63.205 E148.12178
G1 X146.601 Y137.060 E151.80643
G1 X146.201 Y137.192 E151.82745
G1 X146.201 Y62.940 E155.53191
G1 X145.801 Y62.808 E155.55293
G1 X145.801 Y137.457 E159.27719
G1 X145.401 Y137.589 E159.29822
G1 X145.401 Y62.675 E163.03569
G1 X145.001 Y62.411 E163.05962
G1 X145.001 Y137.722 E166.81689
G1 X144.601 Y137.854 E166.83792
G1 X144.601 Y62.278 E170.60840
G1 X144.201 Y62.146 E170.62942
G1 X144.201 Y137.986 E174.41312
G1 X143.801 Y138.119 E174.43414
G1 X143.801 Y62.014 E178.23104
G1 X143.401 Y62.014 E178.25100
G1 X143.401 Y138.251 E182.05448
G1 X143.001 Y138.383 E182.07552
G1 X143.001 Y61.881 E185.89222
G1 X142.601 Y61.749 E185.91326
G1 X142.601 Y138.516 E189.74316
G1 X142.201 Y138.648 E189.76420
G1 X142.201 Y61.617 E193.60732
G1 X141.801 Y61.484 E193.62834
G1 X141.801 Y138.781 E197.48466
G1 X141.401 Y138.913 E197.50570
G1 X141.401 Y61.352 E201.37522
G1 X141.001 Y61.220 E201.39626
G1 X141.001 Y139.045 E205.27900
G1 X140.601 Y139.045 E205.29896
G1 X140.601 Y61.087 E209.18830
G1 X140.201 Y60.955 E209.20932
G1 X140.201 Y139.178 E213.11186
G1 X139.801 Y139.310 E213.13288
G1 X139.801 Y60.955 E217.04204
G1 X139.401 Y60.822 E217.06306
G1 X139.401 Y139.442 E220.98542
G1 X139.001 Y139.442 E221.00538
G1 X139.001 Y60.822 E224.92774
G1 X138.601 Y60.690 E224.94878
G1 X138.601 Y139.442 E228.87774
G1 X138.201 Y139.575 E228.89876
G1 X138.201 Y60.690 E232.83432
G1 X137.801 Y60.558 E232.85534
G1 X137.801 Y139.575 E236.79752
G1 X137.401 Y139.707 E236.81854
G1 X137.401 Y60.558 E240.76732
G1 X137.001 Y60.425 E240.78834
G1 X137.001 Y139.707 E244.74372
G1 X136.601 Y139.839 E244.76474
G1 X136.601 Y60.425 E248.72672
G1 X136.201 Y60.425 E248.74668
G1 X136.201 Y139.839 E252.70864
G1 X135.801 Y139.972 E252.72968
G1 X135.801 Y60.293 E256.70486
G1 X135.401 Y60.293 E256.72482
G1 X135.401 Y139.972 E260.70002
G1 X135.001 Y140.104 E260.72104
G1 X135.001 Y60.161 E264.70944
G1 X134.601 Y60.161 E264.72940
G1 X134.601 Y140.104 E268.71780
G1 X134.201 Y140.104 E268.73776
G1 X134.201 Y60.161 E272.72616
G1 X133.801 Y60.161 E272.74612
G1 X133.801 Y140.104 E276.73452
G1 X133.401 Y140.104 E276.75448
G1 X133.401 Y60.161 E280.74288
G1 X133.001 Y60.161 E280.76284
G1 X133.001 Y140.104 E284.75126
G1 X132.601 Y140.104 E284.77120
G1 X132.601 Y60.161 E288.75962
G1 X132.201 Y60.161 E288.77958
G1 X132.201 Y140.104 E292.76798
G1 X131.801 Y140.104 E292.78794
G1 X131.801 Y60.161 E296.77634
G1 X131.401 Y60.161 E296.79630
G1 X131.401 Y140.104 E300.78470
G1 X131.001 Y140.104 E300.80466
G1 X131.001 Y60.161 E304.79306
G1 X130.601 Y60.161 E304.81302
G1 X130.601 Y140.104 E308.80142
G1 X130.201 Y140.104 E308.82138
G1 X130.201 Y60.161 E312.80978
G1 X129.801 Y60.161 E312.82974
G1 X129.801 Y140.104 E316.81814
G1 X129.401 Y140.104 E316.83810
G1 X129.401 Y60.161 E320.82650
G1 X129.001 Y60.161 E320.84646
G1 X129.001 Y140.104 E324.83486
G1 X128.601 Y140.104 E324.85482
G1 X128.601 Y60.161 E328.84324
G1 X128.201 Y60.161 E328.86318
G1 X128.201 Y140.104 E332.85160
G1 X127.801 Y140.104 E332.87156
G1 X127.801 Y60.161 E336.85996
G1 X127.401 Y60.161 E336.87992
G1 X127.401 Y140.104 E340.86832
G1 X127.001 Y140.104 E340.88828
G1 X127.001 Y60.161 E344.87668
G1 X126.601 Y60.161 E344.89664
G1 X126.601 Y140.104 E348.88504
G1 X126.201 Y140.104 E348.90500
G1 X126.201 Y60.161 E352.89340
G1 X125.801 Y60.161 E352.91336
G1 X125.801 Y140.104 E356.90176
G1 X125.401 Y140.104 E356.92172
G1 X125.401 Y60.161 E360.91012
G1 X125.001 Y60.161 E360.93008
G1 X125.001 Y140.104 E364.91848
G1 X124.601 Y139.972 E364.93952
G1 X124.601 Y60.161 E368.92128
G1 X124.201 Y60.293 E368.94232
G1 X124.201 Y139.972 E372.91752
G1 X123.801 Y139.839 E372.93852
G1 X123.801 Y60.293 E376.90712
G1 X123.401 Y60.425 E376.92816
G1 X123.401 Y139.839 E380.89012
G1 X123.001 Y139.707 E380.91116
G1 X123.001 Y60.425 E384.86656
G1 X122.601 Y60.558 E384.88756
G1 X122.601 Y139.707 E388.83632
G1 X122.201 Y139.707 E388.85628
G1 X122.201 Y60.558 E392.80504
G1 X121.801 Y60.690 E392.82608
G1 X121.801 Y139.575 E396.76164
G1 X121.401 Y139.575 E396.78160
G1 X121.401 Y60.690 E400.71720
G1 X121.001 Y60.822 E400.73824
G1 X121.001 Y139.442 E404.66060
G1 X120.601 Y139.442 E404.68056
G1 X120.601 Y60.822 E408.60292
G1 X120.201 Y60.955 E408.62392
G1 X120.201 Y139.310 E412.53308
G1 X119.801 Y139.310 E412.55304
G1 X119.801 Y60.955 E416.46220
G1 X119.401 Y61.087 E416.48320
G1 X119.401 Y139.178 E420.37916
G1 X119.001 Y139.045 E420.40016
G1 X119.001 Y61.220 E424.28292
G1 X118.601 Y61.352 E424.30396
G1 X118.601 Y138.913 E428.17348
G1 X118.201 Y138.781 E428.19452
G1 X118.201 Y61.484 E432.05084
G1 X117.801 Y61.617 E432.07188
G1 X117.801 Y138.648 E435.91496
G1 X117.401 Y138.516 E435.93600
G1 X117.401 Y61.749 E439.76592
G1 X117.001 Y61.881 E439.78696
G1 X117.001 Y138.383 E443.60368
G1 X116.601 Y138.383 E443.62364
G1 X116.601 Y61.881 E447.44032
G1 X116.201 Y62.014 E447.46136
G1 X116.201 Y138.251 E451.26488
G1 X115.801 Y138.119 E451.28588
G1 X115.801 Y62.146 E455.07616
G1 X115.401 Y62.278 E455.09720
G1 X115.401 Y137.986 E458.87428
G1 X115.001 Y137.854 E458.89532
G1 X115.001 Y62.411 E462.65920
G1 X114.601 Y62.543 E462.68024
G1 X114.601 Y137.722 E466.43092
G1 X114.201 Y137.457 E466.45484
G1 X114.201 Y62.808 E470.17912
G1 X113.801 Y62.940 E470.20012
G1 X113.801 Y137.325 E473.91120
G1 X113.401 Y137.060 E473.93512
G1 X113.401 Y63.073 E477.62636
G1 X113.001 Y63.337 E477.65028
G1 X113.001 Y136.928 E481.32176
G1 X112.601 Y136.795 E481.34276
G1 X112.601 Y63.470 E485.00100
G1 X112.201 Y63.734 E485.02492
G1 X112.201 Y136.530 E488.65672
G1 X111.801 Y136.398 E488.67776
G1 X111.801 Y63.867 E492.29640
G1 X111.401 Y64.131 E492.32032
G1 X111.401 Y136.133 E495.91252
G1 X111.001 Y135.869 E495.93644
G1 X111.001 Y64.396 E499.50224
G1 X110.601 Y64.528 E499.52324
G1 X110.601 Y135.736 E503.07584
G1 X110.201 Y135.472 E503.09976
G1 X110.201 Y64.661 E506.63252
G1 X109.801 Y64.926 E506.65648
G1 X109.801 Y135.207 E510.16280
G1 X109.401 Y134.942 E510.18672
G1 X109.401 Y65.190 E513.66668
G1 X109.001 Y65.455 E513.69060
G1 X109.001 Y134.677 E517.14416
G1 X108.601 Y134.413 E517.16808
G1 X108.601 Y65.720 E520.59520
G1 X108.201 Y65.984 E520.61916
G1 X108.201 Y134.148 E524.01984
G1 X107.801 Y133.883 E524.04376
G1 X107.801 Y66.249 E527.41804
G1 X107.401 Y66.646 E527.44616
G1 X107.401 Y133.619 E530.78740
G1 X107.001 Y133.354 E530.81136
G1 X107.001 Y66.911 E534.12624
G1 X106.601 Y67.176 E534.15016
G1 X106.601 Y133.089 E537.43860
G1 X106.201 Y132.824 E537.46252
G1 X106.201 Y67.440 E540.72456
G1 X105.801 Y67.705 E540.74848
G1 X105.801 Y132.560 E543.98408
G1 X105.401 Y132.163 E544.01220
G1 X105.401 Y67.970 E547.21480
G1 X105.001 Y68.367 E547.24292
G1 X105.001 Y131.766 E550.40588
G1 X104.601 Y131.501 E550.42980
G1 X104.601 Y68.764 E553.55976
G1 X104.201 Y69.161 E553.58788
G1 X104.201 Y131.104 E556.67824
G1 X103.801 Y130.707 E556.70636
G1 X103.801 Y69.558 E559.75708
G1 X103.401 Y69.823 E559.78100
G1 X103.401 Y130.310 E562.79872
G1 X103.001 Y129.913 E562.82684
G1 X103.001 Y70.220 E565.80492
G1 X102.601 Y70.617 E565.83308
G1 X102.601 Y129.648 E568.77812
G1 X102.201 Y129.251 E568.80628
G1 X102.201 Y71.014 E571.71172
G1 X101.801 Y71.411 E571.73988
G1 X101.801 Y128.854 E574.60572
G1 X101.401 Y128.457 E574.63384
G1 X101.401 Y71.808 E577.46008
G1 X101.001 Y72.205 E577.48824
G1 X101.001 Y128.060 E580.27484
G1 X100.601 Y127.663 E580.30296
G1 X100.601 Y72.602 E583.04992
G1 X100.201 Y72.999 E583.07808
G1 X100.201 Y127.265 E585.78540
G1 X99.801 Y126.868 E585.81352
G1 X99.801 Y73.396 E588.48128
G1 X99.401 Y73.793 E588.50940
G1 X99.401 Y126.471 E591.13752
G1 X99.001 Y126.074 E591.16564
G1 X99.001 Y74.190 E593.75416
G1 X98.601 Y74.720 E593.78724
G1 X98.601 Y125.545 E596.32288
G1 X98.201 Y125.015 E596.35596
G1 X98.201 Y75.249 E598.83880
G1 X97.801 Y75.646 E598.86696
G1 X97.801 Y124.486 E601.30360
G1 X97.401 Y124.089 E601.33172
G1 X97.401 Y76.176 E603.72212
G1 X97.001 Y76.705 E603.75520
G1 X97.001 Y123.559 E606.09276
G1 X96.601 Y123.030 E606.12584
G1 X96.601 Y77.235 E608.41060
G1 X96.201 Y77.764 E608.44368
G1 X96.201 Y122.501 E610.67560
G1 X95.801 Y121.971 E610.70868
G1 X95.801 Y78.294 E612.88776
G1 X95.401 Y78.955 E612.92632
G1 X95.401 Y121.309 E615.03936
G1 X95.001 Y120.648 E615.07796
G1 X95.001 Y79.617 E617.12492
G1 X94.601 Y80.279 E617.16352
G1 X94.601 Y119.986 E619.14452
G1 X94.201 Y119.192 E619.18892
G1 X94.201 Y80.941 E621.09724
G1 X93.801 Y81.735 E621.14160
G1 X93.801 Y118.530 E622.97728
G1 X93.401 Y117.603 E623.02764
G1 X93.401 Y82.661 E624.77092
G1 X93.001 Y83.588 E624.82128
G1 X93.001 Y116.545 E626.46552
G1 X92.601 Y115.618 E626.51588
G1 X92.601 Y84.647 E628.06104
G0 X92.201 Y85.705 F7200
G1 X92.201 Y114.559 E629.50056 F2400
G1 X91.801 Y113.633 E629.55092
G1 X91.801 Y86.632 E630.89796
G0 X91.401 Y87.823 F7200
G1 X91.401 Y112.309 E632.11956 F2400
G0 X91.001 Y110.589 F7200
G1 X91.001 Y89.544 E633.16948 F2400
G0 X90.601 Y91.264 F7200
G1 X90.601 Y108.868 E634.04772 F2400
G0 X90.201 Y105.956 F7200
G1 X90.201 Y94.176 E634.63544 F2400
G0 X167.401 Y85.044 F7200
G1 X167.401 Y115.221 E636.14100 F2400
G1 X167.801 Y114.295 E636.19136
G1 X167.801 Y85.970 E637.60444
G0 X168.201 Y87.029 F7200
G1 X168.201 Y113.236 E638.91188 F2400
G0 X168.601 Y111.780 F7200
G1 X168.601 Y88.485 E640.07404 F2400
G0 X169.001 Y90.206 F7200
G1 X169.001 Y110.191 E641.07112 F2400
G0 X169.401 Y108.338 F7200
G1 X169.401 Y91.926 E641.88988 F2400
G0 X169.801 Y96.029 F7200
G1 X169.801 Y104.235 E642.29932 F2400


; ------------------------------------
; Layer #0
; ------------------------------------
G21 ; mm
G90 ; abs
G92 E0 ;reset extr
G0 F600 Z1.550
;segType:HShell
G0 F3000 E-1.00000
G0 X130.970 Y66.057 F5400
G0 F3000 E0.00000
G1 X163.967 Y99.054 E2.32811 F2400
G0 X164.531 Y99.306 F5400
;segType:Perimeter
G1 X164.796 Y100.061 E2.36803 F1440
G1 X164.411 Y105.186 E2.62444
G1 X163.254 Y110.258 E2.88397
G1 X161.354 Y115.099 E3.14345
G1 X158.753 Y119.604 E3.40294
G1 X155.510 Y123.670 E3.66240
G1 X151.698 Y127.208 E3.92188
G1 X147.400 Y130.138 E4.18139
G1 X142.714 Y132.394 E4.44088
G1 X137.744 Y133.928 E4.70038
G1 X132.601 Y134.703 E4.95986
G1 X127.399 Y134.703 E5.21935
G1 X122.256 Y133.928 E5.47884
G1 X117.286 Y132.394 E5.73834
G1 X112.600 Y130.138 E5.99782
G1 X108.302 Y127.208 E6.25732
G1 X104.490 Y123.670 E6.51681
G1 X101.247 Y119.604 E6.77629
G1 X98.646 Y115.099 E7.03578
G1 X96.746 Y110.258 E7.29526
G1 X95.589 Y105.187 E7.55476
G1 X95.200 Y100.000 E7.81425
G1 X95.589 Y94.813 E8.07374
G1 X96.746 Y89.742 E8.33323
G1 X98.646 Y84.901 E8.59272
G1 X101.247 Y80.396 E8.85222
G1 X104.490 Y76.330 E9.11171
G1 X108.302 Y72.792 E9.37118
G1 X112.600 Y69.862 E9.63065
G1 X117.286 Y67.606 E9.89016
G1 X122.256 Y66.072 E10.14967
G1 X127.399 Y65.297 E10.40912
G1 X132.601 Y65.297 E10.66863
G1 X137.744 Y66.073 E10.92815
G1 X142.714 Y67.606 E11.18761
G1 X147.401 Y69.863 E11.44714
G1 X151.697 Y72.791 E11.70655
G1 X155.510 Y76.330 E11.96609
G1 X158.753 Y80.396 E12.22556
G1 X161.354 Y84.902 E12.48510
G1 X163.254 Y89.743 E12.74457
G1 X164.411 Y94.812 E13.00397
G1 X164.796 Y99.942 E13.26061
G0 X164.796 Y100.061 F5400
G0 X164.676 Y101.657
G0 X164.319 Y101.068
;segType:Loop
G1 X164.015 Y105.127 E13.46366 F2400
G1 X162.871 Y110.139 E13.72014
G1 X160.992 Y114.925 E13.97665
G1 X158.421 Y119.378 E14.23320
G1 X155.216 Y123.398 E14.48967
G1 X151.448 Y126.894 E14.74614
G1 X147.200 Y129.790 E15.00264
G1 X142.567 Y132.021 E15.25914
G1 X137.654 Y133.536 E15.51565
G1 X132.571 Y134.303 E15.77214
G1 X127.429 Y134.303 E16.02864
G1 X122.346 Y133.536 E16.28513
G1 X117.432 Y132.021 E16.54166
G1 X112.800 Y129.790 E16.79814
G1 X108.552 Y126.894 E17.05464
G1 X104.784 Y123.397 E17.31114
G1 X101.578 Y119.378 E17.56764
G1 X99.008 Y114.925 E17.82413
G1 X97.129 Y110.139 E18.08063
G1 X95.985 Y105.127 E18.33713
G1 X95.601 Y100.000 E18.59363
G1 X95.985 Y94.873 E18.85014
G1 X97.129 Y89.861 E19.10664
G1 X99.008 Y85.075 E19.36313
G1 X101.578 Y80.622 E19.61963
G1 X104.784 Y76.602 E19.87617
G1 X108.552 Y73.106 E20.13259
G1 X112.800 Y70.210 E20.38911
G1 X117.432 Y67.979 E20.64561
G1 X122.345 Y66.464 E20.90211
G1 X127.430 Y65.697 E21.15866
G1 X132.571 Y65.697 E21.41512
G1 X137.654 Y66.463 E21.67158
G1 X142.568 Y67.979 E21.92813
G1 X147.200 Y70.210 E22.18465
G1 X151.446 Y73.104 E22.44101
G1 X155.216 Y76.603 E22.69759
G1 X158.422 Y80.623 E22.95412
G1 X160.993 Y85.076 E23.21066
G1 X162.871 Y89.861 E23.46710
G1 X164.014 Y94.872 E23.72356
G1 X164.399 Y100.001 E23.98015
G1 X164.334 Y100.869 E24.02358
G0 X163.921 Y98.443 F5400
;segType:HShell
G1 X131.536 Y66.057 E26.30855 F2400
G0 X132.101 Y66.057 F5400
G1 X163.875 Y97.831 E28.55036 F2400
G0 X163.829 Y97.220 F5400
G1 X132.689 Y66.079 E30.74749 F2400
G0 X133.355 Y66.180 F5400
G1 X163.783 Y96.608 E32.89438 F2400
G0 X163.738 Y95.997 F5400
G1 X134.021 Y66.280 E34.99105 F2400
G0 X134.687 Y66.380 F5400
G1 X163.692 Y95.385 E37.03748 F2400
G0 X163.616 Y94.743 F5400
G1 X135.353 Y66.481 E39.03155 F2400
G0 X136.019 Y66.581 F5400
G1 X163.448 Y94.010 E40.96682 F2400
G0 X163.281 Y93.277 F5400
G1 X136.685 Y66.682 E42.84329 F2400
G0 X137.351 Y66.782 F5400
G1 X163.114 Y92.544 E44.66096 F2400
G0 X162.946 Y91.811 F5400
G1 X138.119 Y66.984 E46.41268 F2400
G0 X138.937 Y67.236 F5400
G1 X162.779 Y91.078 E48.09489 F2400
G0 X162.612 Y90.345 F5400
G1 X139.755 Y67.488 E49.70758 F2400
G0 X140.573 Y67.741 F5400
G1 X162.349 Y89.516 E51.24398 F2400
G0 X161.983 Y88.585 F5400
G1 X141.391 Y67.993 E52.69688 F2400
G0 X142.209 Y68.245 F5400
G1 X161.618 Y87.654 E54.06629 F2400
G0 X161.252 Y86.723 F5400
G1 X143.224 Y68.695 E55.33827 F2400
G0 X144.315 Y69.221 F5400
G1 X160.887 Y85.792 E56.50748 F2400
G0 X160.359 Y84.698 F5400
G1 X145.407 Y69.746 E57.56244 F2400
G0 X146.498 Y70.272 F5400
G1 X159.586 Y83.360 E58.48590 F2400
G0 X158.814 Y82.022 F5400
G1 X147.947 Y71.155 E59.25260 F2400
G0 X149.724 Y72.366 F5400
G1 X157.886 Y80.528 E59.82846 F2400
G0 X152.459 Y74.536 F5400
G1 X155.659 Y77.735 E60.05421 F2400
G0 X130.404 Y66.057 F5400
G1 X164.013 Y99.666 E62.42547 F2400
G0 X164.020 Y100.239 F5400
G1 X129.839 Y66.057 E64.83716 F2400
G0 X129.273 Y66.057 F5400
G1 X163.981 Y100.765 E67.28598 F2400
G0 X163.941 Y101.291 F5400
G1 X128.707 Y66.057 E69.77192 F2400
G0 X128.142 Y66.057 F5400
G1 X163.902 Y101.818 E72.29499 F2400
G0 X163.862 Y102.344 F5400
G1 X127.576 Y66.057 E74.85519 F2400
G0 X127.069 Y66.116 F5400
G1 X163.823 Y102.870 E77.44838 F2400
G0 X163.783 Y103.396 F5400
G1 X126.577 Y66.190 E80.07348 F2400
G0 X126.085 Y66.264 F5400
G1 X163.744 Y103.922 E82.73048 F2400
G0 X163.704 Y104.449 F5400
G1 X125.594 Y66.338 E85.41937 F2400
G0 X125.102 Y66.412 F5400
G1 X163.665 Y104.975 E88.14017 F2400
G0 X163.572 Y105.448 F5400
G1 X124.611 Y66.486 E90.88910 F2400
G0 X124.119 Y66.560 F5400
G1 X163.467 Y105.908 E93.66530 F2400
G0 X163.362 Y106.369 F5400
G1 X123.627 Y66.635 E96.46877 F2400
G0 X123.136 Y66.709 F5400
G1 X163.257 Y106.829 E99.29950 F2400
G0 X163.152 Y107.290 F5400
G1 X122.644 Y66.783 E102.15750 F2400
G0 X122.186 Y66.890 F5400
G1 X163.046 Y107.751 E105.04045 F2400
G0 X162.941 Y108.211 F5400
G1 X121.753 Y67.023 E107.94649 F2400
G0 X121.321 Y67.156 F5400
G1 X162.836 Y108.672 E110.87561 F2400
G0 X162.731 Y109.132 F5400
G1 X120.889 Y67.290 E113.82782 F2400
G0 X120.456 Y67.423 F5400
G1 X162.626 Y109.593 E116.80312 F2400
G0 X162.518 Y110.051 F5400
G1 X120.024 Y67.557 E119.80132 F2400
G0 X119.592 Y67.690 F5400
G1 X162.359 Y110.457 E122.81878 F2400
G0 X162.199 Y110.863 F5400
G1 X119.159 Y67.823 E125.85549 F2400
G0 X118.727 Y67.957 F5400
G1 X162.040 Y111.270 E128.91145 F2400
G0 X161.881 Y111.676 F5400
G1 X118.295 Y68.090 E131.98668 F2400
G0 X117.862 Y68.223 F5400
G1 X161.721 Y112.082 E135.08115 F2400
G0 X161.562 Y112.488 F5400
G1 X117.446 Y68.372 E138.19377 F2400
G0 X117.064 Y68.556 F5400
G1 X161.402 Y112.895 E141.32208 F2400
G0 X161.243 Y113.301 F5400
G1 X116.682 Y68.740 E144.46608 F2400
G0 X116.300 Y68.924 F5400
G1 X161.083 Y113.707 E147.62578 F2400
G0 X160.924 Y114.113 F5400
G1 X115.918 Y69.108 E150.80116 F2400
G0 X115.537 Y69.292 F5400
G1 X160.765 Y114.520 E153.99223 F2400
G0 X160.587 Y114.907 F5400
G1 X115.155 Y69.476 E157.19769 F2400
G0 X114.773 Y69.659 F5400
G1 X160.380 Y115.266 E160.41548 F2400
G0 X160.173 Y115.625 F5400
G1 X114.391 Y69.843 E163.64560 F2400
G0 X114.009 Y70.027 F5400
G1 X159.966 Y115.983 E166.88805 F2400
G0 X159.758 Y116.342 F5400
G1 X113.628 Y70.211 E170.14282 F2400
G0 X113.246 Y70.395 F5400
G1 X159.551 Y116.701 E173.40992 F2400
G0 X159.344 Y117.059 F5400
G1 X112.878 Y70.593 E176.68838 F2400
G0 X112.542 Y70.822 F5400
G1 X159.137 Y117.418 E179.97596 F2400
G0 X158.930 Y117.776 F5400
G1 X112.205 Y71.051 E183.27268 F2400
G0 X111.869 Y71.281 F5400
G1 X158.723 Y118.135 E186.57850 F2400
G0 X158.516 Y118.494 F5400
G1 X111.532 Y71.510 E189.89346 F2400
G0 X111.196 Y71.739 F5400
G1 X158.309 Y118.852 E193.21754 F2400
G0 X158.098 Y119.207 F5400
G1 X110.860 Y71.969 E196.55044 F2400
G0 X110.523 Y72.198 F5400
G1 X157.847 Y119.521 E199.88934 F2400
G0 X157.596 Y119.836 F5400
G1 X110.187 Y72.427 E203.23428 F2400
G0 X109.851 Y72.657 F5400
G1 X157.345 Y120.151 E206.58524 F2400
G0 X157.094 Y120.465 F5400
G1 X109.514 Y72.886 E209.94222 F2400
G0 X109.178 Y73.115 F5400
G1 X156.843 Y120.780 E213.30522 F2400
G0 X156.592 Y121.095 F5400
G1 X108.842 Y73.345 E216.67426 F2400
G0 X108.540 Y73.609 F5400
G1 X156.341 Y121.409 E220.04686 F2400
G0 X156.090 Y121.724 F5400
G1 X108.246 Y73.881 E223.42246 F2400
G0 X107.953 Y74.153 F5400
G1 X155.839 Y122.039 E226.80104 F2400
G0 X155.588 Y122.354 F5400
G1 X107.660 Y74.426 E230.18264 F2400
G0 X107.366 Y74.698 F5400
G1 X155.337 Y122.668 E233.56722 F2400
G0 X155.086 Y122.983 F5400
G1 X107.073 Y74.970 E236.95478 F2400
G0 X106.779 Y75.242 F5400
G1 X154.815 Y123.278 E240.34396 F2400
G0 X154.522 Y123.550 F5400
G1 X106.486 Y75.515 E243.73314 F2400
G0 X106.193 Y75.787 F5400
G1 X154.228 Y123.823 E247.12232 F2400
G0 X153.935 Y124.095 F5400
G1 X105.899 Y76.059 E250.51148 F2400
G0 X105.606 Y76.331 F5400
G1 X153.641 Y124.367 E253.90066 F2400
G0 X153.348 Y124.639 F5400
G1 X105.312 Y76.604 E257.28982 F2400
G0 X105.023 Y76.880 F5400
G1 X153.055 Y124.912 E260.67868 F2400
G0 X152.761 Y125.184 F5400
G1 X104.772 Y77.195 E264.06454 F2400
G0 X104.521 Y77.510 F5400
G1 X152.468 Y125.456 E267.44742 F2400
G0 X152.174 Y125.728 F5400
G1 X104.270 Y77.824 E270.82730 F2400
G0 X104.019 Y78.139 F5400
G1 X151.881 Y126.001 E274.20420 F2400
G0 X151.588 Y126.273 F5400
G1 X103.768 Y78.454 E277.57810 F2400
G0 X103.517 Y78.769 F5400
G1 X151.294 Y126.545 E280.94900 F2400
G0 X150.968 Y126.785 F5400
G1 X103.266 Y79.083 E284.31464 F2400
G0 X103.015 Y79.398 F5400
G1 X150.632 Y127.014 E287.67422 F2400
G0 X150.296 Y127.244 F5400
G1 X102.765 Y79.713 E291.02780 F2400
G0 X102.514 Y80.027 F5400
G1 X149.959 Y127.473 E294.37534 F2400
G0 X149.623 Y127.702 F5400
G1 X102.263 Y80.342 E297.71686 F2400
G0 X102.012 Y80.657 F5400
G1 X149.286 Y127.932 E301.05236 F2400
G0 X148.950 Y128.161 F5400
G1 X101.781 Y80.992 E304.38040 F2400
G0 X101.574 Y81.350 F5400
G1 X148.614 Y128.390 E307.69932 F2400
G0 X148.277 Y128.620 F5400
G1 X101.367 Y81.709 E311.00910 F2400
G0 X101.160 Y82.068 F5400
G1 X147.941 Y128.849 E314.30976 F2400
G0 X147.605 Y129.078 F5400
G1 X100.953 Y82.426 E317.60128 F2400
G0 X100.746 Y82.785 F5400
G1 X147.268 Y129.308 E320.88370 F2400
G0 X146.920 Y129.525 F5400
G1 X100.539 Y83.144 E324.15616 F2400
G0 X100.332 Y83.502 F5400
G1 X146.538 Y129.709 E327.41630 F2400
G0 X146.156 Y129.893 F5400
G1 X100.124 Y83.861 E330.66410 F2400
G0 X99.917 Y84.220 F5400
G1 X145.775 Y130.077 E333.89956 F2400
G0 X145.393 Y130.261 F5400
G1 X99.710 Y84.578 E337.12272 F2400
G0 X99.503 Y84.937 F5400
G1 X145.011 Y130.444 E340.33352 F2400
G0 X144.629 Y130.628 F5400
G1 X99.305 Y85.304 E343.53140 F2400
G0 X99.145 Y85.710 F5400
G1 X144.247 Y130.812 E346.71360 F2400
G0 X143.866 Y130.996 F5400
G1 X98.986 Y86.116 E349.88008 F2400
G0 X98.826 Y86.523 F5400
G1 X143.484 Y131.180 E353.03092 F2400
G0 X143.102 Y131.364 F5400
G1 X98.667 Y86.929 E356.16604 F2400
G0 X98.508 Y87.335 F5400
G1 X142.720 Y131.548 E359.28548 F2400
G0 X142.325 Y131.719 F5400
G1 X98.348 Y87.741 E362.38832 F2400
G0 X98.189 Y88.148 F5400
G1 X141.893 Y131.852 E365.47192 F2400
G0 X141.461 Y131.985 F5400
G1 X98.029 Y88.554 E368.53624 F2400
G0 X97.870 Y88.960 F5400
G1 X141.029 Y132.119 E371.58132 F2400
G0 X140.596 Y132.252 F5400
G1 X97.710 Y89.366 E374.60716 F2400
G0 X97.551 Y89.773 F5400
G1 X140.164 Y132.386 E377.61372 F2400
G0 X139.732 Y132.519 F5400
G1 X97.420 Y90.207 E380.59904 F2400
G0 X97.315 Y90.668 F5400
G1 X139.299 Y132.652 E383.56128 F2400
G0 X138.867 Y132.786 F5400
G1 X97.210 Y91.128 E386.50044 F2400
G0 X97.104 Y91.589 F5400
G1 X138.435 Y132.919 E389.41652 F2400
G0 X138.002 Y133.052 F5400
G1 X96.999 Y92.049 E392.30948 F2400
G0 X96.894 Y92.510 F5400
G1 X137.569 Y133.185 E395.17932 F2400
G0 X137.078 Y133.259 F5400
G1 X96.789 Y92.971 E398.02192 F2400
G0 X96.684 Y93.431 F5400
G1 X136.586 Y133.333 E400.83720 F2400
G0 X136.095 Y133.407 F5400
G1 X96.579 Y93.892 E403.62528 F2400
G0 X96.474 Y94.352 F5400
G1 X135.603 Y133.481 E406.38604 F2400
G0 X135.111 Y133.556 F5400
G1 X96.369 Y94.813 E409.11956 F2400
G0 X96.313 Y95.323 F5400
G1 X134.620 Y133.630 E411.82232 F2400
G0 X134.128 Y133.704 F5400
G1 X96.273 Y95.849 E414.49320 F2400
G0 X96.234 Y96.375 F5400
G1 X133.637 Y133.778 E417.13216 F2400
G0 X133.145 Y133.852 F5400
G1 X96.194 Y96.901 E419.73920 F2400
G0 X96.155 Y97.428 F5400
G1 X132.653 Y133.926 E422.31436 F2400
G0 X132.104 Y133.943 F5400
G1 X96.116 Y97.954 E424.85356 F2400
G0 X96.076 Y98.480 F5400
G1 X131.539 Y133.943 E427.35564 F2400
G0 X130.973 Y133.943 F5400
G1 X96.037 Y99.006 E429.82056 F2400
G0 X95.997 Y99.533 F5400
G1 X130.407 Y133.943 E432.24840 F2400
G0 X129.841 Y133.943 F5400
G1 X95.967 Y100.068 E434.63840 F2400
G0 X96.013 Y100.680 F5400
G1 X129.276 Y133.943 E436.98528 F2400
G0 X128.710 Y133.943 F5400
G1 X96.059 Y101.291 E439.28896 F2400
G0 X96.105 Y101.903 F5400
G1 X128.144 Y133.943 E441.54952 F2400
G0 X127.579 Y133.943 F5400
G1 X96.151 Y102.514 E443.76692 F2400
G0 X96.197 Y103.126 F5400
G1 X126.934 Y133.864 E445.93568 F2400
G0 X126.268 Y133.764 F5400
G1 X96.242 Y103.738 E448.05416 F2400
G0 X96.288 Y104.349 F5400
G1 X125.602 Y133.663 E450.12244 F2400
G0 X124.936 Y133.563 F5400
G1 X96.334 Y104.961 E452.14048 F2400
G0 X96.479 Y105.671 F5400
G1 X124.270 Y133.462 E454.10128 F2400
G0 X123.604 Y133.362 F5400
G1 X96.646 Y106.404 E456.00328 F2400
G0 X96.814 Y107.137 F5400
G1 X122.938 Y133.262 E457.84648 F2400
G0 X122.237 Y133.126 F5400
G1 X96.981 Y107.870 E459.62840 F2400
G0 X97.148 Y108.603 F5400
G1 X121.419 Y132.874 E461.34084 F2400
G0 X120.601 Y132.621 F5400
G1 X97.316 Y109.336 E462.98372 F2400
G0 X97.493 Y110.079 F5400
G1 X119.783 Y132.369 E464.55640 F2400
G0 X118.965 Y132.117 F5400
G1 X97.858 Y111.010 E466.04560 F2400
G0 X98.223 Y111.941 F5400
G1 X118.147 Y131.864 E467.45128 F2400
G0 X117.250 Y131.533 F5400
G1 X98.589 Y112.872 E468.76792 F2400
G0 X98.954 Y113.803 F5400
G1 X116.159 Y131.008 E469.98180 F2400
G0 X115.068 Y130.482 F5400
G1 X99.320 Y114.735 E471.09288 F2400
G0 X100.078 Y116.058 F5400
G1 X113.976 Y129.957 E472.07348 F2400
G0 X112.825 Y129.371 F5400
G1 X100.850 Y117.397 E472.91836 F2400
G0 X101.623 Y118.735 F5400
G1 X111.048 Y128.159 E473.58332 F2400
G0 X109.270 Y126.947 F5400
G1 X103.374 Y121.051 E473.99932 F2400
; ------------------------------------
; Layer #1
; ------------------------------------
G92 E0 ;reset extr
G0 F3000 E-1.00000
G0 F600 Z1.600
G0 X129.433 Y133.943 F7200
G0 F3000 E0.00000
;segType:HShell
G1 X163.992 Y99.384 E2.43831 F3600
G0 X164.531 Y99.306 F7200
;segType:Perimeter
G1 X164.796 Y100.061 E2.47822 F2160
G1 X164.411 Y105.186 E2.73463
G1 X163.254 Y110.258 E2.99416
G1 X161.354 Y115.099 E3.25364
G1 X158.753 Y119.604 E3.51313
G1 X155.510 Y123.670 E3.77260
G1 X151.698 Y127.208 E4.03208
G1 X147.400 Y130.138 E4.29158
G1 X142.714 Y132.394 E4.55107
G1 X137.744 Y133.928 E4.81057
G1 X132.601 Y134.703 E5.07006
G1 X127.399 Y134.703 E5.32954
G1 X122.256 Y133.928 E5.58903
G1 X117.286 Y132.394 E5.84853
G1 X112.600 Y130.138 E6.10802
G1 X108.302 Y127.208 E6.36751
G1 X104.490 Y123.670 E6.62700
G1 X101.247 Y119.604 E6.88648
G1 X98.646 Y115.099 E7.14597
G1 X96.746 Y110.258 E7.40545
G1 X95.589 Y105.187 E7.66495
G1 X95.200 Y100.000 E7.92444
G1 X95.589 Y94.813 E8.18394
G1 X96.746 Y89.742 E8.44343
G1 X98.646 Y84.901 E8.70291
G1 X101.247 Y80.396 E8.96241
G1 X104.490 Y76.330 E9.22190
G1 X108.302 Y72.792 E9.48137
G1 X112.600 Y69.862 E9.74085
G1 X117.286 Y67.606 E10.00035
G1 X122.256 Y66.072 E10.25986
G1 X127.399 Y65.297 E10.51932
G1 X132.601 Y65.297 E10.77883
G1 X137.744 Y66.073 E11.03834
G1 X142.714 Y67.606 E11.29780
G1 X147.401 Y69.863 E11.55733
G1 X151.697 Y72.791 E11.81674
G1 X155.510 Y76.330 E12.07629
G1 X158.753 Y80.396 E12.33575
G1 X161.354 Y84.902 E12.59530
G1 X163.254 Y89.743 E12.85476
G1 X164.411 Y94.812 E13.11416
G1 X164.796 Y99.942 E13.37080
G0 X164.796 Y100.061 F7200
G0 X164.676 Y101.657
G0 X164.319 Y101.068
;segType:Loop
G1 X164.015 Y105.127 E13.57386 F3600
G1 X162.871 Y110.139 E13.83034
G1 X160.992 Y114.925 E14.08685
G1 X158.421 Y119.378 E14.34339
G1 X155.216 Y123.398 E14.59986
G1 X151.448 Y126.894 E14.85633
G1 X147.200 Y129.790 E15.11283
G1 X142.567 Y132.021 E15.36934
G1 X137.654 Y133.536 E15.62584
G1 X132.571 Y134.303 E15.88234
G1 X127.429 Y134.303 E16.13883
G1 X122.346 Y133.536 E16.39533
G1 X117.432 Y132.021 E16.65185
G1 X112.800 Y129.790 E16.90833
G1 X108.552 Y126.894 E17.16484
G1 X104.784 Y123.397 E17.42133
G1 X101.578 Y119.378 E17.67783
G1 X99.008 Y114.925 E17.93432
G1 X97.129 Y110.139 E18.19082
G1 X95.985 Y105.127 E18.44732
G1 X95.601 Y100.000 E18.70382
G1 X95.985 Y94.873 E18.96033
G1 X97.129 Y89.861 E19.21683
G1 X99.008 Y85.075 E19.47332
G1 X101.578 Y80.622 E19.72982
G1 X104.784 Y76.602 E19.98636
G1 X108.552 Y73.106 E20.24278
G1 X112.800 Y70.210 E20.49930
G1 X117.432 Y67.979 E20.75580
G1 X122.345 Y66.464 E21.01230
G1 X127.430 Y65.697 E21.26885
G1 X132.571 Y65.697 E21.52531
G1 X137.654 Y66.463 E21.78177
G1 X142.568 Y67.979 E22.03833
G1 X147.200 Y70.210 E22.29484
G1 X151.446 Y73.104 E22.55120
G1 X155.216 Y76.603 E22.80778
G1 X158.422 Y80.623 E23.06431
G1 X160.993 Y85.076 E23.32085
G1 X162.871 Y89.861 E23.57729
G1 X164.014 Y94.872 E23.83375
G1 X164.399 Y100.001 E24.09034
G1 X164.334 Y100.869 E24.13377
G0 X164.031 Y99.910 F7200
;segType:HShell
G1 X129.999 Y133.943 E26.53495 F3600
G0 X130.564 Y133.943 F7200
G1 X164.000 Y100.507 E28.89402 F3600
G0 X163.954 Y101.118 F7200
G1 X131.130 Y133.943 E31.20994 F3600
G0 X131.696 Y133.943 F7200
G1 X163.908 Y101.730 E33.48272 F3600
G0 X163.862 Y102.342 F7200
G1 X132.261 Y133.943 E35.71234 F3600
G0 X132.877 Y133.892 F7200
G1 X163.817 Y102.953 E37.89527 F3600
G0 X163.771 Y103.565 F7200
G1 X133.543 Y133.792 E40.02797 F3600
G0 X134.209 Y133.692 F7200
G1 X163.725 Y104.176 E42.11044 F3600
G0 X163.679 Y104.788 F7200
G1 X134.875 Y133.591 E44.14267 F3600
G0 X135.542 Y133.491 F7200
G1 X163.568 Y105.464 E46.12011 F3600
G0 X163.401 Y106.197 F7200
G1 X136.208 Y133.390 E48.03874 F3600
G0 X136.874 Y133.290 F7200
G1 X163.234 Y106.930 E49.89858 F3600
G0 X163.066 Y107.663 F7200
G1 X137.540 Y133.190 E51.69962 F3600
G0 X138.350 Y132.945 F7200
G1 X162.899 Y108.396 E53.43169 F3600
G0 X162.732 Y109.129 F7200
G1 X139.168 Y132.693 E55.09424 F3600
G0 X139.986 Y132.440 F7200
G1 X162.565 Y109.862 E56.68727 F3600
G0 X162.245 Y110.747 F7200
G1 X140.804 Y132.188 E58.20006 F3600
G0 X141.622 Y131.936 F7200
G1 X161.880 Y111.678 E59.62934 F3600
G0 X161.514 Y112.609 F7200
G1 X142.442 Y131.682 E60.97503 F3600
G0 X143.533 Y131.156 F7200
G1 X161.149 Y113.540 E62.21794 F3600
G0 X160.784 Y114.471 F7200
G1 X144.624 Y130.631 E63.35808 F3600
G0 X145.715 Y130.105 F7200
G1 X160.141 Y115.680 E64.37590 F3600
G0 X159.368 Y117.018 F7200
G1 X146.806 Y129.580 E65.26219 F3600
G0 X148.450 Y128.502 F7200
G1 X158.595 Y118.357 E65.97801 F3600
G0 X157.257 Y120.261 F7200
G1 X150.228 Y127.290 E66.47397 F3600
G0 X154.678 Y123.406 F7200
G1 X155.029 Y123.055 E66.49874 F3600
G0 X128.867 Y133.943 F7200
G1 X163.952 Y98.858 E68.97418 F3600
G0 X163.913 Y98.331 F7200
G1 X128.301 Y133.943 E71.48674 F3600
G0 X127.736 Y133.943 F7200
G1 X163.873 Y97.805 E74.03643 F3600
G0 X163.834 Y97.279 F7200
G1 X127.208 Y133.905 E76.62061 F3600
G0 X126.716 Y133.831 F7200
G1 X163.794 Y96.753 E79.23668 F3600
G0 X163.755 Y96.227 F7200
G1 X126.224 Y133.757 E81.88465 F3600
G0 X125.733 Y133.683 F7200
G1 X163.715 Y95.700 E84.56452 F3600
G0 X163.676 Y95.174 F7200
G1 X125.241 Y133.609 E87.27629 F3600
G0 X124.750 Y133.535 F7200
G1 X163.602 Y94.683 E90.01752 F3600
G0 X163.497 Y94.222 F7200
G1 X124.258 Y133.461 E92.78601 F3600
G0 X123.766 Y133.386 F7200
G1 X163.392 Y93.761 E95.58177 F3600
G0 X163.286 Y93.301 F7200
G1 X123.275 Y133.312 E98.40480 F3600
G0 X122.783 Y133.238 F7200
G1 X163.181 Y92.840 E101.25510 F3600
G0 X163.076 Y92.380 F7200
G1 X122.308 Y133.148 E104.13152 F3600
G0 X121.876 Y133.015 F7200
G1 X162.971 Y91.919 E107.03102 F3600
G0 X162.866 Y91.459 F7200
G1 X121.443 Y132.881 E109.95361 F3600
G0 X121.011 Y132.748 F7200
G1 X162.761 Y90.998 E112.89929 F3600
G0 X162.656 Y90.537 F7200
G1 X120.579 Y132.615 E115.86806 F3600
G0 X120.146 Y132.481 F7200
G1 X162.551 Y90.077 E118.85991 F3600
G0 X162.404 Y89.658 F7200
G1 X119.714 Y132.348 E121.87193 F3600
G0 X119.282 Y132.214 F7200
G1 X162.245 Y89.251 E124.90320 F3600
G0 X162.085 Y88.845 F7200
G1 X118.849 Y132.081 E127.95373 F3600
G0 X118.417 Y131.948 F7200
G1 X161.926 Y88.439 E131.02351 F3600
G0 X161.766 Y88.033 F7200
G1 X117.985 Y131.814 E134.11255 F3600
G0 X117.554 Y131.680 F7200
G1 X161.607 Y87.626 E137.22073 F3600
G0 X161.447 Y87.220 F7200
G1 X117.172 Y131.496 E140.34462 F3600
G0 X116.790 Y131.312 F7200
G1 X161.288 Y86.814 E143.48419 F3600
G0 X161.129 Y86.408 F7200
G1 X116.408 Y131.128 E146.63945 F3600
G0 X116.026 Y130.944 F7200
G1 X160.969 Y86.001 E149.81039 F3600
G0 X160.810 Y85.595 F7200
G1 X115.645 Y130.760 E152.99704 F3600
G0 X115.263 Y130.576 F7200
G1 X160.645 Y85.194 E156.19901 F3600
G0 X160.438 Y84.835 F7200
G1 X114.881 Y130.393 E159.41330 F3600
G0 X114.499 Y130.209 F7200
G1 X160.231 Y84.477 E162.63994 F3600
G0 X160.024 Y84.118 F7200
G1 X114.117 Y130.025 E165.87891 F3600
G0 X113.736 Y129.841 F7200
G1 X159.817 Y83.760 E169.13020 F3600
G0 X159.610 Y83.401 F7200
G1 X113.354 Y129.657 E172.39382 F3600
G0 X112.973 Y129.472 F7200
G1 X159.403 Y83.042 E175.66970 F3600
G0 X159.196 Y82.684 F7200
G1 X112.637 Y129.243 E178.95472 F3600
G0 X112.300 Y129.013 F7200
G1 X158.989 Y82.325 E182.24884 F3600
G0 X158.782 Y81.966 F7200
G1 X111.964 Y128.784 E185.55210 F3600
G0 X111.628 Y128.555 F7200
G1 X158.575 Y81.608 E188.86448 F3600
G0 X158.368 Y81.249 F7200
G1 X111.291 Y128.325 E192.18596 F3600
G0 X110.955 Y128.096 F7200
G1 X158.161 Y80.890 E195.51658 F3600
G0 X157.917 Y80.568 F7200
G1 X110.618 Y127.867 E198.85378 F3600
G0 X110.282 Y127.638 F7200
G1 X157.666 Y80.253 E202.19700 F3600
G0 X157.416 Y79.938 F7200
G1 X109.946 Y127.408 E205.54624 F3600
G0 X109.609 Y127.179 F7200
G1 X157.165 Y79.624 E208.90152 F3600
G0 X156.914 Y79.309 F7200
G1 X109.273 Y126.950 E212.26282 F3600
G0 X108.937 Y126.720 F7200
G1 X156.663 Y78.994 E215.63014 F3600
G0 X156.412 Y78.680 F7200
G1 X108.623 Y126.468 E219.00190 F3600
G0 X108.329 Y126.196 F7200
G1 X156.161 Y78.365 E222.37664 F3600
G0 X155.910 Y78.050 F7200
G1 X108.036 Y125.924 E225.75438 F3600
G0 X107.743 Y125.651 F7200
G1 X155.659 Y77.735 E229.13512 F3600
G0 X155.408 Y77.421 F7200
G1 X107.449 Y125.379 E232.51884 F3600
G0 X107.156 Y125.107 F7200
G1 X155.157 Y77.106 E235.90556 F3600
G0 X154.898 Y76.799 F7200
G1 X106.862 Y124.835 E239.29474 F3600
G0 X106.569 Y124.562 F7200
G1 X154.605 Y76.527 E242.68392 F3600
G0 X154.311 Y76.254 F7200
G1 X106.276 Y124.290 E246.07308 F3600
G0 X105.982 Y124.018 F7200
G1 X154.018 Y75.982 E249.46226 F3600
G0 X153.724 Y75.710 F7200
G1 X105.689 Y123.746 E252.85144 F3600
G0 X105.395 Y123.473 F7200
G1 X153.431 Y75.438 E256.24060 F3600
G0 X153.138 Y75.165 F7200
G1 X105.102 Y123.201 E259.62976 F3600
G0 X104.843 Y122.894 F7200
G1 X152.844 Y74.893 E263.01648 F3600
G0 X152.551 Y74.621 F7200
G1 X104.592 Y122.579 E266.40020 F3600
G0 X104.341 Y122.265 F7200
G1 X152.257 Y74.349 E269.78094 F3600
G0 X151.964 Y74.076 F7200
G1 X104.090 Y121.950 E273.15870 F3600
G0 X103.839 Y121.635 F7200
G1 X151.670 Y73.804 E276.53344 F3600
G0 X151.377 Y73.532 F7200
G1 X103.588 Y121.320 E279.90522 F3600
G0 X103.337 Y121.006 F7200
G1 X151.064 Y73.280 E283.27256 F3600
G0 X150.727 Y73.050 F7200
G1 X103.086 Y120.691 E286.63388 F3600
G0 X102.835 Y120.376 F7200
G1 X150.391 Y72.821 E289.98916 F3600
G0 X150.054 Y72.592 F7200
G1 X102.584 Y120.062 E293.33844 F3600
G0 X102.334 Y119.747 F7200
G1 X149.718 Y72.362 E296.68168 F3600
G0 X149.382 Y72.133 F7200
G1 X102.083 Y119.432 E300.01890 F3600
G0 X101.839 Y119.110 F7200
G1 X149.045 Y71.904 E303.34952 F3600
G0 X148.709 Y71.674 F7200
G1 X101.632 Y118.751 E306.67102 F3600
G0 X101.425 Y118.392 F7200
G1 X148.373 Y71.445 E309.98340 F3600
G0 X148.036 Y71.216 F7200
G1 X101.218 Y118.034 E313.28666 F3600
G0 X101.011 Y117.675 F7200
G1 X147.700 Y70.987 E316.58078 F3600
G0 X147.363 Y70.757 F7200
G1 X100.804 Y117.316 E319.86578 F3600
G0 X100.597 Y116.958 F7200
G1 X147.027 Y70.528 E323.14166 F3600
G0 X146.646 Y70.343 F7200
G1 X100.390 Y116.599 E326.40528 F3600
G0 X100.183 Y116.241 F7200
G1 X146.264 Y70.159 E329.65656 F3600
G0 X145.883 Y69.975 F7200
G1 X99.976 Y115.882 E332.89550 F3600
G0 X99.769 Y115.523 F7200
G1 X145.501 Y69.791 E336.12212 F3600
G0 X145.119 Y69.608 F7200
G1 X99.562 Y115.165 E339.33644 F3600
G0 X99.355 Y114.806 F7200
G1 X144.737 Y69.424 E342.53840 F3600
G0 X144.355 Y69.240 F7200
G1 X99.190 Y114.405 E345.72504 F3600
G0 X99.031 Y113.999 F7200
G1 X143.974 Y69.056 E348.89596 F3600
G0 X143.592 Y68.872 F7200
G1 X98.871 Y113.592 E352.05120 F3600
G0 X98.712 Y113.186 F7200
G1 X143.210 Y68.688 E355.19076 F3600
G0 X142.828 Y68.504 F7200
G1 X98.553 Y112.780 E358.31464 F3600
G0 X98.393 Y112.374 F7200
G1 X142.446 Y68.320 E361.42284 F3600
G0 X142.015 Y68.186 F7200
G1 X98.234 Y111.967 E364.51184 F3600
G0 X98.074 Y111.561 F7200
G1 X141.583 Y68.052 E367.58160 F3600
G0 X141.151 Y67.919 F7200
G1 X97.915 Y111.155 E370.63216 F3600
G0 X97.755 Y110.749 F7200
G1 X140.718 Y67.786 E373.66344 F3600
G0 X140.286 Y67.652 F7200
G1 X97.596 Y110.342 E376.67544 F3600
G0 X97.449 Y109.923 F7200
G1 X139.854 Y67.519 E379.66728 F3600
G0 X139.421 Y67.386 F7200
G1 X97.344 Y109.463 E382.63604 F3600
G0 X97.239 Y109.002 F7200
G1 X138.989 Y67.252 E385.58172 F3600
G0 X138.557 Y67.119 F7200
G1 X97.134 Y108.541 E388.50432 F3600
G0 X97.029 Y108.081 F7200
G1 X138.124 Y66.985 E391.40380 F3600
G0 X137.692 Y66.852 F7200
G1 X96.924 Y107.620 E394.28024 F3600
G0 X96.819 Y107.160 F7200
G1 X137.217 Y66.762 E397.13056 F3600
G0 X136.725 Y66.688 F7200
G1 X96.714 Y106.699 E399.95360 F3600
G0 X96.609 Y106.239 F7200
G1 X136.234 Y66.614 E402.74936 F3600
G0 X135.742 Y66.539 F7200
G1 X96.503 Y105.778 E405.51784 F3600
G0 X96.398 Y105.317 F7200
G1 X135.250 Y66.465 E408.25908 F3600
G0 X134.759 Y66.391 F7200
G1 X96.324 Y104.826 E410.97088 F3600
G0 X96.285 Y104.300 F7200
G1 X134.267 Y66.317 E413.65076 F3600
G0 X133.776 Y66.243 F7200
G1 X96.245 Y103.774 E416.29872 F3600
G0 X96.206 Y103.247 F7200
G1 X133.284 Y66.169 E418.91484 F3600
G0 X132.792 Y66.095 F7200
G1 X96.166 Y102.721 E421.49900 F3600
G0 X96.127 Y102.195 F7200
G1 X132.264 Y66.057 E424.04868 F3600
G0 X131.699 Y66.057 F7200
G1 X96.087 Y101.669 E426.56124 F3600
G0 X96.048 Y101.142 F7200
G1 X131.133 Y66.057 E429.03668 F3600
G0 X130.567 Y66.057 F7200
G1 X96.008 Y100.616 E431.47500 F3600
G0 X95.969 Y100.090 F7200
G1 X130.001 Y66.057 E433.87620 F3600
G0 X129.436 Y66.057 F7200
G1 X96.000 Y99.493 E436.23528 F3600
G0 X96.046 Y98.882 F7200
G1 X128.870 Y66.057 E438.55116 F3600
G0 X128.304 Y66.057 F7200
G1 X96.092 Y98.270 E440.82396 F3600
G0 X96.138 Y97.658 F7200
G1 X127.739 Y66.057 E443.05356 F3600
G0 X127.123 Y66.108 F7200
G1 X96.184 Y97.047 E445.23648 F3600
G0 X96.229 Y96.435 F7200
G1 X126.457 Y66.208 E447.36916 F3600
G0 X125.791 Y66.309 F7200
G1 X96.275 Y95.824 E449.45164 F3600
G0 X96.321 Y95.212 F7200
G1 X125.124 Y66.409 E451.48384 F3600
G0 X124.458 Y66.509 F7200
G1 X96.432 Y94.536 E453.46128 F3600
G0 X96.599 Y93.803 F7200
G1 X123.792 Y66.610 E455.37992 F3600
G0 X123.126 Y66.710 F7200
G1 X96.766 Y93.070 E457.23976 F3600
G0 X96.934 Y92.337 F7200
G1 X122.460 Y66.810 E459.04076 F3600
G0 X121.650 Y67.055 F7200
G1 X97.101 Y91.604 E460.77284 F3600
G0 X97.268 Y90.871 F7200
G1 X120.832 Y67.307 E462.43544 F3600
G0 X120.014 Y67.560 F7200
G1 X97.436 Y90.138 E464.02848 F3600
G0 X97.755 Y89.253 F7200
G1 X119.196 Y67.812 E465.54124 F3600
G0 X118.378 Y68.064 F7200
G1 X98.120 Y88.322 E466.97056 F3600
G0 X98.486 Y87.391 F7200
G1 X117.558 Y68.318 E468.31624 F3600
G0 X116.467 Y68.844 F7200
G1 X98.851 Y86.460 E469.55916 F3600
G0 X99.216 Y85.529 F7200
G1 X115.376 Y69.369 E470.69932 F3600
G0 X111.550 Y71.498 F7200
G1 X101.405 Y81.643 E471.41512 F3600
G0 X100.632 Y82.982 F7200
G1 X113.194 Y70.420 E472.30144 F3600
G0 X114.285 Y69.895 F7200
G1 X99.859 Y84.320 E473.31924 F3600
G0 X102.744 Y79.739 F7200
G1 X109.773 Y72.710 E473.81516 F3600
G0 X104.972 Y76.945 F7200
G1 X105.321 Y76.595 E473.83980 F3600
; ------------------------------------
; Layer #2
; ------------------------------------
G92 E0 ;reset extr
G0 F3000 E-1.00000
G0 F600 Z1.900
G0 X130.970 Y66.057 F7200
G0 F3000 E0.00000
;segType:HShell
G1 X163.967 Y99.054 E2.32811 F3600
G0 X164.531 Y99.306 F7200
;segType:Perimeter
G1 X164.796 Y100.061 E2.36803 F2160
G1 X164.411 Y105.186 E2.62444
G1 X163.254 Y110.258 E2.88397
G1 X161.354 Y115.099 E3.14345
G1 X158.753 Y119.604 E3.40294
G1 X155.510 Y123.670 E3.66240
G1 X151.698 Y127.208 E3.92188
G1 X147.400 Y130.138 E4.18139
G1 X142.714 Y132.394 E4.44088
G1 X137.744 Y133.928 E4.70038
G1 X132.601 Y134.703 E4.95986
G1 X127.399 Y134.703 E5.21935
G1 X122.256 Y133.928 E5.47884
G1 X117.286 Y132.394 E5.73834
G1 X112.600 Y130.138 E5.99782
G1 X108.302 Y127.208 E6.25732
G1 X104.490 Y123.670 E6.51681
G1 X101.247 Y119.604 E6.77629
G1 X98.646 Y115.099 E7.03578
G1 X96.746 Y110.258 E7.29526
G1 X95.589 Y105.187 E7.55476
G1 X95.200 Y100.000 E7.81425
G1 X95.589 Y94.813 E8.07374
G1 X96.746 Y89.742 E8.33323
G1 X98.646 Y84.901 E8.59272
G1 X101.247 Y80.396 E8.85222
G1 X104.490 Y76.330 E9.11171
G1 X108.302 Y72.792 E9.37118
G1 X112.600 Y69.862 E9.63065
G1 X117.286 Y67.606 E9.89016
G1 X122.256 Y66.072 E10.14967
G1 X127.399 Y65.297 E10.40912
G1 X132.601 Y65.297 E10.66863
G1 X137.744 Y66.073 E10.92815
G1 X142.714 Y67.606 E11.18761
G1 X147.401 Y69.863 E11.44714
G1 X151.697 Y72.791 E11.70655
G1 X155.510 Y76.330 E11.96609
G1 X158.753 Y80.396 E12.22556
G1 X161.354 Y84.902 E12.48510
G1 X163.254 Y89.743 E12.74457
G1 X164.411 Y94.812 E13.00397
G1 X164.796 Y99.942 E13.26061
G0 X164.796 Y100.061 F7200
G0 X164.676 Y101.657
G0 X164.319 Y101.068
;segType:Loop
G1 X164.015 Y105.127 E13.46366 F3600
G1 X162.871 Y110.139 E13.72014
G1 X160.992 Y114.925 E13.97665
G1 X158.421 Y119.378 E14.23320
G1 X155.216 Y123.398 E14.48967
G1 X151.448 Y126.894 E14.74614
G1 X147.200 Y129.790 E15.00264
G1 X142.567 Y132.021 E15.25914
G1 X137.654 Y133.536 E15.51565
G1 X132.571 Y134.303 E15.77214
G1 X127.429 Y134.303 E16.02864
G1 X122.346 Y133.536 E16.28513
G1 X117.432 Y132.021 E16.54166
G1 X112.800 Y129.790 E16.79814
G1 X108.552 Y126.894 E17.05464
G1 X104.784 Y123.397 E17.31114
G1 X101.578 Y119.378 E17.56764
G1 X99.008 Y114.925 E17.82413
G1 X97.129 Y110.139 E18.08063
G1 X95.985 Y105.127 E18.33713
G1 X95.601 Y100.000 E18.59363
G1 X95.985 Y94.873 E18.85014
G1 X97.129 Y89.861 E19.10664
G1 X99.008 Y85.075 E19.36313
G1 X101.578 Y80.622 E19.61963
G1 X104.784 Y76.602 E19.87617
G1 X108.552 Y73.106 E20.13259
G1 X112.800 Y70.210 E20.38911
G1 X117.432 Y67.979 E20.64561
G1 X122.345 Y66.464 E20.90211
G1 X127.430 Y65.697 E21.15866
G1 X132.571 Y65.697 E21.41512
G1 X137.654 Y66.463 E21.67158
G1 X142.568 Y67.979 E21.92813
G1 X147.200 Y70.210 E22.18465
G1 X151.446 Y73.104 E22.44101
G1 X155.216 Y76.603 E22.69759
G1 X158.422 Y80.623 E22.95412
G1 X160.993 Y85.076 E23.21066
G1 X162.871 Y89.861 E23.46710
G1 X164.014 Y94.872 E23.72356
G1 X164.399 Y100.001 E23.98015
G1 X164.334 Y100.869 E24.02358
G0 X163.921 Y98.443 F7200
;segType:HShell
G1 X131.536 Y66.057 E26.30855 F3600
G0 X132.101 Y66.057 F7200
G1 X163.875 Y97.831 E28.55036 F3600
G0 X163.829 Y97.220 F7200
G1 X132.689 Y66.079 E30.74749 F3600
G0 X133.355 Y66.180 F7200
G1 X163.783 Y96.608 E32.89438 F3600
G0 X163.738 Y95.997 F7200
G1 X134.021 Y66.280 E34.99104 F3600
G0 X134.687 Y66.380 F7200
G1 X163.692 Y95.385 E37.03748 F3600
G0 X163.616 Y94.743 F7200
G1 X135.353 Y66.481 E39.03154 F3600
G0 X136.019 Y66.581 F7200
G1 X163.448 Y94.010 E40.96681 F3600
G0 X163.281 Y93.277 F7200
G1 X136.685 Y66.682 E42.84328 F3600
G0 X137.351 Y66.782 F7200
G1 X163.114 Y92.544 E44.66096 F3600
G0 X162.946 Y91.811 F7200
G1 X138.119 Y66.984 E46.41268 F3600
G0 X138.937 Y67.236 F7200
G1 X162.779 Y91.078 E48.09489 F3600
G0 X162.612 Y90.345 F7200
G1 X139.755 Y67.488 E49.70757 F3600
G0 X140.573 Y67.741 F7200
G1 X162.349 Y89.516 E51.24397 F3600
G0 X161.983 Y88.585 F7200
G1 X141.391 Y67.993 E52.69688 F3600
G0 X142.209 Y68.245 F7200
G1 X161.618 Y87.654 E54.06628 F3600
G0 X161.252 Y86.723 F7200
G1 X143.224 Y68.695 E55.33826 F3600
G0 X144.315 Y69.221 F7200
G1 X160.887 Y85.792 E56.50747 F3600
G0 X160.359 Y84.698 F7200
G1 X145.407 Y69.746 E57.56244 F3600
G0 X146.498 Y70.272 F7200
G1 X159.586 Y83.360 E58.48590 F3600
G0 X158.814 Y82.022 F7200
G1 X147.947 Y71.155 E59.25260 F3600
G0 X130.404 Y66.057 F7200
G1 X164.013 Y99.666 E61.62386 F3600
G0 X164.020 Y100.239 F7200
G1 X129.839 Y66.057 E64.03555 F3600
G0 X129.273 Y66.057 F7200
G1 X163.981 Y100.765 E66.48436 F3600
G0 X163.941 Y101.291 F7200
G1 X128.707 Y66.057 E68.97030 F3600
G0 X128.142 Y66.057 F7200
G1 X163.902 Y101.818 E71.49337 F3600
G0 X163.862 Y102.344 F7200
G1 X127.576 Y66.057 E74.05357 F3600
G0 X127.069 Y66.116 F7200
G1 X163.823 Y102.870 E76.64676 F3600
G0 X163.783 Y103.396 F7200
G1 X126.577 Y66.190 E79.27186 F3600
G0 X126.085 Y66.264 F7200
G1 X163.744 Y103.922 E81.92886 F3600
G0 X163.704 Y104.449 F7200
G1 X125.594 Y66.338 E84.61775 F3600
G0 X125.102 Y66.412 F7200
G1 X163.665 Y104.975 E87.33855 F3600
G0 X163.572 Y105.448 F7200
G1 X124.611 Y66.486 E90.08748 F3600
G0 X124.119 Y66.560 F7200
G1 X163.467 Y105.908 E92.86368 F3600
G0 X163.362 Y106.369 F7200
G1 X123.627 Y66.635 E95.66714 F3600
G0 X123.136 Y66.709 F7200
G1 X163.257 Y106.829 E98.49788 F3600
G0 X163.152 Y107.290 F7200
G1 X122.644 Y66.783 E101.35588 F3600
G0 X122.186 Y66.890 F7200
G1 X163.046 Y107.751 E104.23883 F3600
G0 X162.941 Y108.211 F7200
G1 X121.753 Y67.023 E107.14487 F3600
G0 X121.321 Y67.156 F7200
G1 X162.836 Y108.672 E110.07399 F3600
G0 X162.731 Y109.132 F7200
G1 X120.889 Y67.290 E113.02620 F3600
G0 X120.456 Y67.423 F7200
G1 X162.626 Y109.593 E116.00150 F3600
G0 X162.518 Y110.051 F7200
G1 X120.024 Y67.557 E118.99970 F3600
G0 X119.592 Y67.690 F7200
G1 X162.359 Y110.457 E122.01716 F3600
G0 X162.199 Y110.863 F7200
G1 X119.159 Y67.823 E125.05387 F3600
G0 X118.727 Y67.957 F7200
G1 X162.040 Y111.270 E128.10983 F3600
G0 X161.881 Y111.676 F7200
G1 X118.295 Y68.090 E131.18506 F3600
G0 X117.862 Y68.223 F7200
G1 X161.721 Y112.082 E134.27954 F3600
G0 X161.562 Y112.488 F7200
G1 X117.446 Y68.372 E137.39217 F3600
G0 X117.064 Y68.556 F7200
G1 X161.402 Y112.895 E140.52048 F3600
G0 X161.243 Y113.301 F7200
G1 X116.682 Y68.740 E143.66447 F3600
G0 X116.300 Y68.924 F7200
G1 X161.083 Y113.707 E146.82416 F3600
G0 X160.924 Y114.113 F7200
G1 X115.918 Y69.108 E149.99954 F3600
G0 X115.537 Y69.292 F7200
G1 X160.765 Y114.520 E153.19061 F3600
G0 X160.587 Y114.907 F7200
G1 X115.155 Y69.476 E156.39607 F3600
G0 X114.773 Y69.659 F7200
G1 X160.380 Y115.266 E159.61386 F3600
G0 X160.173 Y115.625 F7200
G1 X114.391 Y69.843 E162.84398 F3600
G0 X114.009 Y70.027 F7200
G1 X159.966 Y115.983 E166.08643 F3600
G0 X159.758 Y116.342 F7200
G1 X113.628 Y70.211 E169.34120 F3600
G0 X113.246 Y70.395 F7200
G1 X159.551 Y116.701 E172.60830 F3600
G0 X159.344 Y117.059 F7200
G1 X112.878 Y70.593 E175.88676 F3600
G0 X112.542 Y70.822 F7200
G1 X159.137 Y117.418 E179.17434 F3600
G0 X158.930 Y117.776 F7200
G1 X112.205 Y71.051 E182.47106 F3600
G0 X111.869 Y71.281 F7200
G1 X158.723 Y118.135 E185.77688 F3600
G0 X158.516 Y118.494 F7200
G1 X111.532 Y71.510 E189.09184 F3600
G0 X111.196 Y71.739 F7200
G1 X158.309 Y118.852 E192.41592 F3600
G0 X158.098 Y119.207 F7200
G1 X110.860 Y71.969 E195.74880 F3600
G0 X110.523 Y72.198 F7200
G1 X157.847 Y119.521 E199.08772 F3600
G0 X157.596 Y119.836 F7200
G1 X110.187 Y72.427 E202.43266 F3600
G0 X109.851 Y72.657 F7200
G1 X157.345 Y120.151 E205.78362 F3600
G0 X157.094 Y120.465 F7200
G1 X109.514 Y72.886 E209.14060 F3600
G0 X109.178 Y73.115 F7200
G1 X156.843 Y120.780 E212.50360 F3600
G0 X156.592 Y121.095 F7200
G1 X108.842 Y73.345 E215.87264 F3600
G0 X108.540 Y73.609 F7200
G1 X156.341 Y121.409 E219.24524 F3600
G0 X156.090 Y121.724 F7200
G1 X108.246 Y73.881 E222.62084 F3600
G0 X107.953 Y74.153 F7200
G1 X155.839 Y122.039 E225.99942 F3600
G0 X155.588 Y122.354 F7200
G1 X107.660 Y74.426 E229.38102 F3600
G0 X107.366 Y74.698 F7200
G1 X155.337 Y122.668 E232.76560 F3600
G0 X155.086 Y122.983 F7200
G1 X107.073 Y74.970 E236.15316 F3600
G0 X106.779 Y75.242 F7200
G1 X154.815 Y123.278 E239.54234 F3600
G0 X154.522 Y123.550 F7200
G1 X106.486 Y75.515 E242.93152 F3600
G0 X106.193 Y75.787 F7200
G1 X154.228 Y123.823 E246.32070 F3600
G0 X153.935 Y124.095 F7200
G1 X105.899 Y76.059 E249.70986 F3600
G0 X105.606 Y76.331 F7200
G1 X153.641 Y124.367 E253.09904 F3600
G0 X153.348 Y124.639 F7200
G1 X105.312 Y76.604 E256.48822 F3600
G0 X105.023 Y76.880 F7200
G1 X153.055 Y124.912 E259.87708 F3600
G0 X152.761 Y125.184 F7200
G1 X104.772 Y77.195 E263.26294 F3600
G0 X104.521 Y77.510 F7200
G1 X152.468 Y125.456 E266.64582 F3600
G0 X152.174 Y125.728 F7200
G1 X104.270 Y77.824 E270.02570 F3600
G0 X104.019 Y78.139 F7200
G1 X151.881 Y126.001 E273.40258 F3600
G0 X151.588 Y126.273 F7200
G1 X103.768 Y78.454 E276.77648 F3600
G0 X103.517 Y78.769 F7200
G1 X151.294 Y126.545 E280.14740 F3600
G0 X150.968 Y126.785 F7200
G1 X103.266 Y79.083 E283.51304 F3600
G0 X103.015 Y79.398 F7200
G1 X150.632 Y127.014 E286.87262 F3600
G0 X150.296 Y127.244 F7200
G1 X102.765 Y79.713 E290.22620 F3600
G0 X102.514 Y80.027 F7200
G1 X149.959 Y127.473 E293.57374 F3600
G0 X149.623 Y127.702 F7200
G1 X102.263 Y80.342 E296.91526 F3600
G0 X102.012 Y80.657 F7200
G1 X149.286 Y127.932 E300.25076 F3600
G0 X148.950 Y128.161 F7200
G1 X101.781 Y80.992 E303.57880 F3600
G0 X101.574 Y81.350 F7200
G1 X148.614 Y128.390 E306.89770 F3600
G0 X148.277 Y128.620 F7200
G1 X101.367 Y81.709 E310.20748 F3600
G0 X101.160 Y82.068 F7200
G1 X147.941 Y128.849 E313.50814 F3600
G0 X147.605 Y129.078 F7200
G1 X100.953 Y82.426 E316.79968 F3600
G0 X100.746 Y82.785 F7200
G1 X147.268 Y129.308 E320.08210 F3600
G0 X146.920 Y129.525 F7200
G1 X100.539 Y83.144 E323.35456 F3600
G0 X100.332 Y83.502 F7200
G1 X146.538 Y129.709 E326.61468 F3600
G0 X146.156 Y129.893 F7200
G1 X100.124 Y83.861 E329.86248 F3600
G0 X99.917 Y84.220 F7200
G1 X145.775 Y130.077 E333.09796 F3600
G0 X145.393 Y130.261 F7200
G1 X99.710 Y84.578 E336.32112 F3600
G0 X99.503 Y84.937 F7200
G1 X145.011 Y130.444 E339.53192 F3600
G0 X144.629 Y130.628 F7200
G1 X99.305 Y85.304 E342.72980 F3600
G0 X99.145 Y85.710 F7200
G1 X144.247 Y130.812 E345.91200 F3600
G0 X143.866 Y130.996 F7200
G1 X98.986 Y86.116 E349.07848 F3600
G0 X98.826 Y86.523 F7200
G1 X143.484 Y131.180 E352.22932 F3600
G0 X143.102 Y131.364 F7200
G1 X98.667 Y86.929 E355.36444 F3600
G0 X98.508 Y87.335 F7200
G1 X142.720 Y131.548 E358.48388 F3600
G0 X142.326 Y131.719 F7200
G1 X98.348 Y87.741 E361.58672 F3600
G0 X98.189 Y88.148 F7200
G1 X141.893 Y131.852 E364.67032 F3600
G0 X141.461 Y131.985 F7200
G1 X98.029 Y88.554 E367.73464 F3600
G0 X97.870 Y88.960 F7200
G1 X141.029 Y132.119 E370.77972 F3600
G0 X140.596 Y132.252 F7200
G1 X97.710 Y89.366 E373.80556 F3600
G0 X97.551 Y89.773 F7200
G1 X140.164 Y132.386 E376.81212 F3600
G0 X139.732 Y132.519 F7200
G1 X97.420 Y90.207 E379.79744 F3600
G0 X97.315 Y90.668 F7200
G1 X139.299 Y132.652 E382.75968 F3600
G0 X138.867 Y132.786 F7200
G1 X97.210 Y91.128 E385.69884 F3600
G0 X97.104 Y91.589 F7200
G1 X138.435 Y132.919 E388.61488 F3600
G0 X138.002 Y133.052 F7200
G1 X96.999 Y92.049 E391.50788 F3600
G0 X96.894 Y92.510 F7200
G1 X137.569 Y133.185 E394.37772 F3600
G0 X137.078 Y133.259 F7200
G1 X96.789 Y92.971 E397.22032 F3600
G0 X96.684 Y93.431 F7200
G1 X136.586 Y133.333 E400.03560 F3600
G0 X136.095 Y133.407 F7200
G1 X96.579 Y93.892 E402.82368 F3600
G0 X96.474 Y94.352 F7200
G1 X135.603 Y133.481 E405.58444 F3600
G0 X135.111 Y133.556 F7200
G1 X96.369 Y94.813 E408.31796 F3600
G0 X96.313 Y95.323 F7200
G1 X134.620 Y133.630 E411.02072 F3600
G0 X134.128 Y133.704 F7200
G1 X96.273 Y95.849 E413.69160 F3600
G0 X96.234 Y96.375 F7200
G1 X133.637 Y133.778 E416.33052 F3600
G0 X133.145 Y133.852 F7200
G1 X96.194 Y96.901 E418.93760 F3600
G0 X96.155 Y97.428 F7200
G1 X132.653 Y133.926 E421.51276 F3600
G0 X132.104 Y133.943 F7200
G1 X96.116 Y97.954 E424.05196 F3600
G0 X96.076 Y98.480 F7200
G1 X131.539 Y133.943 E426.55400 F3600
G0 X130.973 Y133.943 F7200
G1 X96.037 Y99.006 E429.01896 F3600
G0 X95.997 Y99.533 F7200
G1 X130.407 Y133.943 E431.44676 F3600
G0 X129.841 Y133.943 F7200
G1 X95.967 Y100.068 E433.83680 F3600
G0 X96.013 Y100.680 F7200
G1 X129.276 Y133.943 E436.18364 F3600
G0 X128.710 Y133.943 F7200
G1 X96.059 Y101.291 E438.48736 F3600
G0 X96.105 Y101.903 F7200
G1 X128.144 Y133.943 E440.74792 F3600
G0 X127.579 Y133.943 F7200
G1 X96.151 Y102.514 E442.96532 F3600
G0 X96.197 Y103.126 F7200
G1 X126.934 Y133.864 E445.13408 F3600
G0 X126.268 Y133.764 F7200
G1 X96.242 Y103.738 E447.25256 F3600
G0 X96.288 Y104.349 F7200
G1 X125.602 Y133.663 E449.32084 F3600
G0 X124.936 Y133.563 F7200
G1 X96.334 Y104.961 E451.33888 F3600
G0 X96.479 Y105.671 F7200
G1 X124.270 Y133.462 E453.29968 F3600
G0 X123.604 Y133.362 F7200
G1 X96.646 Y106.404 E455.20168 F3600
G0 X96.814 Y107.137 F7200
G1 X122.938 Y133.262 E457.04488 F3600
G0 X122.237 Y133.126 F7200
G1 X96.981 Y107.870 E458.82680 F3600
G0 X97.148 Y108.603 F7200
G1 X121.419 Y132.874 E460.53920 F3600
G0 X120.601 Y132.621 F7200
G1 X97.316 Y109.336 E462.18208 F3600
G0 X97.493 Y110.079 F7200
G1 X119.783 Y132.369 E463.75480 F3600
G0 X118.965 Y132.117 F7200
G1 X97.858 Y111.010 E465.24400 F3600
G0 X98.223 Y111.941 F7200
G1 X118.147 Y131.864 E466.64968 F3600
G0 X117.250 Y131.533 F7200
G1 X98.589 Y112.872 E467.96632 F3600
G0 X98.954 Y113.803 F7200
G1 X116.159 Y131.008 E469.18016 F3600
G0 X115.068 Y130.482 F7200
G1 X99.320 Y114.735 E470.29124 F3600
G0 X100.078 Y116.058 F7200
G1 X113.976 Y129.957 E471.27188 F3600
G0 X112.825 Y129.371 F7200
G1 X100.850 Y117.397 E472.11676 F3600
G0 X101.623 Y118.735 F7200
G1 X111.048 Y128.159 E472.78172 F3600
G0 X109.270 Y126.947 F7200
G1 X103.374 Y121.051 E473.19772 F3600
G0 F3000 E472.19772
G0 X103.123 Y121.314 F7200
G0 X149.976 Y72.102
G0 X149.724 Y72.366
G0 F3000 E473.19772
G1 X157.886 Y80.528 E473.77360 F3600
G0 X155.659 Y77.735 F7200
G1 X152.459 Y74.536 E473.99932 F3600
; ------------------------------------
; Layer #3
; ------------------------------------
G92 E0 ;reset extr
G0 F3000 E-1.00000
G0 F600 Z2.200
G0 X163.392 Y93.761 F7200
G0 F3000 E0.00000
;segType:Infill
G1 X156.927 Y100.226 E0.54730 F4500
G0 X157.887 Y103.792 F7200
G1 X163.873 Y97.805 E1.05415 F4500
G0 X164.531 Y99.306 F7200
;segType:Perimeter
G1 X164.796 Y100.061 E1.09406 F2160
G1 X164.411 Y105.186 E1.35047
G1 X163.254 Y110.258 E1.61000
G1 X161.354 Y115.099 E1.86948
G1 X158.753 Y119.604 E2.12898
G1 X155.510 Y123.670 E2.38844
G1 X151.698 Y127.208 E2.64792
G1 X147.400 Y130.138 E2.90743
G1 X142.714 Y132.394 E3.16692
G1 X137.744 Y133.928 E3.42641
G1 X132.601 Y134.703 E3.68590
G1 X127.399 Y134.703 E3.94539
G1 X122.256 Y133.928 E4.20487
G1 X117.286 Y132.394 E4.46438
G1 X112.600 Y130.138 E4.72386
G1 X108.302 Y127.208 E4.98335
G1 X104.490 Y123.670 E5.24284
G1 X101.247 Y119.604 E5.50232
G1 X98.646 Y115.099 E5.76181
G1 X96.746 Y110.258 E6.02130
G1 X95.589 Y105.187 E6.28079
G1 X95.200 Y100.000 E6.54028
G1 X95.589 Y94.813 E6.79978
G1 X96.746 Y89.742 E7.05927
G1 X98.646 Y84.901 E7.31875
G1 X101.247 Y80.396 E7.57826
G1 X104.490 Y76.330 E7.83774
G1 X108.302 Y72.792 E8.09722
G1 X112.600 Y69.862 E8.35669
G1 X117.286 Y67.606 E8.61620
G1 X122.256 Y66.072 E8.87570
G1 X127.399 Y65.297 E9.13516
G1 X132.601 Y65.297 E9.39467
G1 X137.744 Y66.073 E9.65418
G1 X142.714 Y67.606 E9.91365
G1 X147.401 Y69.863 E10.17318
G1 X151.697 Y72.791 E10.43258
G1 X155.510 Y76.330 E10.69213
G1 X158.753 Y80.396 E10.95159
G1 X161.354 Y84.902 E11.21114
G1 X163.254 Y89.743 E11.47061
G1 X164.411 Y94.812 E11.73000
G1 X164.796 Y99.942 E11.98664
G0 X164.796 Y100.061 F7200
G0 X164.676 Y101.657
G0 X164.319 Y101.068
;segType:Loop
G1 X164.015 Y105.127 E12.18970 F3600
G1 X162.871 Y110.139 E12.44618
G1 X160.992 Y114.925 E12.70269
G1 X158.421 Y119.378 E12.95923
G1 X155.216 Y123.398 E13.21571
G1 X151.448 Y126.894 E13.47217
G1 X147.200 Y129.790 E13.72867
G1 X142.567 Y132.021 E13.98518
G1 X137.654 Y133.536 E14.24169
G1 X132.571 Y134.303 E14.49818
G1 X127.429 Y134.303 E14.75468
G1 X122.346 Y133.536 E15.01117
G1 X117.432 Y132.021 E15.26769
G1 X112.800 Y129.790 E15.52418
G1 X108.552 Y126.894 E15.78068
G1 X104.784 Y123.397 E16.03717
G1 X101.578 Y119.378 E16.29367
G1 X99.008 Y114.925 E16.55017
G1 X97.129 Y110.139 E16.80666
G1 X95.985 Y105.127 E17.06316
G1 X95.601 Y100.000 E17.31966
G1 X95.985 Y94.873 E17.57617
G1 X97.129 Y89.861 E17.83267
G1 X99.008 Y85.075 E18.08916
G1 X101.578 Y80.622 E18.34566
G1 X104.784 Y76.602 E18.60220
G1 X108.552 Y73.106 E18.85862
G1 X112.800 Y70.210 E19.11515
G1 X117.432 Y67.979 E19.37164
G1 X122.345 Y66.464 E19.62814
G1 X127.430 Y65.697 E19.88469
G1 X132.571 Y65.697 E20.14115
G1 X137.654 Y66.463 E20.39761
G1 X142.568 Y67.979 E20.65417
G1 X147.200 Y70.210 E20.91068
G1 X151.446 Y73.104 E21.16704
G1 X155.216 Y76.603 E21.42363
G1 X158.422 Y80.623 E21.68015
G1 X160.993 Y85.076 E21.93669
G1 X162.871 Y89.861 E22.19313
G1 X164.014 Y94.872 E22.44959
G1 X164.399 Y100.001 E22.70618
G1 X164.334 Y100.869 E22.74961
G0 X163.862 Y102.342 F7200
;segType:Infill
G1 X158.284 Y107.920 E23.22194 F4500
G0 F3000 E22.22194
G0 X163.066 Y107.663 F7200
G0 F3000 E23.22194
G1 X156.579 Y114.151 E23.77123 F4500
G0 F3000 E22.77123
G0 X160.784 Y114.471 F7200
G0 F3000 E23.77123
G1 X144.624 Y130.631 E25.13941 F4500
G0 F3000 E24.13941
G0 X144.032 Y126.697 F7200
G0 F3000 E25.13941
G1 X137.540 Y133.190 E25.68907 F4500
G0 X132.261 Y133.943 F7200
G1 X139.075 Y127.129 E26.26595 F4500
G0 X131.543 Y116.559 F7200
G1 X147.036 Y101.065 E27.57774 F4500
G0 X144.223 Y94.828 F7200
G1 X138.555 Y100.496 E28.05763 F4500
G0 X137.835 Y96.690 F7200
G1 X142.289 Y92.236 E28.43471 F4500
G0 X140.047 Y89.953 F7200
G1 X136.008 Y93.992 E28.77670 F4500
G0 X133.209 Y92.266 F7200
G1 X137.512 Y87.963 E29.14104 F4500
G0 X129.002 Y82.896 F7200
G1 X112.117 Y99.782 E30.57066 F4500
G0 X113.520 Y102.904 F7200
G1 X135.141 Y81.282 E32.40126 F4500
G0 X140.250 Y71.648 F7200
G1 X143.210 Y68.688 E32.65185 F4500
G0 X146.264 Y70.159 F7200
G1 X143.383 Y73.041 E32.89580 F4500
G0 X135.940 Y71.432 F7200
G1 X139.854 Y67.519 E33.22715 F4500
G0 X136.234 Y66.614 F7200
G1 X130.461 Y72.386 E33.71588 F4500
G0 F3000 E32.71588
G0 X132.264 Y66.057 F7200
G0 F3000 E33.71588
G1 X111.329 Y86.993 E35.48840 F4500
G0 X113.796 Y93.577 F7200
G1 X111.152 Y96.220 E35.71220 F4500
G0 X110.781 Y92.066 F7200
G1 X114.542 Y88.305 E36.03066 F4500
G0 X116.087 Y77.709 F7200
G1 X127.739 Y66.057 E37.01718 F4500
G0 X122.460 Y66.810 F7200
G1 X115.608 Y73.662 E37.59730 F4500
G0 X115.376 Y69.369 F7200
G1 X99.216 Y85.529 E38.96548 F4500
G0 F3000 E37.96548
G0 X102.734 Y86.536 F7200
G0 F3000 E38.96548
G1 X96.934 Y92.337 E39.45661 F4500
G0 X96.138 Y97.658 F7200
G1 X101.254 Y92.543 E39.88975 F4500
G0 X101.533 Y96.789 F7200
G1 X96.127 Y102.195 E40.34744 F4500
G0 F3000 E39.34744
G0 X102.447 Y100.400 F7200
G0 F3000 E40.34744
G1 X96.609 Y106.239 E40.84176 F4500
G0 X97.449 Y109.923 F7200
G1 X103.801 Y103.571 E41.37955 F4500
G0 X115.669 Y114.331 F7200
G1 X113.390 Y116.610 E41.57251 F4500
G0 X110.424 Y115.050 F7200
G1 X112.624 Y112.851 E41.75871 F4500
G0 X109.903 Y111.046 F7200
G1 X107.796 Y113.153 E41.93707 F4500
G0 X105.400 Y111.023 F7200
G1 X107.507 Y108.917 E42.11542 F4500
G0 X105.503 Y106.395 F7200
G1 X98.712 Y113.186 E42.69041 F4500
G0 X100.183 Y116.241 F7200
G1 X102.791 Y113.632 E42.91124 F4500
G0 X104.467 Y116.482 F7200
G1 X101.839 Y119.110 E43.13372 F4500
G0 X103.839 Y121.635 F7200
G1 X106.387 Y119.087 E43.34944 F4500
G0 X108.513 Y121.487 F7200
G1 X105.982 Y124.018 E43.56373 F4500
G0 X108.330 Y126.196 F7200
G1 X110.865 Y123.660 E43.77842 F4500
G0 X113.530 Y125.521 F7200
G1 X110.955 Y128.096 E43.99645 F4500
G0 X113.736 Y129.841 F7200
G1 X116.416 Y127.161 E44.22338 F4500
G0 X119.724 Y128.378 F7200
G1 X116.790 Y131.312 E44.47181 F4500
G0 X120.146 Y132.481 F7200
G1 X124.056 Y128.571 E44.80287 F4500
G0 X129.538 Y127.615 F7200
G1 X123.766 Y133.386 E45.29151 F4500
G0 X127.736 Y133.943 F7200
G1 X146.393 Y115.286 E46.87112 F4500
G0 X144.995 Y112.158 F7200
G1 X147.719 Y109.434 E47.10174 F4500
G0 X145.698 Y106.929 F7200
G1 X147.747 Y104.881 E47.27519 F4500
G0 X145.824 Y97.752 F7200
G1 X125.298 Y118.279 E49.01310 F4500
G0 X119.117 Y115.408 F7200
G1 X116.755 Y117.771 E49.21313 F4500
G0 X120.639 Y118.412 F7200
G1 X123.253 Y115.798 E49.43442 F4500
G0 X124.241 Y114.810 F7200
G1 X130.632 Y108.419 E49.97552 F4500
G0 X126.826 Y107.700 F7200
G1 X122.607 Y111.918 E50.33270 F4500
G0 X119.811 Y110.189 F7200
G1 X124.128 Y105.872 E50.69826 F4500
G0 X122.402 Y103.073 F7200
G1 X117.371 Y108.103 E51.12418 F4500
G0 X115.284 Y105.665 F7200
G1 X121.900 Y99.049 E51.68432 F4500
G0 X129.185 Y91.764 F7200
G1 X139.688 Y81.261 E52.57352 F4500
G0 X143.513 Y81.961 F7200
G1 X140.472 Y85.003 E52.83105 F4500
G0 X143.837 Y86.163 F7200
G1 X146.857 Y83.143 E53.08668 F4500
G0 X146.835 Y87.690 F7200
G1 X149.785 Y84.740 E53.33645 F4500
G0 X149.505 Y89.546 F7200
G1 X152.344 Y86.707 E53.57684 F4500
G0 X155.232 Y83.819 F7200
G1 X158.161 Y80.890 E53.82477 F4500
G0 X156.161 Y78.365 F7200
G1 X153.367 Y81.158 E54.06129 F4500
G0 X146.228 Y74.721 F7200
G1 X149.045 Y71.904 E54.29982 F4500
G0 X151.670 Y73.804 F7200
G1 X148.840 Y76.635 E54.53948 F4500
G0 X151.231 Y78.769 F7200
G1 X154.018 Y75.982 E54.77540 F4500
G0 X159.817 Y83.760 F7200
G1 X151.812 Y91.764 E55.45313 F4500
G0 X153.833 Y94.269 F7200
G1 X161.288 Y86.814 E56.08436 F4500
G0 X162.551 Y90.077 F7200
G1 X155.550 Y97.077 E56.67703 F4500
G0 F3000 E55.67703
G0 X154.733 Y87.712 F7200
G0 F3000 E56.67703
;segType:HShell
G1 X156.181 Y86.264 E56.77919 F3600
G0 X156.207 Y85.672 F7200
G1 X154.137 Y87.742 E56.92526 F3600
G0 X153.677 Y87.636 F7200
G1 X156.102 Y85.212 E57.09630 F3600
G0 X155.916 Y84.832 F7200
G1 X153.299 Y87.449 E57.28094 F3600
G0 X152.976 Y87.207 F7200
G1 X155.688 Y84.494 E57.47230 F3600
G0 X155.460 Y84.157 F7200
G1 X152.660 Y86.957 E57.66988 F3600
G0 X152.344 Y86.707 F7200
G1 X155.232 Y83.819 E57.87366 F3600
G0 X155.004 Y83.481 F7200
G1 X152.028 Y86.457 E58.08364 F3600
G0 X151.712 Y86.207 F7200
G1 X154.777 Y83.143 E58.29983 F3600
G0 X154.549 Y82.805 F7200
G1 X151.397 Y85.957 E58.52222 F3600
G0 X151.081 Y85.707 F7200
G1 X154.321 Y82.467 E58.75082 F3600
G0 X154.093 Y82.130 F7200
G1 X150.765 Y85.458 E58.98563 F3600
G0 X150.449 Y85.208 F7200
G1 X153.865 Y81.792 E59.22664 F3600
G0 X153.634 Y81.457 F7200
G1 X150.133 Y84.958 E59.47362 F3600
G0 X149.785 Y84.740 F7200
G1 X153.367 Y81.158 E59.72633 F3600
G0 X153.100 Y80.860 F7200
G1 X149.419 Y84.541 E59.98603 F3600
G0 X149.053 Y84.341 F7200
G1 X152.833 Y80.561 E60.25273 F3600
G0 X152.566 Y80.262 F7200
G1 X148.687 Y84.141 E60.52643 F3600
G0 X148.321 Y83.942 F7200
G1 X152.299 Y79.964 E60.80712 F3600
G0 X152.032 Y79.665 F7200
G1 X147.955 Y83.742 E61.09481 F3600
G0 X147.589 Y83.543 F7200
G1 X151.765 Y79.366 E61.38949 F3600
G0 X151.498 Y79.067 F7200
G1 X147.223 Y83.343 E61.69117 F3600
G0 X146.857 Y83.143 F7200
G1 X151.231 Y78.769 E61.99984 F3600
G0 X150.964 Y78.470 F7200
G1 X146.466 Y82.969 E62.31725 F3600
G0 X146.044 Y82.825 F7200
G1 X150.673 Y78.196 E62.64385 F3600
G0 X150.368 Y77.935 F7200
G1 X145.622 Y82.681 E62.97866 F3600
G0 X145.200 Y82.537 F7200
G1 X150.062 Y77.675 E63.32167 F3600
G0 X149.756 Y77.415 F7200
G1 X144.779 Y82.393 E63.67288 F3600
G0 X144.357 Y82.249 F7200
G1 X149.451 Y77.155 E64.03230 F3600
G0 X149.145 Y76.895 F7200
G1 X143.935 Y82.105 E64.39992 F3600
G0 X143.513 Y81.961 F7200
G1 X148.840 Y76.635 E64.77574 F3600
G0 X148.534 Y76.375 F7200
G1 X143.091 Y81.817 E65.15977 F3600
G0 X142.614 Y81.729 F7200
G1 X148.229 Y76.114 E65.55590 F3600
G0 X147.923 Y75.854 F7200
G1 X142.127 Y81.651 E65.96488 F3600
G0 X141.639 Y81.573 F7200
G1 X147.607 Y75.604 E66.38600 F3600
G0 X147.263 Y75.384 F7200
G1 X141.151 Y81.495 E66.81720 F3600
G0 X140.663 Y81.417 F7200
G1 X146.918 Y75.163 E67.25849 F3600
G0 X146.573 Y74.942 F7200
G1 X140.175 Y81.339 E67.70986 F3600
G0 X139.688 Y81.261 F7200
G1 X146.228 Y74.721 E68.17131 F3600
G0 X145.883 Y74.500 F7200
G1 X139.194 Y81.190 E68.64330 F3600
G0 X138.621 Y81.196 F7200
G1 X145.538 Y74.279 E69.13134 F3600
G0 X145.194 Y74.058 F7200
G1 X138.049 Y81.203 E69.63545 F3600
G0 X137.476 Y81.210 F7200
G1 X144.849 Y73.838 E70.15561 F3600
G0 X144.504 Y73.617 F7200
G1 X136.904 Y81.217 E70.69184 F3600
G0 X136.331 Y81.224 F7200
G1 X144.155 Y73.400 E71.24385 F3600
G0 X143.769 Y73.220 F7200
G1 X135.759 Y81.230 E71.80902 F3600
G0 X135.141 Y81.282 F7200
G1 X143.383 Y73.041 E72.39054 F3600
G0 X142.997 Y72.861 F7200
G1 X134.448 Y81.410 E72.99375 F3600
G0 X133.754 Y81.538 F7200
G1 X142.611 Y72.681 E73.61865 F3600
G0 X142.225 Y72.501 F7200
G1 X133.061 Y81.666 E74.26525 F3600
G0 X132.367 Y81.794 F7200
G1 X141.839 Y72.322 E74.93354 F3600
G0 X141.453 Y72.142 F7200
G1 X131.674 Y81.921 E75.62351 F3600
G0 X130.792 Y82.238 F7200
G1 X141.067 Y71.962 E76.34849 F3600
G0 X140.681 Y71.783 F7200
G1 X129.897 Y82.567 E77.10937 F3600
G0 X129.002 Y82.896 F7200
G1 X140.250 Y71.648 E77.90299 F3600
G0 X139.717 Y71.616 F7200
G1 X128.107 Y83.225 E78.72212 F3600
G0 X126.810 Y83.957 F7200
G1 X139.183 Y71.584 E79.59513 F3600
G0 X138.650 Y71.551 F7200
G1 X125.474 Y84.727 E80.52473 F3600
G0 X123.285 Y86.350 F7200
G1 X138.116 Y71.519 E81.57112 F3600
G0 X137.582 Y71.487 F7200
G1 X114.511 Y94.558 E83.19893 F3600
G0 X114.212 Y94.292 F7200
G1 X137.049 Y71.455 E84.81020 F3600
G0 X136.515 Y71.423 F7200
G1 X113.971 Y93.967 E86.40082 F3600
G0 X113.796 Y93.577 F7200
G1 X135.940 Y71.432 E87.96323 F3600
G0 X135.296 Y71.510 F7200
G1 X113.708 Y93.098 E89.48637 F3600
G0 X113.764 Y92.477 F7200
G1 X134.653 Y71.588 E90.96015 F3600
G0 X134.009 Y71.667 F7200
G1 X113.879 Y91.796 E92.38042 F3600
G0 X113.994 Y91.116 F7200
G1 X133.365 Y71.745 E93.74716 F3600
G0 X132.722 Y71.823 F7200
G1 X114.109 Y90.435 E95.06039 F3600
G0 X114.224 Y89.755 F7200
G1 X132.078 Y71.901 E96.32009 F3600
G0 X131.285 Y72.128 F7200
G1 X114.339 Y89.074 E97.51577 F3600
G0 X114.542 Y88.305 F7200
G1 X130.461 Y72.386 E98.63892 F3600
G0 X129.637 Y72.644 F7200
G1 X114.868 Y87.413 E99.68095 F3600
G0 X115.194 Y86.522 F7200
G1 X128.813 Y72.903 E100.64185 F3600
G0 X127.989 Y73.161 F7200
G1 X115.520 Y85.630 E101.52162 F3600
G0 X115.846 Y84.739 F7200
