; #disp params :
; Printmode:0
; Layer:20
; Xmin:95.582 mm
; Xmax:155.646 mm
; XDimension:60.064 mm
; Ymin:63.22 mm
; Ymax:123.338 mm
; YDimension:60.118 mm
; Zmax:7 mm
; E0diam:0.4 mm
; E0len:3.50428 m
; E0temp:215 C
; Bedtemp:215 C
; Time:27.3342 min
; #params end
; GCode generated by CraftWare

G28 X Y ; home horizontally
G28 Z ; home vertically


M104 S215 ;set head temp (no wait)
M190 S60 ;set bed temp (wait)
M109 S215 ;set head temp (wait)

; ------------------------------------
; Raft Layer #0
; ------------------------------------
M106 S0 ;turn off fan
G21 ; mm
G90 ; abs
G92 E0 ;reset extr
G0 F600 Z0.300
;segType:Raft
G0 F3000 E-1.00000
G0 F600 Z2.300
G0 X128.708 Y123.275 F5400
G0 F600 Z0.300
G0 F3000 E0.00000
G1 X122.832 Y123.275 E0.43966 F600
G1 X122.457 Y123.150 E0.46925
G1 X121.457 Y123.150 E0.54408
G1 X121.082 Y123.025 E0.57366
G1 X119.207 Y122.900 E0.71429
G1 X118.832 Y122.775 E0.74387
G1 X118.332 Y122.775 E0.78129
G1 X116.082 Y122.025 E0.95878
G1 X115.270 Y121.838 E1.02121
G1 X114.520 Y121.588 E1.08037
G1 X113.707 Y121.400 E1.14275
G1 X112.457 Y120.650 E1.25184
G1 X111.082 Y120.025 E1.36487
G1 X110.832 Y119.775 E1.39133
G1 X110.145 Y119.463 E1.44787
G1 X109.520 Y119.088 E1.50242
G1 X106.707 Y116.900 E1.76904
G1 X106.207 Y116.400 E1.82196
G1 X105.645 Y115.963 E1.87531
G1 X102.644 Y112.963 E2.19281
G1 X100.894 Y110.713 E2.40613
G1 X100.394 Y110.213 E2.45905
G1 X99.957 Y109.650 E2.51235
G1 X99.582 Y109.025 E2.56690
G1 X99.269 Y108.337 E2.62344
G1 X98.519 Y107.087 E2.73253
G1 X98.207 Y106.400 E2.78902
G1 X97.832 Y105.775 E2.84357
G1 X97.519 Y105.087 E2.90011
G1 X96.769 Y102.837 E3.07760
G1 X96.582 Y102.025 E3.13998
G1 X96.332 Y101.275 E3.19914
G1 X96.019 Y100.087 E3.29106
G1 X96.019 Y99.087 E3.36589
G1 X95.894 Y98.712 E3.39547
G1 X95.769 Y96.837 E3.53610
G1 X95.644 Y96.462 E3.56569
G1 X95.644 Y90.462 E4.01470
G1 X95.707 Y90.149 E4.03857
G0 X95.769 Y90.087 F5400
G1 X95.769 Y89.087 E4.11341 F600
G1 X95.894 Y88.712 E4.14299
G1 X95.894 Y87.712 E4.21783
G1 X96.019 Y87.337 E4.24741
G1 X96.019 Y86.337 E4.32225
G1 X96.519 Y84.837 E4.44057
G1 X96.707 Y84.024 E4.50300
G1 X96.957 Y83.274 E4.56216
G1 X97.144 Y82.462 E4.62454
G1 X97.394 Y81.712 E4.68370
G1 X98.019 Y80.337 E4.79674
G1 X98.769 Y79.087 E4.90583
G1 X99.082 Y78.399 E4.96237
G1 X99.457 Y77.774 E5.01691
G1 X99.769 Y77.087 E5.07341
G1 X100.207 Y76.524 E5.12676
G1 X100.707 Y76.024 E5.17968
G1 X102.894 Y73.212 E5.44630
G1 X105.394 Y70.712 E5.71088
G1 X107.082 Y69.399 E5.87090
G1 X107.582 Y68.899 E5.92381
G1 X109.270 Y67.587 E6.08378
G1 X110.520 Y66.837 E6.19287
G1 X111.520 Y66.337 E6.27654
G0 X111.582 Y66.274 F5400
G1 X112.207 Y66.024 E6.32691 F600
G1 X112.457 Y65.774 E6.35337
G1 X113.832 Y65.149 E6.46640
G1 X116.832 Y64.149 E6.70306
G1 X117.645 Y63.962 E6.76544
G1 X118.395 Y63.712 E6.82460
G1 X119.332 Y63.649 E6.89493
G1 X120.207 Y63.524 E6.96108
G1 X120.707 Y63.524 E6.99850
G1 X121.082 Y63.399 E7.02808
G1 X122.082 Y63.399 E7.10292
G1 X122.457 Y63.274 E7.13250
G1 X128.458 Y63.274 E7.58152
G1 X129.333 Y63.399 E7.64766
G1 X129.833 Y63.399 E7.68508
G1 X130.208 Y63.524 E7.71466
G1 X131.208 Y63.524 E7.78950
G1 X131.583 Y63.649 E7.81908
G1 X132.583 Y63.649 E7.89392
G1 X134.083 Y64.149 E8.01224
G1 X134.895 Y64.337 E8.07467
G1 X135.645 Y64.587 E8.13383
G1 X136.458 Y64.774 E8.19621
G1 X137.208 Y65.024 E8.25538
G1 X138.583 Y65.649 E8.36841
G1 X139.833 Y66.399 E8.47750
G1 X141.208 Y67.024 E8.59053
G1 X141.458 Y67.274 E8.61699
G1 X141.833 Y67.399 E8.64657
G1 X142.958 Y68.274 E8.75323
G1 X143.458 Y68.774 E8.80615
G1 X145.708 Y70.524 E9.01946
G1 X148.208 Y73.024 E9.28405
G1 X149.521 Y74.712 E9.44406
G1 X150.021 Y75.212 E9.49698
G1 X151.333 Y76.899 E9.65694
G1 X151.708 Y77.524 E9.71149
G1 X152.021 Y78.212 E9.76803
G1 X152.271 Y78.462 E9.79449
G1 X152.896 Y79.837 E9.90752
G1 X153.146 Y80.087 E9.93398
G1 X153.771 Y81.462 E10.04701
G1 X154.771 Y84.462 E10.28366
G1 X155.146 Y86.087 E10.40847
G1 X155.271 Y86.462 E10.43805
G1 X155.271 Y87.462 E10.51288
G1 X155.396 Y87.837 E10.54247
G1 X155.521 Y89.962 E10.70177
G0 X155.583 Y90.024 F5400
G1 X155.646 Y90.837 E10.76277 F600
G1 X155.646 Y96.337 E11.17437
G1 X155.521 Y96.712 E11.20395
G1 X155.396 Y98.587 E11.34458
G1 X155.271 Y98.962 E11.37416
G1 X155.271 Y99.962 E11.44900
G1 X154.896 Y101.587 E11.57381
G1 X153.646 Y105.337 E11.86962
G1 X153.333 Y106.025 E11.92616
G1 X152.958 Y106.650 E11.98071
G1 X152.646 Y107.337 E12.03720
G1 X151.896 Y108.587 E12.14629
G1 X151.583 Y109.275 E12.20283
G1 X149.396 Y112.088 E12.46945
G1 X148.896 Y112.588 E12.52237
G1 X148.458 Y113.150 E12.57572
G1 X145.458 Y116.150 E12.89323
G1 X144.333 Y117.025 E12.99988
G1 X143.833 Y117.525 E13.05280
G1 X141.583 Y119.275 E13.26612
G1 X140.208 Y119.900 E13.37915
G1 X138.958 Y120.650 E13.48824
G1 X138.270 Y120.963 E13.54473
G1 X137.645 Y121.338 E13.59928
G1 X136.833 Y121.525 E13.66170
G1 X133.083 Y122.775 E13.95752
G1 X132.583 Y122.775 E13.99494
G1 X132.208 Y122.900 E14.02452
G1 X130.333 Y123.025 E14.16515
G1 X129.958 Y123.150 E14.19473
G1 X128.958 Y123.150 E14.26957
G1 X128.770 Y123.213 E14.28433
G0 X128.187 Y122.963 F5400
G1 X128.187 Y63.712 E18.71839 F600
G0 X125.520 Y63.712 F5400
G1 X125.520 Y122.963 E23.15244 F600
G0 X122.853 Y122.838 F5400
G1 X122.853 Y63.712 E27.57714 F600
G0 X120.187 Y63.962 F5400
G1 X120.187 Y122.588 E31.96442 F600
G0 X117.520 Y122.213 F5400
G1 X117.520 Y64.462 E36.28621 F600
G0 X114.853 Y65.337 F5400
G1 X114.853 Y121.338 E40.47705 F600
G0 X112.187 Y120.088 F5400
G1 X112.187 Y66.587 E44.48079 F600
G0 X109.520 Y67.962 F5400
G1 X109.520 Y118.713 E48.27873 F600
G0 X106.853 Y116.463 F5400
G1 X106.853 Y70.212 E51.73992 F600
G0 X104.187 Y72.587 F5400
G1 X104.187 Y113.963 E54.83627 F600
G0 X101.520 Y110.963 F5400
G1 X101.520 Y75.712 E57.47425 F600
G0 X98.853 Y79.962 F5400
G1 X98.853 Y106.712 E59.47613 F600
G0 X96.187 Y97.587 F5400
G1 X96.187 Y89.212 E60.10288 F600
G0 X130.853 Y63.962 F5400
G1 X130.853 Y122.713 E64.49951 F600
G0 X133.520 Y122.213 F5400
G1 X133.520 Y64.462 E68.82131 F600
G0 X136.187 Y65.212 F5400
G1 X136.187 Y121.338 E73.02150 F600
G0 X138.853 Y120.213 F5400
G1 X138.853 Y66.337 E77.05331 F600
G0 X141.520 Y67.837 F5400
G1 X141.520 Y118.838 E80.86996 F600
G0 X144.187 Y116.713 F5400
G1 X144.187 Y69.962 E84.36855 F600
G0 X146.853 Y72.337 F5400
G1 X146.853 Y114.213 E87.50233 F600
G0 X149.520 Y111.338 F5400
G1 X149.520 Y75.337 E90.19643 F600
G0 X152.187 Y79.462 F5400
G1 X152.187 Y107.212 E92.27314 F600
G0 X154.853 Y100.087 F5400
G1 X154.853 Y86.587 E93.28343 F600



; ------------------------------------
; Raft Layer #1
; ------------------------------------
G92 E0 ;reset extr
G0 F600 Z0.600
;segType:Raft
G0 X155.210 Y86.275 F7200
G1 X118.835 Y122.650 E3.84970 F1800
G0 X117.199 Y122.400 F7200
G1 X154.824 Y84.775 E7.83170 F1800
G0 X154.314 Y83.400 F7200
G1 X115.813 Y121.900 E11.90630 F1800
G0 X114.428 Y121.400 F7200
G1 X153.928 Y81.900 E16.08673 F1800
G0 X153.293 Y80.650 F7200
G1 X113.042 Y120.900 E20.34654 F1800
G0 X111.781 Y120.275 F7200
G1 X152.657 Y79.400 E24.67249 F1800
G0 X152.021 Y78.150 F7200
G1 X110.521 Y119.650 E29.06460 F1800
G0 X109.385 Y118.900 F7200
G1 X151.386 Y76.900 E33.50961 F1800
G0 X150.500 Y75.900 F7200
G1 X108.375 Y118.025 E37.96786 F1800
G0 X107.239 Y117.275 F7200
G1 X149.740 Y74.775 E42.46580 F1800
G0 X148.854 Y73.775 F7200
G1 X106.228 Y116.400 E46.97696 F1800
G0 X105.218 Y115.525 F7200
G1 X147.968 Y72.775 E51.50135 F1800
G0 X147.083 Y71.775 F7200
G1 X104.332 Y114.525 E56.02575 F1800
G0 X103.332 Y113.640 F7200
G1 X146.083 Y70.890 E60.55014 F1800
G0 X145.083 Y70.004 F7200
G1 X102.457 Y112.629 E65.06130 F1800
G0 X101.582 Y111.618 F7200
G1 X143.958 Y69.244 E69.54601 F1800
G0 X142.958 Y68.358 F7200
G1 X100.707 Y110.608 E74.01748 F1800
G0 X99.832 Y109.597 F7200
G1 X141.958 Y67.472 E78.47573 F1800
G0 X140.708 Y66.837 F7200
G1 X99.207 Y108.337 E82.86782 F1800
G0 X98.582 Y107.076 F7200
G1 X139.458 Y66.201 E87.19377 F1800
G0 X138.333 Y65.440 F7200
G1 X97.832 Y105.940 E91.48004 F1800
G0 X97.332 Y104.555 F7200
G1 X136.958 Y64.930 E95.67371 F1800
G0 X135.583 Y64.419 F7200
G1 X96.832 Y103.169 E99.77477 F1800
G0 X96.457 Y101.659 F7200
G1 X134.083 Y64.034 E103.75676 F1800
G0 X132.583 Y63.648 F7200
G1 X95.957 Y100.273 E107.63292 F1800
G0 X95.832 Y98.512 F7200
G1 X130.833 Y63.512 E111.33710 F1800
G0 X129.083 Y63.377 F7200
G1 X95.707 Y96.752 E114.86931 F1800
G0 X95.582 Y94.991 F7200
G1 X127.333 Y63.241 E118.22953 F1800
G0 X125.458 Y63.230 F7200
G1 X95.582 Y93.105 E121.39131 F1800
G0 X95.582 Y91.220 F7200
G1 X123.582 Y63.220 E124.35466 F1800
G0 X121.582 Y63.334 F7200
G1 X95.707 Y89.209 E127.09311 F1800
G0 X95.957 Y87.074 F7200
G1 X119.457 Y63.574 E129.58020 F1800
G0 X117.207 Y63.938 F7200
G1 X96.457 Y84.688 E131.77625 F1800
G0 X97.207 Y82.052 F7200
G1 X114.457 Y64.802 E133.60188 F1800
G0 X110.832 Y66.542 F7200
G1 X98.957 Y78.417 E134.85866 F1800
G0 X120.470 Y122.900 F7200
G1 X155.346 Y88.025 E138.54961 F1800
G0 X155.481 Y89.775 F7200
G1 X122.231 Y123.025 E142.06857 F1800
G0 X123.991 Y123.150 F7200
G1 X155.617 Y91.525 E145.41556 F1800
G0 X155.627 Y93.400 F7200
G1 X125.877 Y123.150 E148.56412 F1800
G0 X127.763 Y123.150 F7200
G1 X155.638 Y95.275 E151.51424 F1800
G0 X155.399 Y97.400 F7200
G1 X129.773 Y123.025 E154.22623 F1800
G0 X131.909 Y122.775 F7200
G1 X155.159 Y99.525 E156.68686 F1800
G0 X154.545 Y102.025 F7200
G1 X134.420 Y122.150 E158.81676 F1800
G0 X137.055 Y121.400 F7200
G1 X153.805 Y104.650 E160.58948 F1800
G0 X151.816 Y108.525 F7200
G1 X140.941 Y119.400 E161.74042 F1800



; ------------------------------------
; Raft Layer #2
; ------------------------------------
G92 E0 ;reset extr
G0 F600 Z0.800
;segType:Raft
G0 X141.333 Y119.400 F7200
G1 X109.832 Y119.400 E1.57156 F2400
G1 X109.207 Y119.000 E1.60858
G1 X141.958 Y119.000 E3.24251
G1 X142.333 Y118.600 E3.26987
G1 X108.707 Y118.600 E4.94745
G1 X108.332 Y118.200 E4.97480
G1 X142.833 Y118.200 E6.69604
G1 X143.333 Y117.800 E6.72798
G1 X107.832 Y117.800 E8.49911
G1 X107.207 Y117.400 E8.53613
G1 X143.958 Y117.400 E10.36962
G1 X144.458 Y117.000 E10.40157
G1 X106.707 Y117.000 E12.28495
G1 X106.332 Y116.600 E12.31230
G1 X144.833 Y116.600 E14.23310
G1 X145.333 Y116.200 E14.26505
G1 X105.832 Y116.200 E16.23574
G1 X105.457 Y115.800 E16.26309
G1 X145.708 Y115.800 E18.27120
G1 X146.208 Y115.400 E18.30315
G1 X104.957 Y115.400 E20.36115
G1 X104.582 Y115.000 E20.38850
G1 X146.583 Y115.000 E22.48392
G1 X146.958 Y114.600 E22.51128
G1 X104.207 Y114.600 E24.64411
G1 X103.832 Y114.200 E24.67147
G1 X147.333 Y114.200 E26.84172
G1 X147.708 Y113.800 E26.86908
G1 X103.457 Y113.800 E29.07675
G1 X102.957 Y113.400 E29.10869
G1 X148.208 Y113.400 E31.36626
G1 X148.583 Y113.000 E31.39361
G1 X102.582 Y113.000 E33.68859
G1 X102.332 Y112.600 E33.71213
G1 X148.833 Y112.600 E36.03205
G1 X149.208 Y112.200 E36.05941
G1 X101.957 Y112.200 E38.41675
G1 X101.707 Y111.800 E38.44029
G1 X149.458 Y111.800 E40.82258
G1 X149.833 Y111.400 E40.84993
G1 X101.332 Y111.400 E43.26964
G1 X100.957 Y111.000 E43.29700
G1 X150.208 Y111.000 E45.75412
G1 X150.458 Y110.600 E45.77766
G1 X100.707 Y110.600 E48.25973
G1 X100.332 Y110.200 E48.28708
G1 X150.833 Y110.200 E50.80657
G1 X151.083 Y109.800 E50.83010
G1 X100.082 Y109.800 E53.37454
G1 X99.707 Y109.400 E53.40189
G1 X151.458 Y109.400 E55.98375
G1 X151.708 Y109.000 E56.00728
G1 X99.457 Y109.000 E58.61408
G1 X99.332 Y108.600 E58.63499
G1 X151.833 Y108.600 E61.25426
G1 X152.083 Y108.200 E61.27779
G1 X99.082 Y108.200 E63.92201
G1 X98.957 Y107.800 E63.94292
G1 X152.333 Y107.800 E66.60585
G1 X152.583 Y107.400 E66.62938
G1 X98.582 Y107.400 E69.32349
G1 X98.457 Y107.000 E69.34439
G1 X152.708 Y107.000 E72.05097
G1 X152.958 Y106.600 E72.07451
G1 X98.207 Y106.600 E74.80604
G1 X98.082 Y106.200 E74.82694
G1 X153.083 Y106.200 E77.57094
G1 X153.333 Y105.800 E77.59448
G1 X97.832 Y105.800 E80.36342
G1 X97.582 Y105.400 E80.38696
G1 X153.583 Y105.400 E83.18085
G1 X153.708 Y105.000 E83.20175
G1 X97.457 Y105.000 E86.00812
G1 X97.332 Y104.600 E86.02902
G1 X153.833 Y104.600 E88.84785
G1 X153.958 Y104.200 E88.86876
G1 X97.207 Y104.200 E91.70007
G1 X97.082 Y103.800 E91.72097
G1 X154.083 Y103.800 E94.56475
G1 X154.208 Y103.400 E94.58566
G1 X96.957 Y103.400 E97.44191
G1 X96.832 Y103.000 E97.46281
G1 X154.333 Y103.000 E100.33154
G1 X154.458 Y102.600 E100.35245
G1 X96.707 Y102.600 E103.23364
G1 X96.582 Y102.200 E103.25455
G1 X154.583 Y102.200 E106.14822
G1 X154.708 Y101.800 E106.16912
G1 X96.457 Y101.800 E109.07526
G1 X96.332 Y101.400 E109.09617
G1 X154.833 Y101.400 E112.01479
G1 X154.958 Y101.000 E112.03569
G1 X96.207 Y101.000 E114.96678
G1 X96.082 Y100.600 E114.98769
G1 X155.083 Y100.600 E117.93125
G1 X155.208 Y100.200 E117.95216
G1 X95.957 Y100.200 E120.90819
G1 X95.957 Y99.800 E120.92815
G1 X155.208 Y99.800 E123.88419
G1 X155.208 Y99.400 E123.90414
G1 X95.957 Y99.400 E126.86018
G1 X95.832 Y99.000 E126.88109
G1 X155.208 Y99.000 E129.84335
G1 X155.333 Y98.600 E129.86426
G1 X95.832 Y98.600 E132.83276
G1 X95.832 Y98.200 E132.85272
G1 X155.333 Y98.200 E135.82123
G1 X155.333 Y97.800 E135.84119
G1 X95.832 Y97.800 E138.80969
G1 X95.707 Y97.400 E138.83060
G1 X155.458 Y97.400 E141.81158
G1 X155.458 Y97.000 E141.83154
G1 X95.707 Y97.000 E144.81253
G1 X95.707 Y96.600 E144.83249
G1 X155.458 Y96.600 E147.81348
G1 X155.583 Y96.200 E147.83438
G1 X95.582 Y96.200 E150.82784
G1 X95.582 Y95.800 E150.84779
G1 X155.583 Y95.800 E153.84125
G1 X155.583 Y95.400 E153.86121
G1 X95.582 Y95.400 E156.85466
G1 X95.582 Y95.000 E156.87462
G1 X155.583 Y95.000 E159.86807
G1 X155.583 Y94.600 E159.88803
G1 X95.582 Y94.600 E162.88148
G1 X95.582 Y94.200 E162.90144
G1 X155.583 Y94.200 E165.89490
G1 X155.583 Y93.800 E165.91486
G1 X95.582 Y93.800 E168.90830
G1 X95.582 Y93.400 E168.92826
G1 X155.583 Y93.400 E171.92172
G1 X155.583 Y93.000 E171.94168
G1 X95.582 Y93.000 E174.93514
G1 X95.582 Y92.600 E174.95510
G1 X155.583 Y92.600 E177.94854
G1 X155.583 Y92.200 E177.96850
G1 X95.582 Y92.200 E180.96196
G1 X95.582 Y91.800 E180.98192
G1 X155.583 Y91.800 E183.97538
G1 X155.583 Y91.400 E183.99534
G1 X95.582 Y91.400 E186.98878
G1 X95.582 Y91.000 E187.00874
G1 X155.583 Y91.000 E190.00220
G1 X155.583 Y90.600 E190.02216
G1 X95.582 Y90.600 E193.01560
G1 X95.582 Y90.200 E193.03556
G1 X155.583 Y90.200 E196.02902
G1 X155.458 Y89.800 E196.04992
G1 X95.707 Y89.800 E199.03092
G1 X95.707 Y89.400 E199.05088
G1 X155.458 Y89.400 E202.03186
G1 X155.458 Y89.000 E202.05182
G1 X95.707 Y89.000 E205.03280
G1 X95.832 Y88.600 E205.05372
G1 X155.333 Y88.600 E208.02222
G1 X155.333 Y88.200 E208.04218
G1 X95.832 Y88.200 E211.01068
G1 X95.832 Y87.800 E211.03064
G1 X155.333 Y87.800 E213.99914
G1 X155.208 Y87.400 E214.02006
G1 X95.957 Y87.400 E216.97608
G1 X95.957 Y87.000 E216.99604
G1 X155.208 Y87.000 E219.95208
G1 X155.208 Y86.600 E219.97204
G1 X95.957 Y86.600 E222.92808
G1 X96.082 Y86.200 E222.94898
G1 X155.083 Y86.200 E225.89254
G1 X155.083 Y85.800 E225.91250
G1 X96.082 Y85.800 E228.85606
G1 X96.207 Y85.400 E228.87696
G1 X154.958 Y85.400 E231.80806
G1 X154.833 Y85.000 E231.82896
G1 X96.332 Y85.000 E234.74758
G1 X96.457 Y84.600 E234.76848
G1 X154.708 Y84.600 E237.67462
G1 X154.583 Y84.200 E237.69552
G1 X96.582 Y84.200 E240.58920
G1 X96.707 Y83.800 E240.61010
G1 X154.458 Y83.800 E243.49130
G1 X154.333 Y83.400 E243.51220
G1 X96.832 Y83.400 E246.38094
G1 X96.957 Y83.000 E246.40184
G1 X154.208 Y83.000 E249.25808
G1 X154.083 Y82.600 E249.27900
G1 X97.082 Y82.600 E252.12278
G1 X97.207 Y82.200 E252.14368
G1 X153.958 Y82.200 E254.97500
G1 X153.833 Y81.800 E254.99590
G1 X97.332 Y81.800 E257.81472
G1 X97.457 Y81.400 E257.83564
G1 X153.708 Y81.400 E260.64200
G1 X153.458 Y81.000 E260.66552
G1 X97.707 Y81.000 E263.44692
G1 X97.832 Y80.600 E263.46784
G1 X153.333 Y80.600 E266.23678
G1 X153.083 Y80.200 E266.26032
G1 X98.082 Y80.200 E269.00430
G1 X98.332 Y79.800 E269.02784
G1 X152.833 Y79.800 E271.74688
G1 X152.708 Y79.400 E271.76780
G1 X98.457 Y79.400 E274.47436
G1 X98.707 Y79.000 E274.49790
G1 X152.458 Y79.000 E277.17954
G1 X152.208 Y78.600 E277.20306
G1 X98.957 Y78.600 E279.85974
G1 X99.082 Y78.200 E279.88064
G1 X151.958 Y78.200 E282.51862
G1 X151.833 Y77.800 E282.53952
G1 X99.332 Y77.800 E285.15878
G1 X99.582 Y77.400 E285.18232
G1 X151.583 Y77.400 E287.77664
G1 X151.333 Y77.000 E287.80018
G1 X99.832 Y77.000 E290.36954
G1 X100.082 Y76.600 E290.39306
G1 X151.083 Y76.600 E292.93750
G1 X150.708 Y76.200 E292.96484
G1 X100.457 Y76.200 E295.47186
G1 X100.707 Y75.800 E295.49540
G1 X150.458 Y75.800 E297.97748
G1 X150.083 Y75.400 E298.00482
G1 X101.082 Y75.400 E300.44946
G1 X101.457 Y75.000 E300.47680
G1 X149.708 Y75.000 E302.88404
G1 X149.458 Y74.600 E302.90756
G1 X101.707 Y74.600 E305.28986
G1 X102.082 Y74.200 E305.31720
G1 X149.083 Y74.200 E307.66208
G1 X148.833 Y73.800 E307.68560
G1 X102.332 Y73.800 E310.00552
G1 X102.707 Y73.400 E310.03286
G1 X148.458 Y73.400 E312.31536
G1 X148.083 Y73.000 E312.34272
G1 X103.082 Y73.000 E314.58780
G1 X103.457 Y72.600 E314.61514
G1 X147.708 Y72.600 E316.82282
G1 X147.333 Y72.200 E316.85016
G1 X103.832 Y72.200 E319.02042
G1 X104.207 Y71.800 E319.04776
G1 X146.958 Y71.800 E321.18060
G1 X146.583 Y71.400 E321.20794
G1 X104.582 Y71.400 E323.30338
G1 X105.082 Y71.000 E323.33532
G1 X146.083 Y71.000 E325.38086
G1 X145.708 Y70.600 E325.40820
G1 X105.457 Y70.600 E327.41632
G1 X105.957 Y70.200 E327.44828
G1 X145.208 Y70.200 E329.40650
G1 X144.708 Y69.800 E329.43844
G1 X106.457 Y69.800 E331.34678
G1 X106.832 Y69.400 E331.37412
G1 X144.333 Y69.400 E333.24502
G1 X143.708 Y69.000 E333.28204
G1 X107.457 Y69.000 E335.09058
G1 X107.957 Y68.600 E335.12252
G1 X143.208 Y68.600 E336.88120
G1 X142.708 Y68.200 E336.91316
G1 X108.457 Y68.200 E338.62192
G1 X108.832 Y67.800 E338.64928
G1 X142.333 Y67.800 E340.32060
G1 X141.833 Y67.400 E340.35256
G1 X109.332 Y67.400 E341.97404
G0 X110.332 Y67.000 F7200
G1 X140.958 Y67.000 E343.50196 F2400
G1 X140.208 Y66.600 E343.54436
G1 X110.957 Y66.600 E345.00368
G1 X111.707 Y66.200 E345.04612
G1 X139.458 Y66.200 E346.43056
G1 X138.833 Y65.800 E346.46760
G1 X112.332 Y65.800 E347.78972
G1 X113.082 Y65.400 E347.83212
G1 X138.083 Y65.400 E349.07940
G0 X136.833 Y65.000 F7200
G1 X114.332 Y65.000 E350.20196 F2400
G0 X115.457 Y64.600 F7200
G1 X135.583 Y64.600 E351.20604 F2400
G0 X134.458 Y64.200 F7200
G1 X116.707 Y64.200 E352.09160 F2400
G0 X117.957 Y63.800 F7200
G1 X133.208 Y63.800 E352.85240 F2400
G0 X130.083 Y63.400 F7200
G1 X120.957 Y63.400 E353.30768 F2400
G0 X113.582 Y121.400 F7200
G1 X137.583 Y121.400 E354.50508 F2400
G1 X138.208 Y121.000 E354.54208
G1 X112.957 Y121.000 E355.80180
G1 X112.207 Y120.600 E355.84424
G1 X138.958 Y120.600 E357.17884
G1 X139.708 Y120.200 E357.22124
G1 X111.457 Y120.200 E358.63068
G1 X110.832 Y119.800 E358.66768
G1 X140.333 Y119.800 E360.13948
G0 X135.958 Y121.800 F7200
G1 X115.207 Y121.800 E361.17472 F2400
G0 X116.457 Y122.200 F7200
G1 X134.708 Y122.200 E362.08524 F2400
G0 X133.583 Y122.600 F7200
G1 X117.707 Y122.600 E362.87724 F2400
G0 X120.082 Y123.000 F7200
G1 X131.208 Y123.000 E363.43228 F2400



; ------------------------------------
; Raft Layer #3
; ------------------------------------
M106 S255 ;set fan speed
G92 E0 ;reset extr
G0 F600 Z1.000
;segType:Raft
G0 F3000 E-1.00000
G0 F600 Z3.000
G0 X151.520 Y109.587 F7200
G0 F600 Z1.000
G0 F3000 E0.00000
G1 X151.520 Y77.087 E1.62145 F2400
G1 X151.120 Y76.587 E1.65340
G1 X151.120 Y109.962 E3.31851
G1 X150.720 Y110.463 E3.35045
G1 X150.720 Y76.212 E5.05922
G1 X150.320 Y75.712 E5.09116
G1 X150.320 Y110.963 E6.84982
G1 X149.920 Y111.338 E6.87717
G1 X149.920 Y75.212 E8.67948
G1 X149.520 Y74.587 E8.71650
G1 X149.520 Y111.963 E10.58117
G1 X149.120 Y112.463 E10.61312
G1 X149.120 Y74.212 E12.52144
G1 X148.720 Y73.712 E12.55339
G1 X148.720 Y112.963 E14.51161
G1 X148.320 Y113.338 E14.53896
G1 X148.320 Y73.212 E16.54083
G1 X147.920 Y72.837 E16.56819
G1 X147.920 Y113.713 E18.60748
G1 X147.520 Y114.213 E18.63942
G1 X147.520 Y72.337 E20.72861
G1 X147.120 Y71.962 E20.75596
G1 X147.120 Y114.588 E22.88256
G1 X146.720 Y114.963 E22.90991
G1 X146.720 Y71.587 E25.07393
G1 X146.320 Y71.212 E25.10128
G1 X146.320 Y115.338 E27.30272
G1 X145.920 Y115.713 E27.33007
G1 X145.920 Y70.837 E29.56893
G1 X145.520 Y70.462 E29.59628
G1 X145.520 Y116.213 E31.87879
G1 X145.120 Y116.463 E31.90232
G1 X145.120 Y70.087 E34.21601
G1 X144.720 Y69.837 E34.23955
G1 X144.720 Y116.838 E36.58442
G1 X144.320 Y117.088 E36.60795
G1 X144.320 Y69.462 E38.98400
G1 X143.920 Y69.212 E39.00754
G1 X143.920 Y117.463 E41.41477
G1 X143.520 Y117.838 E41.44212
G1 X143.520 Y68.837 E43.88678
G1 X143.120 Y68.462 E43.91413
G1 X143.120 Y118.088 E46.38997
G1 X142.720 Y118.463 E46.41732
G1 X142.720 Y68.212 E48.92434
G1 X142.320 Y67.837 E48.95170
G1 X142.320 Y118.713 E51.48990
G1 X141.920 Y119.088 E51.51725
G1 X141.920 Y67.587 E54.08663
G1 X141.520 Y67.337 E54.11017
G1 X141.520 Y119.338 E56.70449
G1 X141.120 Y119.588 E56.72803
G1 X141.120 Y67.087 E59.34730
G1 X140.720 Y66.837 E59.37083
G1 X140.720 Y119.713 E62.00881
G1 X140.320 Y119.963 E62.03235
G1 X140.320 Y66.712 E64.68904
G1 X139.920 Y66.462 E64.71257
G1 X139.920 Y120.088 E67.38797
G1 X139.520 Y120.463 E67.41532
G1 X139.520 Y66.212 E70.12190
G1 X139.120 Y65.962 E70.14544
G1 X139.120 Y120.588 E72.87073
G1 X138.720 Y120.838 E72.89427
G1 X138.720 Y65.837 E75.63826
G1 X138.320 Y65.587 E75.66180
G1 X138.320 Y120.963 E78.42451
G1 X137.920 Y121.213 E78.44805
G1 X137.920 Y65.462 E81.22946
G1 X137.520 Y65.212 E81.25300
G1 X137.520 Y121.463 E84.05936
G1 X137.120 Y121.588 E84.08027
G1 X137.120 Y65.087 E86.89910
G1 X136.720 Y64.962 E86.92001
G1 X136.720 Y121.713 E89.75131
G1 X136.320 Y121.838 E89.77222
G1 X136.320 Y64.837 E92.61600
G1 X135.920 Y64.712 E92.63690
G1 X135.920 Y121.963 E95.49316
G1 X135.520 Y122.088 E95.51406
G1 X135.520 Y64.587 E98.38279
G1 X135.120 Y64.462 E98.40369
G1 X135.120 Y122.213 E101.28489
G1 X134.720 Y122.338 E101.30579
G1 X134.720 Y64.337 E104.19946
G1 X134.320 Y64.212 E104.22037
G1 X134.320 Y122.463 E107.12651
G1 X133.920 Y122.588 E107.14742
G1 X133.920 Y64.087 E110.06603
G1 X133.520 Y63.962 E110.08694
G1 X133.520 Y122.713 E113.01803
G1 X133.120 Y122.838 E113.03893
G1 X133.120 Y63.837 E115.98250
G1 X132.720 Y63.712 E116.00340
G1 X132.720 Y122.838 E118.95320
G1 X132.320 Y122.963 E118.97411
G1 X132.320 Y63.712 E121.93014
G1 X131.920 Y63.712 E121.95010
G1 X131.920 Y122.963 E124.90613
G1 X131.520 Y122.963 E124.92609
G1 X131.520 Y63.587 E127.88836
G1 X131.120 Y63.587 E127.90832
G1 X131.120 Y123.088 E130.87683
G1 X130.720 Y123.088 E130.89679
G1 X130.720 Y63.587 E133.86530
G1 X130.320 Y63.587 E133.88525
G1 X130.320 Y123.088 E136.85376
G1 X129.920 Y123.213 E136.87466
G1 X129.920 Y63.462 E139.85565
G1 X129.520 Y63.462 E139.87561
G1 X129.520 Y123.213 E142.85660
G1 X129.120 Y123.213 E142.87656
G1 X129.120 Y63.462 E145.85754
G1 X128.720 Y63.337 E145.87845
G1 X128.720 Y123.338 E148.87190
G1 X128.320 Y123.338 E148.89186
G1 X128.320 Y63.337 E151.88531
G1 X127.920 Y63.337 E151.90527
G1 X127.920 Y123.338 E154.89873
G1 X127.520 Y123.338 E154.91869
G1 X127.520 Y63.337 E157.91214
G1 X127.120 Y63.337 E157.93210
G1 X127.120 Y123.338 E160.92555
G1 X126.720 Y123.338 E160.94551
G1 X126.720 Y63.337 E163.93896
G1 X126.320 Y63.337 E163.95892
G1 X126.320 Y123.338 E166.95238
G1 X125.920 Y123.338 E166.97234
G1 X125.920 Y63.337 E169.96578
G1 X125.520 Y63.337 E169.98574
G1 X125.520 Y123.338 E172.97920
G1 X125.120 Y123.338 E172.99916
G1 X125.120 Y63.337 E175.99262
G1 X124.720 Y63.337 E176.01258
G1 X124.720 Y123.338 E179.00602
G1 X124.320 Y123.338 E179.02598
G1 X124.320 Y63.337 E182.01944
G1 X123.920 Y63.337 E182.03940
G1 X123.920 Y123.338 E185.03286
G1 X123.520 Y123.338 E185.05282
G1 X123.520 Y63.337 E188.04626
G1 X123.120 Y63.337 E188.06622
G1 X123.120 Y123.338 E191.05968
G1 X122.720 Y123.338 E191.07964
G1 X122.720 Y63.337 E194.07308
G1 X122.320 Y63.337 E194.09304
G1 X122.320 Y123.213 E197.08026
G1 X121.920 Y123.213 E197.10022
G1 X121.920 Y63.462 E200.08120
G1 X121.520 Y63.462 E200.10116
G1 X121.520 Y123.213 E203.08216
G1 X121.120 Y123.088 E203.10306
G1 X121.120 Y63.462 E206.07780
G1 X120.720 Y63.587 E206.09870
G1 X120.720 Y123.088 E209.06722
G1 X120.320 Y123.088 E209.08718
G1 X120.320 Y63.587 E212.05568
G1 X119.920 Y63.587 E212.07564
G1 X119.920 Y122.963 E215.03790
G1 X119.520 Y122.963 E215.05786
G1 X119.520 Y63.712 E218.01390
G1 X119.120 Y63.712 E218.03386
G1 X119.120 Y122.963 E220.98990
G1 X118.720 Y122.838 E221.01080
G1 X118.720 Y63.712 E223.96060
G1 X118.320 Y63.837 E223.98150
G1 X118.320 Y122.838 E226.92506
G1 X117.920 Y122.713 E226.94596
G1 X117.920 Y63.962 E229.87706
G1 X117.520 Y64.087 E229.89796
G1 X117.520 Y122.588 E232.81658
G1 X117.120 Y122.463 E232.83750
G1 X117.120 Y64.212 E235.74364
G1 X116.720 Y64.337 E235.76454
G1 X116.720 Y122.338 E238.65822
G1 X116.320 Y122.213 E238.67912
G1 X116.320 Y64.462 E241.56032
G1 X115.920 Y64.587 E241.58122
G1 X115.920 Y122.088 E244.44996
G1 X115.520 Y121.963 E244.47086
G1 X115.520 Y64.587 E247.33334
G1 X115.120 Y64.837 E247.35688
G1 X115.120 Y121.838 E250.20066
G1 X114.720 Y121.713 E250.22156
G1 X114.720 Y64.962 E253.05288
G1 X114.320 Y65.087 E253.07378
G1 X114.320 Y121.588 E255.89260
G1 X113.920 Y121.463 E255.91352
G1 X113.920 Y65.087 E258.72610
G1 X113.520 Y65.337 E258.74964
G1 X113.520 Y121.338 E261.54352
G1 X113.120 Y121.088 E261.56704
G1 X113.120 Y65.587 E264.33600
G1 X112.720 Y65.712 E264.35690
G1 X112.720 Y120.838 E267.10714
G1 X112.320 Y120.713 E267.12806
G1 X112.320 Y65.962 E269.85958
G1 X111.920 Y66.212 E269.88312
G1 X111.920 Y120.463 E272.58970
G1 X111.520 Y120.338 E272.61060
G1 X111.520 Y66.337 E275.30472
G1 X111.120 Y66.587 E275.32824
G1 X111.120 Y120.088 E277.99740
G1 X110.720 Y119.838 E278.02094
G1 X110.720 Y66.837 E280.66516
G1 X110.320 Y67.087 E280.68870
G1 X110.320 Y119.588 E283.30796
G1 X109.920 Y119.463 E283.32886
G1 X109.920 Y67.212 E285.93566
G1 X109.520 Y67.462 E285.95920
G1 X109.520 Y119.213 E288.54104
G1 X109.120 Y118.838 E288.56838
G1 X109.120 Y67.837 E291.11282
G1 X108.720 Y68.087 E291.13636
G1 X108.720 Y118.588 E293.65586
G1 X108.320 Y118.213 E293.68320
G1 X108.320 Y68.462 E296.16528
G1 X107.920 Y68.712 E296.18882
G1 X107.920 Y117.963 E298.64594
G1 X107.520 Y117.588 E298.67328
G1 X107.520 Y68.962 E301.09922
G1 X107.120 Y69.462 E301.13116
G1 X107.120 Y117.213 E303.51346
G1 X106.720 Y116.963 E303.53698
G1 X106.720 Y69.712 E305.89432
G1 X106.320 Y69.962 E305.91784
G1 X106.320 Y116.588 E308.24402
G1 X105.920 Y116.338 E308.26754
G1 X105.920 Y70.337 E310.56254
G1 X105.520 Y70.587 E310.58606
G1 X105.520 Y115.963 E312.84986
G1 X105.120 Y115.463 E312.88180
G1 X105.120 Y71.087 E315.09570
G1 X104.720 Y71.462 E315.12304
G1 X104.720 Y115.088 E317.29954
G1 X104.320 Y114.713 E317.32688
G1 X104.320 Y71.837 E319.46594
G1 X103.920 Y72.212 E319.49328
G1 X103.920 Y114.338 E321.59494
G1 X103.520 Y113.963 E321.62228
G1 X103.520 Y72.587 E323.68652
G1 X103.120 Y73.087 E323.71848
G1 X103.120 Y113.463 E325.73282
G1 X102.720 Y113.088 E325.76016
G1 X102.720 Y73.587 E327.73086
G1 X102.320 Y73.962 E327.75820
G1 X102.320 Y112.588 E329.68524
G1 X101.920 Y112.213 E329.71258
G1 X101.920 Y74.462 E331.59598
G1 X101.520 Y74.962 E331.62792
G1 X101.520 Y111.713 E333.46142
G1 X101.120 Y111.088 E333.49844
G1 X101.120 Y75.587 E335.26956
G1 X100.720 Y76.087 E335.30152
G1 X100.720 Y110.588 E337.02272
G1 X100.320 Y110.213 E337.05008
G1 X100.320 Y76.462 E338.73388
G1 X99.920 Y76.962 E338.76584
G1 X99.920 Y109.712 E340.39980
G1 X99.520 Y109.087 E340.43680
G1 X99.520 Y77.587 E342.00836
G1 X99.120 Y78.462 E342.05636
G1 X99.120 Y108.087 E343.53440
G1 X98.720 Y107.462 E343.57140
G1 X98.720 Y79.212 E344.98084
G1 X98.320 Y79.962 E345.02324
G1 X98.320 Y106.712 E346.35784
G1 X97.920 Y106.087 E346.39488
G1 X97.920 Y80.587 E347.66708
G1 X97.520 Y81.337 E347.70952
G1 X97.520 Y105.337 E348.90688
G0 X97.120 Y103.712 F7200
G1 X97.120 Y82.962 E349.94212 F2400
G0 X96.720 Y84.087 F7200
G1 X96.720 Y102.587 E350.86512 F2400
G0 X96.320 Y101.337 F7200
G1 X96.320 Y85.337 E351.66336 F2400
G0 X95.920 Y87.712 F7200
G1 X95.920 Y99.087 E352.23088 F2400
G0 X151.920 Y108.587 F7200
G1 X151.920 Y78.087 E353.75252 F2400
G1 X152.320 Y78.712 E353.78956
G1 X152.320 Y107.962 E355.24888
G1 X152.720 Y107.212 E355.29128
G1 X152.720 Y79.462 E356.67576
G1 X153.120 Y80.087 E356.71276
G1 X153.120 Y106.462 E358.02864
G1 X153.520 Y105.837 E358.06568
G1 X153.520 Y80.837 E359.31296
G0 X153.920 Y82.087 F7200
G1 X153.920 Y104.587 E360.43552 F2400
G0 X154.320 Y103.337 F7200
G1 X154.320 Y83.337 E361.43332 F2400
G0 X154.720 Y84.462 F7200
G1 X154.720 Y102.087 E362.31264 F2400
G0 X155.120 Y100.837 F7200
G1 X155.120 Y85.712 E363.06728 F2400
G0 X155.520 Y88.837 F7200
G1 X155.520 Y97.712 E363.51004 F2400


; ------------------------------------
; Layer #0
; ------------------------------------
G21 ; mm
G90 ; abs
G92 E0 ;reset extr
G0 F600 Z1.550
;segType:HShell
G0 F3000 E-1.00000
G0 X142.416 Y110.444 F5400
G0 F3000 E0.00000
G1 X108.476 Y76.504 E2.39461 F2400
G0 X107.971 Y76.185 F5400
;segType:Perimeter
G1 X108.218 Y75.639 E2.42454 F1440
G1 X111.930 Y72.593 E2.66409
G1 X116.217 Y70.301 E2.90662
G1 X120.870 Y68.890 E3.14918
G1 X125.708 Y68.413 E3.39172
G1 X130.545 Y68.890 E3.63425
G1 X135.198 Y70.301 E3.87679
G1 X139.485 Y72.592 E4.11931
G1 X143.243 Y75.677 E4.36186
G1 X146.327 Y79.435 E4.60442
G1 X148.619 Y83.722 E4.84695
G1 X150.030 Y88.374 E5.08949
G1 X150.506 Y93.212 E5.33202
G1 X150.030 Y98.050 E5.57456
G1 X148.619 Y102.702 E5.81710
G1 X146.327 Y106.990 E6.05962
G1 X143.243 Y110.748 E6.30218
G1 X139.485 Y113.832 E6.54473
G1 X135.198 Y116.123 E6.78725
G1 X130.546 Y117.535 E7.02979
G1 X125.708 Y118.011 E7.27233
G1 X120.870 Y117.535 E7.51487
G1 X116.217 Y116.123 E7.75742
G1 X111.930 Y113.832 E7.99994
G1 X108.172 Y110.748 E8.24248
G1 X105.088 Y106.990 E8.48501
G1 X102.796 Y102.702 E8.72756
G1 X101.385 Y98.050 E8.97010
G1 X100.909 Y93.212 E9.21264
G1 X101.385 Y88.374 E9.45517
G1 X102.796 Y83.722 E9.69772
G1 X105.088 Y79.435 E9.94024
G1 X108.134 Y75.723 E10.17979
G0 X108.218 Y75.639 F5400
G0 X109.455 Y74.624
G0 X109.276 Y75.288
;segType:Loop
G1 X112.153 Y72.927 E10.36549 F2400
G1 X116.371 Y70.672 E10.60409
G1 X120.948 Y69.284 E10.84269
G1 X125.708 Y68.815 E11.08133
G1 X130.467 Y69.284 E11.31991
G1 X135.044 Y70.673 E11.55855
G1 X139.261 Y72.927 E11.79711
G1 X142.959 Y75.961 E12.03574
G1 X145.993 Y79.658 E12.27436
G1 X148.247 Y83.876 E12.51296
G1 X149.636 Y88.453 E12.75158
G1 X150.105 Y93.212 E12.99016
G1 X149.636 Y97.972 E13.22880
G1 X148.247 Y102.549 E13.46740
G1 X145.993 Y106.766 E13.70597
G1 X142.959 Y110.464 E13.94461
G1 X139.261 Y113.498 E14.18324
G1 X135.044 Y115.752 E14.42182
G1 X130.467 Y117.140 E14.66043
G1 X125.708 Y117.609 E14.89904
G1 X120.948 Y117.140 E15.13764
G1 X116.371 Y115.752 E15.37626
G1 X112.153 Y113.498 E15.61485
G1 X108.456 Y110.464 E15.85347
G1 X105.422 Y106.767 E16.09206
G1 X103.168 Y102.549 E16.33068
G1 X101.779 Y97.972 E16.56929
G1 X101.310 Y93.212 E16.80789
G1 X101.779 Y88.453 E17.04650
G1 X103.168 Y83.876 E17.28511
G1 X105.422 Y79.658 E17.52370
G1 X108.456 Y75.961 E17.76233
G1 X109.121 Y75.415 E17.80525
G0 X108.735 Y76.198 F5400
;segType:HShell
G1 X142.722 Y110.185 E20.20321 F2400
G0 X142.977 Y109.874 F5400
G1 X109.046 Y75.943 E22.59723 F2400
G0 X109.357 Y75.688 F5400
G1 X143.232 Y109.563 E24.98732 F2400
G0 X143.487 Y109.252 F5400
G1 X109.667 Y75.433 E27.37347 F2400
G0 X109.978 Y75.178 F5400
G1 X143.742 Y108.942 E29.75569 F2400
G0 X143.997 Y108.631 F5400
G1 X110.289 Y74.923 E32.13398 F2400
G0 X110.600 Y74.668 F5400
G1 X144.252 Y108.320 E34.50834 F2400
G0 X144.507 Y108.010 F5400
G1 X110.910 Y74.413 E36.87877 F2400
G0 X111.221 Y74.158 F5400
G1 X144.762 Y107.699 E39.24526 F2400
G0 X145.017 Y107.388 F5400
G1 X111.532 Y73.903 E41.60782 F2400
G0 X111.842 Y73.648 F5400
G1 X145.272 Y107.077 E43.96646 F2400
G0 X145.527 Y106.767 F5400
G1 X112.153 Y73.393 E46.32115 F2400
G0 X112.484 Y73.158 F5400
G1 X145.761 Y106.436 E48.66904 F2400
G0 X145.959 Y106.067 F5400
G1 X112.853 Y72.961 E51.00482 F2400
G0 X113.222 Y72.764 F5400
G1 X146.156 Y105.698 E53.32850 F2400
G0 X146.353 Y105.330 F5400
G1 X113.590 Y72.567 E55.64007 F2400
G0 X113.959 Y72.370 F5400
G1 X146.550 Y104.961 E57.93953 F2400
G0 X146.747 Y104.592 F5400
G1 X114.327 Y72.173 E60.22688 F2400
G0 X114.696 Y71.976 F5400
G1 X146.944 Y104.224 E62.50213 F2400
G0 X147.141 Y103.855 F5400
G1 X115.065 Y71.779 E64.76527 F2400
G0 X115.433 Y71.582 F5400
G1 X147.338 Y103.486 E67.01630 F2400
G0 X147.535 Y103.118 F5400
G1 X115.802 Y71.385 E69.25522 F2400
G0 X116.171 Y71.188 F5400
G1 X147.732 Y102.749 E71.48204 F2400
G0 X147.924 Y102.375 F5400
G1 X116.544 Y70.996 E73.69601 F2400
G0 X116.979 Y70.864 F5400
G1 X148.055 Y101.941 E75.88864 F2400
G0 X148.187 Y101.507 F5400
G1 X117.413 Y70.733 E78.05995 F2400
G0 X117.847 Y70.601 F5400
G1 X148.319 Y101.073 E80.20992 F2400
G0 X148.450 Y100.639 F5400
G1 X118.281 Y70.469 E82.33855 F2400
G0 X118.715 Y70.338 F5400
G1 X148.582 Y100.205 E84.44585 F2400
G0 X148.714 Y99.771 F5400
G1 X119.149 Y70.206 E86.53181 F2400
G0 X119.583 Y70.075 F5400
G1 X148.845 Y99.337 E88.59645 F2400
G0 X148.977 Y98.903 F5400
G1 X120.017 Y69.943 E90.63976 F2400
G0 X120.451 Y69.811 F5400
G1 X149.109 Y98.469 E92.66172 F2400
G0 X149.240 Y98.035 F5400
G1 X120.885 Y69.680 E94.66235 F2400
G0 X121.375 Y69.604 F5400
G1 X149.316 Y97.545 E96.63374 F2400
G0 X149.367 Y97.030 F5400
G1 X121.890 Y69.553 E98.57238 F2400
G0 X122.405 Y69.502 F5400
G1 X149.417 Y96.515 E100.47826 F2400
G0 X149.468 Y96.000 F5400
G1 X122.920 Y69.452 E102.35139 F2400
G0 X123.435 Y69.401 F5400
G1 X149.519 Y95.485 E104.19176 F2400
G0 X149.569 Y94.970 F5400
G1 X123.950 Y69.350 E105.99938 F2400
G0 X124.465 Y69.300 F5400
G1 X149.620 Y94.455 E107.77425 F2400
G0 X149.671 Y93.940 F5400
G1 X124.980 Y69.249 E109.51636 F2400
G0 X125.495 Y69.198 F5400
G1 X149.722 Y93.425 E111.22572 F2400
G0 X149.706 Y92.844 F5400
G1 X126.075 Y69.213 E112.89301 F2400
G0 X126.703 Y69.275 F5400
G1 X149.645 Y92.217 E114.51168 F2400
G0 X149.583 Y91.589 F5400
G1 X127.330 Y69.337 E116.08171 F2400
G0 X127.958 Y69.399 F5400
G1 X149.521 Y90.962 E117.60310 F2400
G0 X149.459 Y90.334 F5400
G1 X128.585 Y69.461 E119.07587 F2400
G0 X129.213 Y69.522 F5400
G1 X149.397 Y89.707 E120.49999 F2400
G0 X149.336 Y89.079 F5400
G1 X129.840 Y69.584 E121.87549 F2400
G0 X130.489 Y69.667 F5400
G1 X149.253 Y88.431 E123.19938 F2400
G0 X149.006 Y87.619 F5400
G1 X131.301 Y69.913 E124.44859 F2400
G0 X132.113 Y70.160 F5400
G1 X148.760 Y86.807 E125.62314 F2400
G0 X148.514 Y85.995 F5400
G1 X132.925 Y70.406 E126.72301 F2400
G0 X133.737 Y70.652 F5400
G1 X148.267 Y85.183 E127.74822 F2400
G0 X148.021 Y84.371 F5400
G1 X134.549 Y70.899 E128.69876 F2400
G0 X135.587 Y71.371 F5400
G1 X147.549 Y83.333 E129.54272 F2400
G0 X146.899 Y82.118 F5400
G1 X136.802 Y72.020 E130.25513 F2400
G0 X138.017 Y72.670 F5400
G1 X146.250 Y80.902 E130.83597 F2400
G0 X142.737 Y76.259 F5400
G1 X142.661 Y76.182 E130.84135 F2400
G0 X139.507 Y73.594 F5400
G1 X145.326 Y79.413 E131.25192 F2400
G0 X142.105 Y110.699 F5400
G1 X108.221 Y76.815 E133.64261 F2400
G0 X107.966 Y77.126 F5400
G1 X141.794 Y110.954 E136.02936 F2400
G0 X141.483 Y111.209 F5400
G1 X107.711 Y77.436 E138.41217 F2400
G0 X107.456 Y77.747 F5400
G1 X141.173 Y111.464 E140.79106 F2400
G0 X140.862 Y111.719 F5400
G1 X107.201 Y78.058 E143.16602 F2400
G0 X106.946 Y78.368 F5400
G1 X140.551 Y111.974 E145.53703 F2400
G0 X140.241 Y112.229 F5400
G1 X106.691 Y78.679 E147.90413 F2400
G0 X106.436 Y78.990 F5400
G1 X139.930 Y112.484 E150.26729 F2400
G0 X139.619 Y112.738 F5400
G1 X106.181 Y79.301 E152.62651 F2400
G0 X105.926 Y79.611 F5400
G1 X139.309 Y112.993 E154.98181 F2400
G0 X138.986 Y113.237 F5400
G1 X105.683 Y79.934 E157.33153 F2400
G0 X105.486 Y80.302 F5400
G1 X138.618 Y113.434 E159.66914 F2400
G0 X138.249 Y113.631 F5400
G1 X105.289 Y80.671 E161.99464 F2400
G0 X105.092 Y81.040 F5400
G1 X137.880 Y113.828 E164.30803 F2400
G0 X137.512 Y114.025 F5400
G1 X104.895 Y81.408 E166.60931 F2400
G0 X104.698 Y81.777 F5400
G1 X137.143 Y114.222 E168.89848 F2400
G0 X136.774 Y114.419 F5400
G1 X104.501 Y82.146 E171.17556 F2400
G0 X104.304 Y82.514 F5400
G1 X136.406 Y114.616 E173.44050 F2400
G0 X136.037 Y114.813 F5400
G1 X104.107 Y82.883 E175.69336 F2400
G0 X103.910 Y83.251 F5400
G1 X135.668 Y115.010 E177.93410 F2400
G0 X135.300 Y115.207 F5400
G1 X103.713 Y83.620 E180.16274 F2400
G0 X103.516 Y83.989 F5400
G1 X134.931 Y115.404 E182.37926 F2400
G0 X134.501 Y115.540 F5400
G1 X103.379 Y84.418 E184.57508 F2400
G0 X103.248 Y84.852 F5400
G1 X134.067 Y115.672 E186.74958 F2400
G0 X133.633 Y115.804 F5400
G1 X103.116 Y85.286 E188.90274 F2400
G0 X102.984 Y85.720 F5400
G1 X133.199 Y115.935 E191.03456 F2400
G0 X132.765 Y116.067 F5400
G1 X102.853 Y86.154 E193.14506 F2400
G0 X102.721 Y86.588 F5400
G1 X132.331 Y116.199 E195.23420 F2400
G0 X131.897 Y116.330 F5400
G1 X102.590 Y87.022 E197.30204 F2400
G0 X102.458 Y87.457 F5400
G1 X131.463 Y116.462 E199.34852 F2400
G0 X131.029 Y116.594 F5400
G1 X102.326 Y87.891 E201.37368 F2400
G0 X102.195 Y88.325 F5400
G1 X130.595 Y116.725 E203.37748 F2400
G0 X130.117 Y116.813 F5400
G1 X102.107 Y88.802 E205.35378 F2400
G0 X102.056 Y89.317 F5400
G1 X129.602 Y116.864 E207.29732 F2400
G0 X129.087 Y116.914 F5400
G1 X102.005 Y89.832 E209.20810 F2400
G0 X101.955 Y90.347 F5400
G1 X128.572 Y116.965 E211.08614 F2400
G0 X128.057 Y117.016 F5400
G1 X101.904 Y90.862 E212.93142 F2400
G0 X101.853 Y91.377 F5400
G1 X127.543 Y117.067 E214.74394 F2400
G0 X127.028 Y117.117 F5400
G1 X101.802 Y91.892 E216.52372 F2400
G0 X101.752 Y92.407 F5400
G1 X126.513 Y117.168 E218.27074 F2400
G0 X125.998 Y117.219 F5400
G1 X101.701 Y92.922 E219.98500 F2400
G0 X101.699 Y93.486 F5400
G1 X125.434 Y117.220 E221.65958 F2400
G0 X124.806 Y117.159 F5400
G1 X101.761 Y94.114 E223.28552 F2400
G0 X101.823 Y94.741 F5400
G1 X124.179 Y117.097 E224.86282 F2400
G0 X123.551 Y117.035 F5400
G1 X101.885 Y95.369 E226.39150 F2400
G0 X101.947 Y95.996 F5400
G1 X122.924 Y116.973 E227.87154 F2400
G0 X122.296 Y116.911 F5400
G1 X102.008 Y96.624 E229.30294 F2400
G0 X102.070 Y97.251 F5400
G1 X121.669 Y116.850 E230.68570 F2400
G0 X121.041 Y116.788 F5400
G1 X102.132 Y97.879 E232.01984 F2400
G0 X102.372 Y98.684 F5400
G1 X120.236 Y116.548 E233.28022 F2400
G0 X119.424 Y116.302 F5400
G1 X102.618 Y99.496 E234.46596 F2400
G0 X102.864 Y100.308 F5400
G1 X118.612 Y116.055 E235.57702 F2400
G0 X117.800 Y115.809 F5400
G1 X103.111 Y101.120 E236.61342 F2400
G0 X103.357 Y101.932 F5400
G1 X116.988 Y115.563 E237.57514 F2400
G0 X116.010 Y115.151 F5400
G1 X103.769 Y102.910 E238.43882 F2400
G0 X104.419 Y104.125 F5400
G1 X114.795 Y114.501 E239.17092 F2400
G0 X109.226 Y110.630 F5400
G1 X108.290 Y109.694 E239.23696 F2400
G0 X105.718 Y106.556 F5400
G1 X112.364 Y113.202 E239.70592 F2400
G0 X113.580 Y113.852 F5400
G1 X105.068 Y105.340 E240.30644 F2400
; ------------------------------------
; Layer #1
; ------------------------------------
G92 E0 ;reset extr
G0 F3000 E-1.00000
G0 F600 Z1.600
G0 X108.990 Y75.989 F7200
G0 F3000 E0.00000
;segType:HShell
G1 X108.484 Y76.495 E0.03571 F3600
G0 X109.276 Y75.288 F7200
;segType:Loop
G1 X112.153 Y72.927 E0.22141 F3600
G1 X116.371 Y70.672 E0.46001
G1 X120.948 Y69.284 E0.69861
G1 X125.708 Y68.815 E0.93725
G1 X130.467 Y69.284 E1.17582
G1 X135.044 Y70.673 E1.41447
G1 X139.261 Y72.927 E1.65303
G1 X142.959 Y75.961 E1.89166
G1 X145.993 Y79.658 E2.13028
G1 X148.247 Y83.876 E2.36887
G1 X149.636 Y88.453 E2.60750
G1 X150.105 Y93.212 E2.84608
G1 X149.636 Y97.972 E3.08472
G1 X148.247 Y102.549 E3.32331
G1 X145.993 Y106.766 E3.56189
G1 X142.959 Y110.464 E3.80052
G1 X139.261 Y113.498 E4.03915
G1 X135.044 Y115.752 E4.27773
G1 X130.467 Y117.140 E4.51635
G1 X125.708 Y117.609 E4.75495
G1 X120.948 Y117.140 E4.99356
G1 X116.371 Y115.752 E5.23218
G1 X112.153 Y113.498 E5.47077
G1 X108.456 Y110.464 E5.70938
G1 X105.422 Y106.767 E5.94798
G1 X103.168 Y102.549 E6.18660
G1 X101.779 Y97.972 E6.42521
G1 X101.310 Y93.212 E6.66381
G1 X101.779 Y88.453 E6.90242
G1 X103.168 Y83.876 E7.14103
G1 X105.422 Y79.658 E7.37961
G1 X108.456 Y75.961 E7.61824
G1 X109.121 Y75.415 E7.66117
G0 X108.456 Y75.961 F7200
G0 X107.971 Y76.185
;segType:Perimeter
G1 X108.218 Y75.639 E7.69110 F2160
G1 X111.930 Y72.593 E7.93065
G1 X116.217 Y70.301 E8.17318
G1 X120.870 Y68.890 E8.41573
G1 X125.708 Y68.413 E8.65828
G1 X130.545 Y68.890 E8.90080
G1 X135.198 Y70.301 E9.14335
G1 X139.485 Y72.592 E9.38587
G1 X143.243 Y75.677 E9.62841
G1 X146.327 Y79.435 E9.87098
G1 X148.619 Y83.722 E10.11351
G1 X150.030 Y88.374 E10.35605
G1 X150.506 Y93.212 E10.59858
G1 X150.030 Y98.050 E10.84112
G1 X148.619 Y102.702 E11.08365
G1 X146.327 Y106.990 E11.32618
G1 X143.243 Y110.748 E11.56874
G1 X139.485 Y113.832 E11.81129
G1 X135.198 Y116.123 E12.05381
G1 X130.546 Y117.535 E12.29635
G1 X125.708 Y118.011 E12.53889
G1 X120.870 Y117.535 E12.78143
G1 X116.217 Y116.123 E13.02397
G1 X111.930 Y113.832 E13.26650
G1 X108.172 Y110.748 E13.50904
G1 X105.088 Y106.990 E13.75157
G1 X102.796 Y102.702 E13.99412
G1 X101.385 Y98.050 E14.23666
G1 X100.909 Y93.212 E14.47920
G1 X101.385 Y88.374 E14.72173
G1 X102.796 Y83.722 E14.96428
G1 X105.088 Y79.435 E15.20680
G1 X108.134 Y75.723 E15.44635
G0 X108.218 Y75.639 F7200
G0 X109.455 Y74.624
G0 X112.143 Y73.401
;segType:HShell
G1 X105.895 Y79.649 E15.88718 F3600
G0 X105.117 Y80.994 F7200
G1 X113.488 Y72.622 E16.47785 F3600
G0 X114.704 Y71.972 F7200
G1 X104.467 Y82.209 E17.20009 F3600
G0 F3000 E16.20009
G0 X104.175 Y81.991 F7200
G0 X142.723 Y110.657
G0 X142.425 Y110.436
G0 F3000 E17.20009
G1 X142.931 Y109.930 E17.23580 F3600
G0 X145.519 Y106.776 F7200
G1 X139.271 Y113.025 E17.67667 F3600
G0 X137.926 Y113.803 F7200
G1 X146.298 Y105.431 E18.26737 F3600
G0 X146.948 Y104.216 F7200
G1 X136.711 Y114.453 E18.98963 F3600
G0 X135.496 Y115.102 F7200
G1 X147.597 Y103.001 E19.84345 F3600
G0 X148.040 Y101.993 F7200
G1 X134.488 Y115.544 E20.79959 F3600
G0 X133.676 Y115.791 F7200
G1 X148.286 Y101.181 E21.83039 F3600
G0 X148.532 Y100.369 F7200
G1 X132.864 Y116.037 E22.93587 F3600
G0 X132.052 Y116.283 F7200
G1 X148.779 Y99.557 E24.11602 F3600
G0 X149.025 Y98.745 F7200
G1 X131.240 Y116.530 E25.37083 F3600
G0 X130.428 Y116.776 F7200
G1 X149.271 Y97.933 E26.70031 F3600
G0 X149.340 Y97.298 F7200
G1 X129.793 Y116.845 E28.07944 F3600
G0 X129.166 Y116.907 F7200
G1 X149.402 Y96.671 E29.50720 F3600
G0 X149.464 Y96.043 F7200
G1 X128.538 Y116.969 E30.98360 F3600
G0 X127.911 Y117.030 F7200
G1 X149.526 Y95.416 E32.50863 F3600
G0 X149.587 Y94.788 F7200
G1 X127.283 Y117.092 E34.08230 F3600
G0 X126.656 Y117.154 F7200
G1 X149.649 Y94.161 E35.70459 F3600
G0 X149.711 Y93.533 F7200
G1 X126.028 Y117.216 E37.37553 F3600
G0 X125.456 Y117.223 F7200
G1 X149.718 Y92.961 E39.08734 F3600
G0 X149.667 Y92.446 F7200
G1 X124.941 Y117.172 E40.83191 F3600
G0 X124.426 Y117.121 F7200
G1 X149.616 Y91.931 E42.60923 F3600
G0 X149.566 Y91.416 F7200
G1 X123.911 Y117.070 E44.41931 F3600
G0 X123.396 Y117.020 F7200
G1 X149.515 Y90.901 E46.26214 F3600
G0 X149.464 Y90.386 F7200
G1 X122.881 Y116.969 E48.13772 F3600
G0 X122.366 Y116.918 F7200
G1 X149.414 Y89.871 E50.04606 F3600
G0 X149.363 Y89.356 F7200
G1 X121.851 Y116.868 E51.98715 F3600
G0 X121.336 Y116.817 F7200
G1 X149.312 Y88.841 E53.96100 F3600
G0 X149.230 Y88.357 F7200
G1 X120.852 Y116.735 E55.96323 F3600
G0 X120.418 Y116.603 F7200
G1 X149.099 Y87.923 E57.98678 F3600
G0 X148.967 Y87.489 F7200
G1 X119.984 Y116.472 E60.03167 F3600
G0 X119.550 Y116.340 F7200
G1 X148.835 Y87.055 E62.09790 F3600
G0 X148.704 Y86.621 F7200
G1 X119.116 Y116.208 E64.18545 F3600
G0 X118.682 Y116.077 F7200
G1 X148.572 Y86.187 E66.29434 F3600
G0 X148.440 Y85.753 F7200
G1 X118.248 Y115.945 E68.42457 F3600
G0 X117.814 Y115.814 F7200
G1 X148.309 Y85.319 E70.57613 F3600
G0 X148.177 Y84.885 F7200
G1 X117.380 Y115.682 E72.74902 F3600
G0 X116.946 Y115.550 F7200
G1 X148.045 Y84.451 E74.94325 F3600
G0 X147.914 Y84.017 F7200
G1 X116.512 Y115.419 E77.15881 F3600
G0 X116.143 Y115.222 F7200
G1 X147.717 Y83.648 E79.38653 F3600
G0 X147.520 Y83.279 F7200
G1 X115.774 Y115.025 E81.62636 F3600
G0 X115.406 Y114.828 F7200
G1 X147.323 Y82.910 E83.87830 F3600
G0 X147.126 Y82.542 F7200
G1 X115.037 Y114.631 E86.14234 F3600
G0 X114.668 Y114.434 F7200
G1 X146.929 Y82.173 E88.41850 F3600
G0 X146.732 Y81.805 F7200
G1 X114.300 Y114.237 E90.70676 F3600
G0 X113.931 Y114.040 F7200
G1 X146.535 Y81.436 E93.00713 F3600
G0 X146.338 Y81.067 F7200
G1 X113.562 Y113.843 E95.31960 F3600
G0 X113.194 Y113.646 F7200
G1 X146.141 Y80.699 E97.64419 F3600
G0 X145.944 Y80.330 F7200
G1 X112.825 Y113.449 E99.98088 F3600
G0 X112.457 Y113.251 F7200
G1 X145.747 Y79.961 E102.32969 F3600
G0 X145.508 Y79.635 F7200
G1 X112.130 Y113.013 E104.68469 F3600
G0 X111.819 Y112.758 F7200
G1 X145.253 Y79.324 E107.04362 F3600
G0 X144.998 Y79.013 F7200
G1 X111.508 Y112.503 E109.40649 F3600
G0 X111.198 Y112.248 F7200
G1 X144.743 Y78.702 E111.77328 F3600
G0 X144.488 Y78.392 F7200
G1 X110.887 Y111.993 E114.14401 F3600
G0 X110.576 Y111.738 F7200
G1 X144.233 Y78.081 E116.51867 F3600
G0 X143.978 Y77.770 F7200
G1 X110.266 Y111.483 E118.89726 F3600
G0 X109.955 Y111.228 F7200
G1 X143.723 Y77.460 E121.27979 F3600
G0 X143.468 Y77.149 F7200
G1 X109.644 Y110.973 E123.66624 F3600
G0 X109.333 Y110.718 F7200
G1 X143.213 Y76.838 E126.05663 F3600
G0 X142.958 Y76.527 F7200
G1 X109.023 Y110.463 E128.45094 F3600
G0 X108.712 Y110.208 F7200
G1 X142.703 Y76.217 E130.84920 F3600
G0 X142.392 Y75.962 F7200
G1 X108.457 Y109.897 E133.24352 F3600
G0 X108.202 Y109.586 F7200
G1 X142.082 Y75.707 E135.63390 F3600
G0 X141.771 Y75.452 F7200
G1 X107.947 Y109.276 E138.02036 F3600
G0 X107.692 Y108.965 F7200
G1 X141.460 Y75.197 E140.40288 F3600
G0 X141.149 Y74.942 F7200
G1 X107.437 Y108.654 E142.78146 F3600
G0 X107.182 Y108.344 F7200
G1 X140.839 Y74.687 E145.15613 F3600
G0 X140.528 Y74.432 F7200
G1 X106.927 Y108.033 E147.52686 F3600
G0 X106.672 Y107.722 F7200
G1 X140.217 Y74.177 E149.89365 F3600
G0 X139.907 Y73.922 F7200
G1 X106.417 Y107.411 E152.25652 F3600
G0 X106.162 Y107.101 F7200
G1 X139.596 Y73.667 E154.61545 F3600
G0 X139.285 Y73.412 F7200
G1 X105.907 Y106.790 E156.97044 F3600
G0 X105.668 Y106.463 F7200
G1 X138.959 Y73.173 E159.31924 F3600
G0 X138.590 Y72.976 F7200
G1 X105.471 Y106.095 E161.65594 F3600
G0 X105.274 Y105.726 F7200
G1 X138.221 Y72.779 E163.98053 F3600
G0 X137.853 Y72.582 F7200
G1 X105.077 Y105.357 E166.29301 F3600
G0 X104.880 Y104.989 F7200
G1 X137.484 Y72.385 E168.59338 F3600
G0 X137.115 Y72.188 F7200
G1 X104.683 Y104.620 E170.88166 F3600
G0 X104.486 Y104.251 F7200
G1 X136.747 Y71.991 E173.15780 F3600
G0 X136.378 Y71.794 F7200
G1 X104.289 Y103.883 E175.42186 F3600
G0 X104.092 Y103.514 F7200
G1 X136.009 Y71.597 E177.67380 F3600
G0 X135.641 Y71.400 F7200
G1 X103.895 Y103.145 E179.91364 F3600
G0 X103.698 Y102.777 F7200
G1 X135.272 Y71.203 E182.14136 F3600
G0 X134.903 Y71.006 F7200
G1 X103.501 Y102.408 E184.35692 F3600
G0 X103.370 Y101.974 F7200
G1 X134.469 Y70.874 E186.55114 F3600
G0 X134.035 Y70.743 F7200
G1 X103.238 Y101.540 E188.72404 F3600
G0 X103.106 Y101.106 F7200
G1 X133.601 Y70.611 E190.87562 F3600
G0 X133.167 Y70.479 F7200
G1 X102.975 Y100.672 E193.00582 F3600
G0 X102.843 Y100.238 F7200
G1 X132.733 Y70.348 E195.11472 F3600
G0 X132.299 Y70.216 F7200
G1 X102.711 Y99.804 E197.20228 F3600
G0 X102.580 Y99.370 F7200
G1 X131.865 Y70.084 E199.26850 F3600
G0 X131.431 Y69.953 F7200
G1 X102.448 Y98.936 E201.31338 F3600
G0 X102.316 Y98.501 F7200
G1 X130.997 Y69.821 E203.33694 F3600
G0 X130.563 Y69.689 F7200
G1 X102.185 Y98.067 E205.33918 F3600
G0 X102.103 Y97.584 F7200
G1 X130.079 Y69.608 E207.31302 F3600
G0 X129.564 Y69.557 F7200
G1 X102.052 Y97.069 E209.25410 F3600
G0 X102.002 Y96.554 F7200
G1 X129.049 Y69.506 E211.16244 F3600
G0 X128.534 Y69.456 F7200
G1 X101.951 Y96.039 E213.03802 F3600
G0 X101.900 Y95.524 F7200
G1 X128.019 Y69.405 E214.88086 F3600
G0 X127.504 Y69.354 F7200
G1 X101.849 Y95.009 E216.69094 F3600
G0 X101.799 Y94.494 F7200
G1 X126.989 Y69.303 E218.46826 F3600
G0 X126.474 Y69.253 F7200
G1 X101.748 Y93.979 E220.21282 F3600
G0 X101.697 Y93.464 F7200
G1 X125.959 Y69.202 E221.92464 F3600
G0 X125.387 Y69.209 F7200
G1 X101.704 Y92.891 E223.59556 F3600
G0 X101.766 Y92.264 F7200
G1 X124.759 Y69.271 E225.21786 F3600
G0 X124.132 Y69.332 F7200
G1 X101.828 Y91.636 E226.79154 F3600
G0 X101.889 Y91.009 F7200
G1 X123.504 Y69.394 E228.31656 F3600
G0 X122.877 Y69.456 F7200
G1 X101.951 Y90.381 E229.79296 F3600
G0 X102.013 Y89.754 F7200
G1 X122.249 Y69.518 E231.22072 F3600
G0 X121.622 Y69.580 F7200
G1 X102.075 Y89.126 E232.59984 F3600
G0 X102.144 Y88.492 F7200
G1 X120.987 Y69.649 E233.92932 F3600
G0 X120.175 Y69.895 F7200
G1 X102.390 Y87.680 E235.18414 F3600
G0 X102.636 Y86.868 F7200
G1 X119.363 Y70.141 E236.36428 F3600
G0 X118.551 Y70.387 F7200
G1 X102.883 Y86.056 E237.46976 F3600
G0 X103.129 Y85.244 F7200
G1 X117.739 Y70.634 E238.50056 F3600
G0 X116.927 Y70.880 F7200
G1 X103.375 Y84.432 E239.45670 F3600
G0 X103.818 Y83.424 F7200
G1 X115.919 Y71.322 E240.31052 F3600
; ------------------------------------
; Layer #2
; ------------------------------------
G92 E0 ;reset extr
G0 F3000 E-1.00000
G0 F600 Z1.900
G0 X115.716 Y71.023 F7200
G0 X142.618 Y110.743
G0 X142.416 Y110.444
G0 F3000 E0.00000
;segType:HShell
G1 X108.476 Y76.504 E2.39461 F3600
G0 X107.971 Y76.185 F7200
;segType:Perimeter
G1 X108.218 Y75.639 E2.42455 F2160
G1 X111.930 Y72.593 E2.66409
G1 X116.217 Y70.301 E2.90662
G1 X120.870 Y68.890 E3.14918
G1 X125.708 Y68.413 E3.39172
G1 X130.545 Y68.890 E3.63425
G1 X135.198 Y70.301 E3.87679
G1 X139.485 Y72.592 E4.11931
G1 X143.243 Y75.677 E4.36186
G1 X146.327 Y79.435 E4.60442
G1 X148.619 Y83.722 E4.84695
G1 X150.030 Y88.374 E5.08949
G1 X150.506 Y93.212 E5.33202
G1 X150.030 Y98.050 E5.57456
G1 X148.619 Y102.702 E5.81710
G1 X146.327 Y106.990 E6.05962
G1 X143.243 Y110.748 E6.30218
G1 X139.485 Y113.832 E6.54473
G1 X135.198 Y116.123 E6.78725
G1 X130.546 Y117.535 E7.02979
G1 X125.708 Y118.011 E7.27233
G1 X120.870 Y117.535 E7.51487
G1 X116.217 Y116.123 E7.75742
G1 X111.930 Y113.832 E7.99994
G1 X108.172 Y110.748 E8.24248
G1 X105.088 Y106.990 E8.48501
G1 X102.796 Y102.702 E8.72756
G1 X101.385 Y98.050 E8.97010
G1 X100.909 Y93.212 E9.21264
G1 X101.385 Y88.374 E9.45517
G1 X102.796 Y83.722 E9.69772
G1 X105.088 Y79.435 E9.94024
G1 X108.134 Y75.723 E10.17979
G0 X108.218 Y75.639 F7200
G0 X109.455 Y74.624
G0 X109.276 Y75.288
;segType:Loop
G1 X112.153 Y72.927 E10.36549 F3600
G1 X116.371 Y70.672 E10.60409
G1 X120.948 Y69.284 E10.84269
G1 X125.708 Y68.815 E11.08133
G1 X130.467 Y69.284 E11.31991
G1 X135.044 Y70.673 E11.55855
G1 X139.261 Y72.927 E11.79711
G1 X142.959 Y75.961 E12.03574
G1 X145.993 Y79.658 E12.27436
G1 X148.247 Y83.876 E12.51296
G1 X149.636 Y88.453 E12.75158
G1 X150.105 Y93.212 E12.99016
G1 X149.636 Y97.972 E13.22880
G1 X148.247 Y102.549 E13.46740
G1 X145.993 Y106.766 E13.70597
G1 X142.959 Y110.464 E13.94461
G1 X139.261 Y113.498 E14.18324
G1 X135.044 Y115.752 E14.42182
G1 X130.467 Y117.140 E14.66043
G1 X125.708 Y117.609 E14.89904
G1 X120.948 Y117.140 E15.13764
G1 X116.371 Y115.752 E15.37626
G1 X112.153 Y113.498 E15.61485
G1 X108.456 Y110.464 E15.85347
G1 X105.422 Y106.767 E16.09206
G1 X103.168 Y102.549 E16.33068
G1 X101.779 Y97.972 E16.56929
G1 X101.310 Y93.212 E16.80789
G1 X101.779 Y88.453 E17.04650
G1 X103.168 Y83.876 E17.28511
G1 X105.422 Y79.658 E17.52370
G1 X108.456 Y75.961 E17.76233
G1 X109.121 Y75.415 E17.80525
G0 X108.735 Y76.198 F7200
;segType:HShell
G1 X142.722 Y110.184 E20.20321 F3600
G0 X142.977 Y109.874 F7200
G1 X109.046 Y75.943 E22.59723 F3600
G0 X109.357 Y75.688 F7200
G1 X143.232 Y109.563 E24.98732 F3600
G0 X143.487 Y109.252 F7200
G1 X109.667 Y75.433 E27.37347 F3600
G0 X109.978 Y75.178 F7200
G1 X143.742 Y108.942 E29.75569 F3600
G0 X143.997 Y108.631 F7200
G1 X110.289 Y74.923 E32.13398 F3600
G0 X110.600 Y74.668 F7200
G1 X144.252 Y108.320 E34.50834 F3600
G0 X144.507 Y108.010 F7200
G1 X110.910 Y74.413 E36.87877 F3600
G0 X111.221 Y74.158 F7200
G1 X144.762 Y107.699 E39.24526 F3600
G0 X145.017 Y107.388 F7200
G1 X111.532 Y73.903 E41.60782 F3600
G0 X111.842 Y73.648 F7200
G1 X145.272 Y107.077 E43.96646 F3600
G0 X145.527 Y106.767 F7200
G1 X112.153 Y73.393 E46.32115 F3600
G0 X112.484 Y73.158 F7200
G1 X145.761 Y106.436 E48.66904 F3600
G0 X145.959 Y106.067 F7200
G1 X112.853 Y72.961 E51.00482 F3600
G0 X113.222 Y72.764 F7200
G1 X146.156 Y105.698 E53.32850 F3600
G0 X146.353 Y105.330 F7200
G1 X113.590 Y72.567 E55.64007 F3600
G0 X113.959 Y72.370 F7200
G1 X146.550 Y104.961 E57.93953 F3600
G0 X146.747 Y104.592 F7200
G1 X114.327 Y72.173 E60.22688 F3600
G0 X114.696 Y71.976 F7200
G1 X146.944 Y104.224 E62.50213 F3600
G0 X147.141 Y103.855 F7200
G1 X115.065 Y71.779 E64.76527 F3600
G0 X115.433 Y71.582 F7200
G1 X147.338 Y103.486 E67.01630 F3600
G0 X147.535 Y103.118 F7200
G1 X115.802 Y71.385 E69.25522 F3600
G0 X116.171 Y71.188 F7200
G1 X147.732 Y102.749 E71.48204 F3600
G0 X147.924 Y102.375 F7200
G1 X116.544 Y70.996 E73.69601 F3600
G0 X116.979 Y70.864 F7200
G1 X148.055 Y101.941 E75.88864 F3600
G0 X148.187 Y101.507 F7200
G1 X117.413 Y70.733 E78.05995 F3600
G0 X117.847 Y70.601 F7200
G1 X148.319 Y101.073 E80.20992 F3600
G0 X148.450 Y100.639 F7200
G1 X118.281 Y70.469 E82.33855 F3600
G0 X118.715 Y70.338 F7200
G1 X148.582 Y100.205 E84.44585 F3600
G0 X148.714 Y99.771 F7200
G1 X119.149 Y70.206 E86.53181 F3600
G0 X119.583 Y70.075 F7200
G1 X148.845 Y99.337 E88.59645 F3600
G0 X148.977 Y98.903 F7200
G1 X120.017 Y69.943 E90.63976 F3600
G0 X120.451 Y69.811 F7200
G1 X149.109 Y98.469 E92.66172 F3600
G0 X149.240 Y98.035 F7200
G1 X120.885 Y69.680 E94.66235 F3600
G0 X121.375 Y69.604 F7200
G1 X149.316 Y97.545 E96.63374 F3600
G0 X149.367 Y97.030 F7200
G1 X121.890 Y69.553 E98.57238 F3600
G0 X122.405 Y69.502 F7200
G1 X149.417 Y96.515 E100.47826 F3600
G0 X149.468 Y96.000 F7200
G1 X122.920 Y69.452 E102.35139 F3600
G0 X123.435 Y69.401 F7200
G1 X149.519 Y95.485 E104.19176 F3600
G0 X149.569 Y94.970 F7200
G1 X123.950 Y69.350 E105.99938 F3600
G0 X124.465 Y69.300 F7200
G1 X149.620 Y94.455 E107.77425 F3600
G0 X149.671 Y93.940 F7200
G1 X124.980 Y69.249 E109.51636 F3600
G0 X125.495 Y69.198 F7200
G1 X149.722 Y93.425 E111.22572 F3600
G0 X149.706 Y92.844 F7200
G1 X126.075 Y69.213 E112.89301 F3600
G0 X126.703 Y69.275 F7200
G1 X149.645 Y92.217 E114.51168 F3600
G0 X149.583 Y91.589 F7200
G1 X127.330 Y69.337 E116.08171 F3600
G0 X127.958 Y69.399 F7200
G1 X149.521 Y90.962 E117.60310 F3600
G0 X149.459 Y90.334 F7200
G1 X128.585 Y69.461 E119.07587 F3600
G0 X129.213 Y69.522 F7200
G1 X149.397 Y89.707 E120.49999 F3600
G0 X149.336 Y89.079 F7200
G1 X129.840 Y69.584 E121.87549 F3600
G0 X130.489 Y69.667 F7200
G1 X149.253 Y88.431 E123.19938 F3600
G0 X149.006 Y87.619 F7200
G1 X131.301 Y69.913 E124.44859 F3600
G0 X132.113 Y70.160 F7200
G1 X148.760 Y86.807 E125.62314 F3600
G0 X148.514 Y85.995 F7200
G1 X132.925 Y70.406 E126.72301 F3600
G0 X133.737 Y70.652 F7200
G1 X148.267 Y85.183 E127.74822 F3600
G0 X148.021 Y84.371 F7200
G1 X134.549 Y70.899 E128.69876 F3600
G0 X135.587 Y71.371 F7200
G1 X147.549 Y83.333 E129.54272 F3600
G0 X142.105 Y110.699 F7200
G1 X108.221 Y76.815 E131.93341 F3600
G0 X107.966 Y77.126 F7200
G1 X141.794 Y110.954 E134.32016 F3600
G0 X141.483 Y111.209 F7200
G1 X107.711 Y77.436 E136.70297 F3600
G0 X107.456 Y77.747 F7200
G1 X141.173 Y111.464 E139.08186 F3600
G0 X140.862 Y111.719 F7200
G1 X107.201 Y78.058 E141.45682 F3600
G0 X106.946 Y78.368 F7200
G1 X140.551 Y111.974 E143.82784 F3600
G0 X140.241 Y112.229 F7200
G1 X106.691 Y78.679 E146.19493 F3600
G0 X106.436 Y78.990 F7200
G1 X139.930 Y112.484 E148.55809 F3600
G0 X139.619 Y112.738 F7200
G1 X106.181 Y79.301 E150.91731 F3600
G0 X105.926 Y79.611 F7200
G1 X139.309 Y112.993 E153.27261 F3600
G0 X138.986 Y113.237 F7200
G1 X105.683 Y79.934 E155.62233 F3600
G0 X105.486 Y80.302 F7200
G1 X138.618 Y113.434 E157.95995 F3600
G0 X138.249 Y113.631 F7200
G1 X105.289 Y80.671 E160.28545 F3600
G0 X105.092 Y81.040 F7200
G1 X137.880 Y113.828 E162.59883 F3600
G0 X137.512 Y114.025 F7200
G1 X104.895 Y81.408 E164.90012 F3600
G0 X104.698 Y81.777 F7200
G1 X137.143 Y114.222 E167.18929 F3600
G0 X136.774 Y114.419 F7200
G1 X104.501 Y82.146 E169.46636 F3600
G0 X104.304 Y82.514 F7200
G1 X136.406 Y114.616 E171.73130 F3600
G0 X136.037 Y114.813 F7200
G1 X104.107 Y82.883 E173.98416 F3600
G0 X103.910 Y83.251 F7200
G1 X135.668 Y115.010 E176.22490 F3600
G0 X135.300 Y115.207 F7200
G1 X103.713 Y83.620 E178.45354 F3600
G0 X103.516 Y83.989 F7200
G1 X134.931 Y115.404 E180.67006 F3600
G0 X134.501 Y115.540 F7200
G1 X103.379 Y84.418 E182.86590 F3600
G0 X103.248 Y84.852 F7200
G1 X134.067 Y115.672 E185.04040 F3600
G0 X133.633 Y115.804 F7200
G1 X103.116 Y85.286 E187.19354 F3600
G0 X102.984 Y85.720 F7200
G1 X133.199 Y115.935 E189.32536 F3600
G0 X132.765 Y116.067 F7200
G1 X102.853 Y86.154 E191.43586 F3600
G0 X102.721 Y86.588 F7200
G1 X132.331 Y116.199 E193.52500 F3600
G0 X131.897 Y116.330 F7200
G1 X102.590 Y87.022 E195.59284 F3600
G0 X102.458 Y87.457 F7200
G1 X131.463 Y116.462 E197.63932 F3600
G0 X131.029 Y116.594 F7200
G1 X102.326 Y87.891 E199.66448 F3600
G0 X102.195 Y88.325 F7200
G1 X130.595 Y116.725 E201.66828 F3600
G0 X130.117 Y116.813 F7200
G1 X102.107 Y88.802 E203.64458 F3600
G0 X102.056 Y89.317 F7200
G1 X129.602 Y116.864 E205.58812 F3600
G0 X129.087 Y116.914 F7200
G1 X102.005 Y89.832 E207.49890 F3600
G0 X101.955 Y90.347 F7200
G1 X128.572 Y116.965 E209.37694 F3600
G0 X128.057 Y117.016 F7200
G1 X101.904 Y90.862 E211.22222 F3600
G0 X101.853 Y91.377 F7200
G1 X127.543 Y117.067 E213.03474 F3600
G0 X127.028 Y117.117 F7200
G1 X101.802 Y91.892 E214.81452 F3600
G0 X101.752 Y92.407 F7200
G1 X126.513 Y117.168 E216.56154 F3600
G0 X125.998 Y117.219 F7200
G1 X101.701 Y92.922 E218.27580 F3600
G0 X101.699 Y93.486 F7200
G1 X125.434 Y117.220 E219.95038 F3600
G0 X124.806 Y117.159 F7200
G1 X101.761 Y94.114 E221.57632 F3600
G0 X101.823 Y94.741 F7200
G1 X124.179 Y117.097 E223.15362 F3600
G0 X123.551 Y117.035 F7200
G1 X101.885 Y95.369 E224.68230 F3600
G0 X101.947 Y95.996 F7200
G1 X122.924 Y116.973 E226.16234 F3600
G0 X122.296 Y116.911 F7200
G1 X102.008 Y96.624 E227.59374 F3600
G0 X102.070 Y97.251 F7200
G1 X121.669 Y116.850 E228.97650 F3600
G0 X121.041 Y116.788 F7200
G1 X102.132 Y97.879 E230.31064 F3600
G0 X102.372 Y98.684 F7200
G1 X120.236 Y116.548 E231.57102 F3600
G0 X119.424 Y116.302 F7200
G1 X102.618 Y99.496 E232.75676 F3600
G0 X102.864 Y100.308 F7200
G1 X118.612 Y116.055 E233.86782 F3600
G0 X117.800 Y115.809 F7200
G1 X103.111 Y101.120 E234.90420 F3600
G0 X103.357 Y101.932 F7200
G1 X116.988 Y115.563 E235.86594 F3600
G0 X116.010 Y115.151 F7200
G1 X103.769 Y102.910 E236.72960 F3600
G0 X104.419 Y104.125 F7200
G1 X114.795 Y114.501 E237.46170 F3600
G0 X113.580 Y113.852 F7200
G1 X105.068 Y105.340 E238.06222 F3600
G0 X108.290 Y109.694 F7200
G1 X109.226 Y110.630 E238.12828 F3600
G0 X112.364 Y113.202 F7200
G1 X105.718 Y106.556 E238.59722 F3600
G0 F3000 E237.59722
G0 X105.457 Y106.810 F7200
G0 X139.766 Y73.341
G0 X139.507 Y73.594
G0 F3000 E238.59722
G1 X145.326 Y79.413 E239.00780 F3600
G0 X142.661 Y76.182 F7200
G1 X142.737 Y76.259 E239.01318 F3600
G0 X136.802 Y72.020 F7200
G1 X146.899 Y82.118 E239.72558 F3600
G0 X146.250 Y80.902 F7200
G1 X138.017 Y72.670 E240.30642 F3600
; ------------------------------------
; Layer #3
; ------------------------------------
G92 E0 ;reset extr
G0 F3000 E-1.00000
G0 F600 Z2.200
G0 X103.375 Y84.432 F7200
G0 F3000 E0.00000
;segType:HShell
G1 X104.205 Y83.602 E0.05856 F3600
G0 X103.818 Y83.424 F7200
G1 X104.680 Y82.562 E0.11937 F3600
G0 X104.467 Y82.209 F7200
G1 X105.411 Y81.265 E0.18594 F3600
G0 X105.117 Y80.994 F7200
G1 X106.255 Y79.855 E0.26625 F3600
G0 X105.895 Y79.649 F7200
G1 X108.442 Y77.102 E0.44596 F3600
G0 X108.990 Y75.989 F7200
G1 X108.484 Y76.495 E0.48167 F3600
G0 X107.971 Y76.185 F7200
;segType:Perimeter
G1 X108.218 Y75.639 E0.51160 F2160
G1 X111.930 Y72.593 E0.75114
G1 X116.217 Y70.301 E0.99368
G1 X120.870 Y68.890 E1.23623
G1 X125.708 Y68.413 E1.47878
G1 X130.545 Y68.890 E1.72130
G1 X135.198 Y70.301 E1.96385
G1 X139.485 Y72.592 E2.20637
G1 X143.243 Y75.677 E2.44891
G1 X146.327 Y79.435 E2.69148
G1 X148.619 Y83.722 E2.93400
G1 X150.030 Y88.374 E3.17655
G1 X150.506 Y93.212 E3.41907
G1 X150.030 Y98.050 E3.66162
G1 X148.619 Y102.702 E3.90415
G1 X146.327 Y106.990 E4.14668
G1 X143.243 Y110.748 E4.38924
G1 X139.485 Y113.832 E4.63179
G1 X135.198 Y116.123 E4.87431
G1 X130.546 Y117.535 E5.11685
G1 X125.708 Y118.011 E5.35939
G1 X120.870 Y117.535 E5.60192
G1 X116.217 Y116.123 E5.84447
G1 X111.930 Y113.832 E6.08700
G1 X108.172 Y110.748 E6.32954
G1 X105.088 Y106.990 E6.57207
G1 X102.796 Y102.702 E6.81461
G1 X101.385 Y98.050 E7.05716
G1 X100.909 Y93.212 E7.29969
G1 X101.385 Y88.374 E7.54223
G1 X102.796 Y83.722 E7.78477
G1 X105.088 Y79.435 E8.02730
G1 X108.134 Y75.723 E8.26685
G0 X108.218 Y75.639 F7200
G0 X109.455 Y74.624
G0 X109.276 Y75.288
;segType:Loop
G1 X112.153 Y72.927 E8.45254 F3600
G1 X116.371 Y70.672 E8.69115
G1 X120.948 Y69.284 E8.92975
G1 X125.708 Y68.815 E9.16839
G1 X130.467 Y69.284 E9.40696
G1 X135.044 Y70.673 E9.64561
G1 X139.261 Y72.927 E9.88417
G1 X142.959 Y75.961 E10.12280
G1 X145.993 Y79.658 E10.36142
G1 X148.247 Y83.876 E10.60001
G1 X149.636 Y88.453 E10.83864
G1 X150.105 Y93.212 E11.07722
G1 X149.636 Y97.972 E11.31585
G1 X148.247 Y102.549 E11.55445
G1 X145.993 Y106.766 E11.79303
G1 X142.959 Y110.464 E12.03166
G1 X139.261 Y113.498 E12.27029
G1 X135.044 Y115.752 E12.50887
G1 X130.467 Y117.140 E12.74749
G1 X125.708 Y117.609 E12.98609
G1 X120.948 Y117.140 E13.22470
G1 X116.371 Y115.752 E13.46331
G1 X112.153 Y113.498 E13.70191
G1 X108.456 Y110.464 E13.94052
G1 X105.422 Y106.767 E14.17911
G1 X103.168 Y102.549 E14.41773
G1 X101.779 Y97.972 E14.65635
G1 X101.310 Y93.212 E14.89495
G1 X101.779 Y88.453 E15.13356
G1 X103.168 Y83.876 E15.37217
G1 X105.422 Y79.658 E15.61075
G1 X108.456 Y75.961 E15.84938
G1 X109.121 Y75.415 E15.89231
G0 F3000 E14.89231
G0 X115.111 Y72.131 F7200
G0 F3000 E15.89231
;segType:Infill
G1 X104.680 Y82.562 E16.77548 F4500
G0 X108.392 Y83.375 F7200
G1 X102.531 Y89.236 E17.27168 F4500
G0 X111.706 Y93.637 F7200
G1 X125.392 Y79.952 E18.43038 F4500
G0 X126.383 Y74.435 F7200
G1 X130.640 Y70.178 E18.79081 F4500
G0 X134.109 Y71.234 F7200
G1 X129.312 Y76.031 E19.19698 F4500
G0 X131.763 Y78.105 F7200
G1 X133.955 Y75.914 E19.38253 F4500
G0 X135.344 Y74.525 F7200
G1 X137.167 Y72.702 E19.53681 F4500
G0 X138.033 Y76.362 F7200
G1 X139.874 Y74.520 E19.69274 F4500
G0 X142.264 Y76.656 F7200
G1 X140.419 Y78.501 E19.84896 F4500
G0 X135.989 Y78.405 F7200
G1 X133.744 Y80.650 E20.03901 F4500
G0 X128.501 Y81.368 F7200
G1 X110.959 Y98.910 E21.52422 F4500
G0 X111.531 Y102.863 F7200
G1 X114.789 Y99.606 E21.80003 F4500
G0 X115.268 Y99.126 F7200
G1 X120.387 Y94.008 E22.23341 F4500
G0 X122.027 Y96.892 F7200
G1 X117.889 Y101.031 E22.58379 F4500
G0 X115.787 Y103.132 F7200
G1 X112.759 Y106.160 E22.84015 F4500
G0 X114.537 Y108.908 F7200
G1 X117.414 Y106.031 E23.08371 F4500
G0 X120.151 Y103.294 F7200
G1 X125.204 Y98.242 E23.51151 F4500
G0 X126.614 Y87.780 F7200
G1 X131.119 Y83.276 E23.89292 F4500
G0 X129.502 Y89.417 F7200
G1 X133.325 Y85.595 E24.21657 F4500
G0 X135.223 Y83.696 F7200
G1 X137.582 Y81.338 E24.41623 F4500
G0 X138.642 Y84.803 F7200
G1 X130.848 Y92.597 E25.07617 F4500
G0 X137.275 Y95.221 F7200
G1 X126.028 Y106.469 E26.02848 F4500
G0 X122.839 Y105.132 F7200
G1 X138.862 Y89.109 E27.38505 F4500
G0 X142.459 Y80.986 F7200
G1 X144.338 Y79.107 E27.54413 F4500
G0 X146.091 Y81.880 F7200
G1 X144.153 Y83.817 E27.70818 F4500
G0 X147.492 Y85.005 F7200
G1 X144.983 Y87.513 E27.92060 F4500
G0 X148.476 Y88.546 F7200
G1 X143.825 Y93.197 E28.31440 F4500
G0 X148.414 Y97.658 F7200
G1 X142.002 Y104.071 E28.85732 F4500
G0 X134.520 Y102.502 F7200
G1 X129.888 Y107.134 E29.24951 F4500
G0 X128.905 Y112.642 F7200
G1 X125.268 Y116.279 E29.55746 F4500
G0 X130.239 Y115.833 F7200
G1 X134.131 Y111.942 E29.88693 F4500
G0 X137.677 Y112.921 F7200
G1 X145.471 Y105.127 E30.54682 F4500
G0 X148.912 Y92.636 F7200
G1 X134.873 Y106.674 E31.73541 F4500
G0 X125.165 Y111.857 F7200
G1 X121.147 Y115.875 E32.07565 F4500
G0 X117.597 Y114.899 F7200
G1 X122.081 Y110.415 E32.45527 F4500
G0 X119.513 Y108.457 F7200
G1 X114.475 Y113.496 E32.88186 F4500
G0 X113.259 Y110.186 F7200
G1 X111.713 Y111.732 E33.01276 F4500
G0 X109.274 Y109.645 F7200
G1 X110.792 Y108.128 E33.14121 F4500
G0 X108.668 Y105.727 F7200
G1 X107.145 Y107.249 E33.27009 F4500
G0 X105.334 Y104.535 F7200
G1 X106.885 Y102.984 E33.40142 F4500
G0 X103.869 Y101.475 F7200
G1 X105.651 Y99.692 E33.55234 F4500
G0 X102.812 Y98.006 F7200
G1 X105.842 Y94.976 E33.80890 F4500
G0 X102.274 Y94.018 F7200
G1 X116.937 Y79.355 E35.05032 F4500
G0 X118.190 Y82.628 F7200
G1 X121.651 Y79.167 E35.34336 F4500
G0 X122.872 Y73.421 F7200
G1 X126.638 Y69.655 E35.66221 F4500
G0 X121.808 Y69.959 F7200
G1 X118.436 Y73.331 E35.94768 F4500
G0 F3000 E34.94768
G0 X109.022 Y76.522 F7200
G0 F3000 E35.94768
;segType:HShell
G1 X112.143 Y73.401 E36.16790 F3600
G0 X113.488 Y72.622 F7200
G1 X112.327 Y73.783 E36.24983 F3600
G0 X112.806 Y80.658 F7200
G1 X120.241 Y73.223 E36.77440 F3600
G0 X120.786 Y73.243 F7200
G1 X113.754 Y80.276 E37.27059 F3600
G0 X114.674 Y79.921 F7200
G1 X121.314 Y73.282 E37.73905 F3600
G0 X121.841 Y73.320 F7200
G1 X115.490 Y79.671 E38.18718 F3600
G0 X116.218 Y79.508 F7200
G1 X122.366 Y73.360 E38.62096 F3600
G0 X122.872 Y73.421 F7200
G1 X116.937 Y79.355 E39.03970 F3600
G0 X117.635 Y79.223 F7200
G1 X123.345 Y73.514 E39.44256 F3600
G0 X123.801 Y73.623 F7200
G1 X118.273 Y79.151 E39.83259 F3600
G0 X118.869 Y79.120 F7200
G1 X124.253 Y73.736 E40.21245 F3600
G0 X124.706 Y73.849 F7200
G1 X119.466 Y79.089 E40.58216 F3600
G0 X120.056 Y79.064 F7200
G1 X125.151 Y73.970 E40.94159 F3600
G0 X125.581 Y74.106 F7200
G1 X120.615 Y79.072 E41.29197 F3600
G0 X121.140 Y79.112 F7200
G1 X125.989 Y74.263 E41.63414 F3600
G0 X126.383 Y74.435 F7200
G1 X121.651 Y79.167 E41.96801 F3600
G0 X122.162 Y79.222 F7200
G1 X126.775 Y74.609 E42.29346 F3600
G0 X127.167 Y74.783 F7200
G1 X122.670 Y79.279 E42.61074 F3600
G0 X123.157 Y79.357 F7200
G1 X127.555 Y74.960 E42.92101 F3600
G0 X127.932 Y75.149 F7200
G1 X123.619 Y79.462 E43.22531 F3600
G0 X124.064 Y79.582 F7200
G1 X128.288 Y75.358 E43.52336 F3600
G0 X128.635 Y75.577 F7200
G1 X124.509 Y79.703 E43.81442 F3600
G0 X124.954 Y79.823 F7200
G1 X128.973 Y75.804 E44.09798 F3600
G0 X129.312 Y76.031 F7200
G1 X125.392 Y79.952 E44.37457 F3600
G0 X125.813 Y80.096 F7200
G1 X129.651 Y76.258 E44.64536 F3600
G0 X129.981 Y76.494 F7200
G1 X126.215 Y80.259 E44.91103 F3600
G0 X126.606 Y80.435 F7200
G1 X130.301 Y76.740 E45.17176 F3600
G0 X130.604 Y77.002 F7200
G1 X126.996 Y80.610 E45.42635 F3600
G0 X127.386 Y80.786 F7200
G1 X130.896 Y77.276 E45.67398 F3600
G0 X131.185 Y77.552 F7200
G1 X127.772 Y80.966 E45.91480 F3600
G0 X128.146 Y81.157 F7200
G1 X131.474 Y77.829 E46.14962 F3600
G0 X131.763 Y78.105 F7200
G1 X128.501 Y81.368 E46.37979 F3600
G0 X128.844 Y81.590 F7200
G1 X132.041 Y78.394 E46.60533 F3600
G0 X132.307 Y78.693 F7200
G1 X129.186 Y81.814 E46.82552 F3600
G0 X129.527 Y82.038 F7200
G1 X132.560 Y79.006 E47.03949 F3600
G0 X132.800 Y79.331 F7200
G1 X129.869 Y82.263 E47.24629 F3600
G0 X130.200 Y82.497 F7200
G1 X133.040 Y79.657 E47.44668 F3600
G0 X133.280 Y79.983 F7200
G1 X130.518 Y82.745 E47.64160 F3600
G0 X130.823 Y83.006 F7200
G1 X133.518 Y80.311 E47.83176 F3600
G0 X133.744 Y80.650 F7200
G1 X131.119 Y83.276 E48.01700 F3600
G0 X131.415 Y83.545 F7200
G1 X133.953 Y81.007 E48.19609 F3600
G0 X134.150 Y81.375 F7200
G1 X131.711 Y83.815 E48.36820 F3600
G0 X132.005 Y84.086 F7200
G1 X134.338 Y81.753 E48.53284 F3600
G0 X134.527 Y82.130 F7200
G1 X132.290 Y84.367 E48.69063 F3600
G0 X132.567 Y84.656 F7200
G1 X134.715 Y82.508 E48.84218 F3600
G0 X134.900 Y82.888 F7200
G1 X132.821 Y84.967 E48.98889 F3600
G0 X133.075 Y85.279 F7200
G1 X135.068 Y83.287 E49.12947 F3600
G0 X135.223 Y83.696 F7200
G1 X133.325 Y85.595 E49.26341 F3600
G0 X133.567 Y85.919 F7200
G1 X135.354 Y84.132 E49.38951 F3600
G0 X135.484 Y84.567 F7200
G1 X133.799 Y86.252 E49.50843 F3600
G0 X134.031 Y86.586 F7200
G1 X135.612 Y85.005 E49.61999 F3600
G0 X135.733 Y85.449 F7200
G1 X134.304 Y86.879 E49.72087 F3600
G0 X134.805 Y86.943 F7200
G1 X135.822 Y85.926 E49.79266 F3600
G0 X135.859 Y86.454 F7200
G1 X135.735 Y86.578 E49.80141 F3600
G0 X134.951 Y74.352 F7200
G1 X133.687 Y75.616 E49.89060 F3600
G0 X133.955 Y75.914 F7200
G1 X135.344 Y74.525 E49.98862 F3600
G0 X135.702 Y74.733 F7200
G1 X134.223 Y76.211 E50.09292 F3600
G0 X134.492 Y76.509 F7200
G1 X136.057 Y74.943 E50.20336 F3600
G0 X136.404 Y75.162 F7200
G1 X134.760 Y76.806 E50.31938 F3600
G0 X135.028 Y77.103 F7200
G1 X136.742 Y75.390 E50.44030 F3600
G0 X137.077 Y75.620 F7200
G1 X135.291 Y77.406 E50.56631 F3600
G0 X135.535 Y77.728 F7200
G1 X137.401 Y75.862 E50.69798 F3600
G0 X137.719 Y76.110 F7200
G1 X135.766 Y78.062 E50.83572 F3600
G0 X135.989 Y78.405 F7200
G1 X138.033 Y76.362 E50.97990 F3600
G0 X138.346 Y76.614 F7200
G1 X136.211 Y78.748 E51.13053 F3600
G0 X136.434 Y79.092 F7200
G1 X138.660 Y76.865 E51.28761 F3600
G0 X138.974 Y77.117 F7200
G1 X136.657 Y79.435 E51.45113 F3600
G0 X136.866 Y79.791 F7200
G1 X139.281 Y77.376 E51.62154 F3600
G0 X139.583 Y77.640 F7200
G1 X137.060 Y80.163 E51.79959 F3600
G0 X137.239 Y80.550 F7200
G1 X139.868 Y77.920 E51.98510 F3600
G0 X140.148 Y78.206 F7200
G1 X137.410 Y80.944 E52.17829 F3600
G0 X137.582 Y81.338 F7200
G1 X140.419 Y78.501 E52.37847 F3600
G0 X140.689 Y78.796 F7200
G1 X137.753 Y81.732 E52.58566 F3600
G0 X137.916 Y82.135 F7200
G1 X140.960 Y79.091 E52.80045 F3600
G0 X141.231 Y79.386 F7200
G1 X138.063 Y82.554 E53.02397 F3600
G0 X138.191 Y82.992 F7200
G1 X141.495 Y79.687 E53.25714 F3600
G0 X141.754 Y79.994 F7200
G1 X138.307 Y83.442 E53.50036 F3600
G0 X138.423 Y83.891 F7200
G1 X141.996 Y80.318 E53.75250 F3600
G0 X142.233 Y80.647 F7200
G1 X138.539 Y84.341 E54.01314 F3600
G0 X138.642 Y84.803 F7200
G1 X142.459 Y80.986 E54.28243 F3600
G0 X142.685 Y81.326 F7200
G1 X138.722 Y85.288 E54.56203 F3600
G0 X138.779 Y85.798 F7200
G1 X142.912 Y81.665 E54.85360 F3600
G0 X143.138 Y82.005 F7200
G1 X138.828 Y86.314 E55.15765 F3600
G0 X138.878 Y86.830 F7200
G1 X143.358 Y82.350 E55.47378 F3600
G0 X143.575 Y82.699 F7200
G1 X138.917 Y87.356 E55.80237 F3600
G0 X138.926 Y87.913 F7200
G1 X143.774 Y83.065 E56.14442 F3600
G0 X143.967 Y83.438 F7200
G1 X138.899 Y88.506 E56.50200 F3600
G0 X138.862 Y89.109 F7200
G1 X144.153 Y83.817 E56.87535 F3600
G0 X144.339 Y84.197 F7200
G1 X138.824 Y89.712 E57.26448 F3600
G0 X138.757 Y90.346 F7200
G1 X144.525 Y84.577 E57.67147 F3600
G0 X144.702 Y84.966 F7200
G1 X138.621 Y91.047 E58.10054 F3600
G0 X138.458 Y91.775 F7200
G1 X144.847 Y85.387 E58.55127 F3600
G0 X144.944 Y85.855 F7200
G1 X138.290 Y92.509 E59.02077 F3600
G0 X138.038 Y93.327 F7200
G1 X144.993 Y86.372 E59.51151 F3600
G0 X144.988 Y86.943 F7200
G1 X137.672 Y94.259 E60.02772 F3600
G0 X137.275 Y95.221 F7200
G1 X144.983 Y87.513 E60.57151 F3600
G0 X144.962 Y88.100 F7200
G1 X136.581 Y96.481 E61.16287 F3600
G0 X135.540 Y98.088 F7200
G1 X144.902 Y88.725 E61.82347 F3600
G0 X144.804 Y89.389 F7200
G1 X132.264 Y101.929 E62.70825 F3600
G0 X132.422 Y102.337 F7200
G1 X144.699 Y90.060 E63.57446 F3600
G0 X144.581 Y90.744 F7200
G1 X132.580 Y102.745 E64.42118 F3600
G0 X132.842 Y103.048 F7200
G1 X144.395 Y91.496 E65.23627 F3600
G0 X144.117 Y92.339 F7200
G1 X133.635 Y102.821 E65.97584 F3600
G0 X134.520 Y102.502 F7200
G1 X143.825 Y93.197 E66.63234 F3600
G0 X143.401 Y94.186 F7200
G1 X135.483 Y102.104 E67.19101 F3600
G0 X132.252 Y101.375 F7200
G1 X132.106 Y101.522 E67.20134 F3600
G0 X128.087 Y97.621 F7200
G1 X130.219 Y95.489 E67.35174 F3600
G0 X130.635 Y94.508 F7200
G1 X127.119 Y98.023 E67.59977 F3600
G0 X126.394 Y98.182 F7200
G1 X130.789 Y93.788 E67.90981 F3600
G0 X130.861 Y93.150 F7200
G1 X125.760 Y98.251 E68.26971 F3600
G0 X125.204 Y98.242 F7200
G1 X130.848 Y92.597 E68.66796 F3600
G0 X130.782 Y92.097 F7200
G1 X124.704 Y98.176 E69.09682 F3600
G0 X124.234 Y98.080 F7200
G1 X130.687 Y91.627 E69.55211 F3600
G0 X130.552 Y91.196 F7200
G1 X123.802 Y97.946 E70.02838 F3600
G0 X123.402 Y97.780 F7200
G1 X130.387 Y90.796 E70.52118 F3600
G0 X130.204 Y90.413 F7200
G1 X123.021 Y97.596 E71.02796 F3600
G0 X122.664 Y97.387 F7200
G1 X129.994 Y90.057 E71.54510 F3600
G0 X129.748 Y89.737 F7200
G1 X122.344 Y97.142 E72.06750 F3600
G0 X122.027 Y96.892 F7200
G1 X129.502 Y89.417 E72.59490 F3600
G0 X129.217 Y89.137 F7200
G1 X121.742 Y96.613 E73.12232 F3600
G0 X121.483 Y96.306 F7200
G1 X128.912 Y88.876 E73.64652 F3600
G0 X128.592 Y88.631 F7200
G1 X121.237 Y95.986 E74.16545 F3600
G0 X121.015 Y95.642 F7200
G1 X128.249 Y88.408 E74.67588 F3600
G0 X127.881 Y88.210 F7200
G1 X120.817 Y95.275 E75.17433 F3600
G0 X120.651 Y94.875 F7200
G1 X127.481 Y88.044 E75.65624 F3600
G0 X127.067 Y87.893 F7200
G1 X120.502 Y94.458 E76.11943 F3600
G0 X120.387 Y94.008 F7200
G1 X126.614 Y87.780 E76.55879 F3600
G0 X126.114 Y87.715 F7200
G1 X120.321 Y93.508 E76.96751 F3600
G0 X120.287 Y92.975 F7200
G1 X125.582 Y87.681 E77.34107 F3600
G0 X124.975 Y87.722 F7200
G1 X120.329 Y92.369 E77.66890 F3600
G0 X120.445 Y91.687 F7200
G1 X124.296 Y87.836 E77.94060 F3600
G0 X123.420 Y88.146 F7200
G1 X120.753 Y90.813 E78.12879 F3600
G0 X112.965 Y90.681 F7200
G1 X105.559 Y98.087 E78.65134 F3600
G0 X105.575 Y97.505 F7200
G1 X113.793 Y89.288 E79.23112 F3600
G0 X118.233 Y84.847 F7200
G1 X119.266 Y83.815 E79.30396 F3600
G0 X119.101 Y83.414 F7200
G1 X105.622 Y96.893 E80.25498 F3600
G0 X105.672 Y96.277 F7200
G1 X118.936 Y83.013 E81.19083 F3600
G0 X118.772 Y82.612 F7200
G1 X105.732 Y95.652 E82.11087 F3600
G0 X105.842 Y94.976 F7200
G1 X118.190 Y82.628 E82.98207 F3600
G0 X117.535 Y82.718 F7200
G1 X106.024 Y94.228 E83.79420 F3600
G0 X106.227 Y93.459 F7200
G1 X116.762 Y82.925 E84.53747 F3600
G0 X115.976 Y83.145 F7200
G1 X106.465 Y92.656 E85.20853 F3600
G0 X106.877 Y91.678 F7200
G1 X114.949 Y83.606 E85.77806 F3600
G0 X113.902 Y84.087 F7200
G1 X107.369 Y90.621 E86.23904 F3600
G0 X115.268 Y99.126 F7200
G1 X114.789 Y99.606 E86.27288 F3600
G0 X114.837 Y100.123 F7200
G1 X116.057 Y98.903 E86.35897 F3600
G0 X116.427 Y99.099 F7200
G1 X114.919 Y100.607 E86.46539 F3600
G0 X115.036 Y101.055 F7200
G1 X116.708 Y99.383 E86.58337 F3600
G0 X116.940 Y99.717 F7200
G1 X115.154 Y101.503 E86.70940 F3600
G0 X115.271 Y101.951 F7200
G1 X117.158 Y100.065 E86.84251 F3600
G0 X117.386 Y100.403 F7200
G1 X115.440 Y102.348 E86.97980 F3600
G0 X115.612 Y102.742 F7200
G1 X117.631 Y100.724 E87.12220 F3600
G0 X117.889 Y101.031 F7200
G1 X115.787 Y103.132 E87.27048 F3600
G0 X115.962 Y103.523 F7200
G1 X118.154 Y101.331 E87.42516 F3600
G0 X118.420 Y101.632 F7200
G1 X116.137 Y103.914 E87.58620 F3600
G0 X116.321 Y104.295 F7200
G1 X118.685 Y101.932 E87.75295 F3600
G0 X118.955 Y102.227 F7200
G1 X116.518 Y104.665 E87.92493 F3600
G0 X116.732 Y105.016 F7200
G1 X119.236 Y102.512 E88.10161 F3600
G0 X119.533 Y102.781 F7200
G1 X116.958 Y105.356 E88.28330 F3600
G0 X117.186 Y105.694 F7200
G1 X119.842 Y103.038 E88.47066 F3600
G0 X120.151 Y103.294 F7200
G1 X117.414 Y106.031 E88.66376 F3600
G0 X117.642 Y106.369 F7200
G1 X120.460 Y103.551 E88.86257 F3600
G0 X120.769 Y103.807 F7200
G1 X117.883 Y106.693 E89.06620 F3600
G0 X118.136 Y107.006 F7200
G1 X121.091 Y104.051 E89.27467 F3600
G0 X121.428 Y104.280 F7200
G1 X118.401 Y107.307 E89.48825 F3600
G0 X118.679 Y107.594 F7200
G1 X121.777 Y104.497 E89.70681 F3600
G0 X122.131 Y104.708 F7200
G1 X118.957 Y107.882 E89.93073 F3600
G0 X119.235 Y108.170 F7200
G1 X122.485 Y104.920 E90.16002 F3600
G0 X122.839 Y105.132 F7200
G1 X119.513 Y108.457 E90.39467 F3600
G0 X119.806 Y108.731 F7200
G1 X123.203 Y105.334 E90.63434 F3600
G0 X123.581 Y105.521 F7200
G1 X120.110 Y108.992 E90.87924 F3600
G0 X120.426 Y109.242 F7200
G1 X123.975 Y105.692 E91.12965 F3600
G0 X124.378 Y105.856 F7200
G1 X120.754 Y109.480 E91.38535 F3600
G0 X121.081 Y109.718 F7200
G1 X124.780 Y106.019 E91.64632 F3600
G0 X125.182 Y106.183 F7200
G1 X121.409 Y109.956 E91.91256 F3600
G0 X121.739 Y110.192 F7200
G1 X125.595 Y106.335 E92.18467 F3600
G0 X126.028 Y106.469 F7200
G1 X122.081 Y110.415 E92.46312 F3600
G0 X122.441 Y110.621 F7200
G1 X126.478 Y106.584 E92.74793 F3600
G0 X126.935 Y106.693 F7200
G1 X122.811 Y110.816 E93.03887 F3600
G0 X123.191 Y111.002 F7200
G1 X127.393 Y106.801 E93.33528 F3600
G0 X127.853 Y106.906 F7200
G1 X123.571 Y111.188 E93.63734 F3600
G0 X123.951 Y111.373 F7200
G1 X128.332 Y106.993 E93.94640 F3600
G0 X128.839 Y107.051 F7200
G1 X124.341 Y111.550 E94.26382 F3600
G0 X124.743 Y111.713 F7200
G1 X129.364 Y107.092 E94.58984 F3600
G0 X129.888 Y107.134 F7200
G1 X125.165 Y111.857 E94.92306 F3600
G0 X125.603 Y111.984 F7200
G1 X130.415 Y107.172 E95.26257 F3600
G0 X130.971 Y107.182 F7200
G1 X126.042 Y112.111 E95.61033 F3600
G0 X126.481 Y112.238 F7200
G1 X131.566 Y107.153 E95.96910 F3600
G0 X132.177 Y107.107 F7200
G1 X126.928 Y112.356 E96.33945 F3600
G0 X127.393 Y112.457 F7200
G1 X132.788 Y107.062 E96.72012 F3600
G0 X133.427 Y106.989 F7200
G1 X127.883 Y112.532 E97.11125 F3600
G0 X128.394 Y112.587 F7200
G1 X134.137 Y106.844 E97.51643 F3600
G0 X134.873 Y106.674 F7200
G1 X128.905 Y112.642 E97.93749 F3600
G0 X129.416 Y112.697 F7200
G1 X135.621 Y106.492 E98.37524 F3600
G0 X136.470 Y106.209 F7200
G1 X129.944 Y112.735 E98.83567 F3600
G0 X130.503 Y112.742 F7200
G1 X137.413 Y105.831 E99.32323 F3600
G0 X138.424 Y105.386 F7200
G1 X131.091 Y112.719 E99.84068 F3600
G0 X131.681 Y112.695 F7200
G1 X139.754 Y104.622 E100.41026 F3600
G0 X141.156 Y106.614 F7200
G1 X140.062 Y107.708 E100.48742 F3600
G0 X139.428 Y111.736 F7200
G1 X136.711 Y114.453 E100.67913 F3600
G0 X137.926 Y113.803 F7200
G1 X146.298 Y105.431 E101.26983 F3600
G0 X146.244 Y103.789 F7200
G1 X148.040 Y101.993 E101.39654 F3600
G0 X147.597 Y103.001 F7200
G1 X145.471 Y105.127 E101.54655 F3600
G0 X141.602 Y97.117 F7200
G1 X138.329 Y100.390 E101.77750 F3600
G0 X136.766 Y101.387 F7200
G1 X142.736 Y95.417 E102.19872 F3600
G0 X141.413 Y103.528 F7200
G1 X132.308 Y112.633 E102.84116 F3600
G0 X133.079 Y112.428 F7200
G1 X141.708 Y103.799 E103.44993 F3600
G0 X142.002 Y104.071 F7200
G1 X134.131 Y111.942 E104.00528 F3600
G0 X135.287 Y111.351 F7200
G1 X142.296 Y104.342 E104.49977 F3600
G0 X142.590 Y104.614 F7200
G1 X136.850 Y110.354 E104.90479 F3600
G0 X113.259 Y110.186 F7200
G1 X114.537 Y108.908 E104.99498 F3600
G0 X114.299 Y108.580 F7200
G1 X112.932 Y109.948 E105.09147 F3600
G0 X112.604 Y109.710 F7200
G1 X114.061 Y108.253 E105.19426 F3600
G0 X113.823 Y107.925 F7200
G1 X112.287 Y109.461 E105.30263 F3600
G0 X111.984 Y109.199 F7200
G1 X113.597 Y107.585 E105.41647 F3600
G0 X113.384 Y107.233 F7200
G1 X111.680 Y108.937 E105.53671 F3600
G0 X111.376 Y108.675 F7200
G1 X113.171 Y106.881 E105.66334 F3600
G0 X112.960 Y106.526 F7200
G1 X111.076 Y108.410 E105.79627 F3600
G0 X110.792 Y108.128 F7200
G1 X112.759 Y106.160 E105.93512 F3600
G0 X112.579 Y105.775 F7200
G1 X110.514 Y107.840 E106.08086 F3600
G0 X110.246 Y107.542 F7200
G1 X112.412 Y105.376 E106.23367 F3600
G0 X112.246 Y104.976 F7200
G1 X109.979 Y107.244 E106.39365 F3600
G0 X109.711 Y106.946 F7200
G1 X112.080 Y104.577 E106.56080 F3600
G0 X111.918 Y104.173 F7200
G1 X109.444 Y106.647 E106.73535 F3600
G0 X109.177 Y106.349 F7200
G1 X111.769 Y103.757 E106.91826 F3600
G0 X111.642 Y103.318 F7200
G1 X108.919 Y106.041 E107.11040 F3600
G0 X108.668 Y105.727 F7200
G1 X111.531 Y102.863 E107.31243 F3600
G0 X111.420 Y102.409 F7200
G1 X108.430 Y105.399 E107.52339 F3600
G0 X108.201 Y105.062 F7200
G1 X111.309 Y101.954 E107.74265 F3600
G0 X111.209 Y101.489 F7200
G1 X107.976 Y104.722 E107.97076 F3600
G0 X107.750 Y104.382 F7200
G1 X111.132 Y100.999 E108.20940 F3600
G0 X111.081 Y100.485 F7200
G1 X107.524 Y104.041 E108.46030 F3600
G0 X107.303 Y103.697 F7200
G1 X111.036 Y99.964 E108.72369 F3600
G0 X110.991 Y99.443 F7200
G1 X107.086 Y103.348 E108.99918 F3600
G0 X106.885 Y102.984 F7200
G1 X110.959 Y98.910 E109.28665 F3600
G0 X110.962 Y98.341 F7200
G1 X106.690 Y102.613 E109.58804 F3600
G0 X106.502 Y102.236 F7200
G1 X111.000 Y97.738 E109.90540 F3600
G0 X111.041 Y97.130 F7200
G1 X106.313 Y101.858 E110.23900 F3600
G0 X106.125 Y101.481 F7200
G1 X111.090 Y96.516 E110.58934 F3600
G0 X111.186 Y95.854 F7200
G1 X105.954 Y101.086 E110.95853 F3600
G0 X105.802 Y100.673 F7200
G1 X111.343 Y95.132 E111.34947 F3600
G0 X111.508 Y94.401 F7200
G1 X105.707 Y100.202 E111.75874 F3600
G0 X105.651 Y99.692 F7200
G1 X111.706 Y93.637 E112.18596 F3600
G0 X112.041 Y92.737 F7200
G1 X105.614 Y99.163 E112.63937 F3600
G0 X105.577 Y98.635 F7200
G1 X112.410 Y91.802 E113.12145 F3600
G0 X108.262 Y89.162 F7200
G1 X112.432 Y84.991 E113.41570 F3600
G0 X111.589 Y81.309 F7200
G1 X119.660 Y73.239 E113.98513 F3600
G0 X119.048 Y73.285 F7200
G1 X109.917 Y82.416 E114.62940 F3600
G0 X108.392 Y83.375 F7200
G1 X118.436 Y73.331 E115.33810 F3600
G0 X117.767 Y73.435 F7200
G1 X107.890 Y83.312 E116.03499 F3600
G0 X107.714 Y82.922 F7200
G1 X116.913 Y73.723 E116.68401 F3600
G0 X115.751 Y74.319 F7200
G1 X107.538 Y82.532 E117.26346 F3600
G0 X103.129 Y85.244 F7200
G1 X103.840 Y84.533 E117.31361 F3600
G0 X103.476 Y85.463 F7200
G1 X102.883 Y86.056 E117.35543 F3600
G0 X102.636 Y86.868 F7200
G1 X103.202 Y86.302 E117.39532 F3600
G0 X103.010 Y87.060 F7200
G1 X102.390 Y87.680 E117.43903 F3600
G0 X102.144 Y88.492 F7200
G1 X102.842 Y87.793 E117.48830 F3600
G0 X102.675 Y88.526 F7200
G1 X102.075 Y89.126 E117.53065 F3600
G0 X102.311 Y89.173 F7200
G1 X102.194 Y90.139 E117.65196 F3600
G1 X102.134 Y90.764 E117.73032
G1 X102.080 Y91.384 E117.80788
G1 X102.027 Y92.003 E117.88544
G1 X101.974 Y92.621 E117.96282
G1 X101.961 Y93.200 E118.03503
G1 X101.994 Y93.732 E118.10155
G1 X102.036 Y94.256 E118.16707
G1 X102.082 Y94.776 E118.23225
G1 X102.127 Y95.297 E118.29742
G1 X102.172 Y95.818 E118.36260
G1 X102.223 Y96.332 E118.42704
G1 X102.283 Y96.838 E118.49057
G1 X102.353 Y97.334 E118.55306
G1 X102.446 Y97.807 E118.61315
G1 X102.564 Y98.254 E118.67086
G1 X102.682 Y98.701 E118.72857
G1 X102.801 Y99.148 E118.78628
G1 X102.922 Y99.592 E118.84370
G1 X103.049 Y100.032 E118.90070
G1 X103.187 Y100.460 E118.95678
G1 X103.328 Y100.884 E119.01256
G1 X103.474 Y101.304 E119.06802
G1 X103.619 Y101.724 E119.12347
G1 X103.765 Y102.144 E119.17893
G1 X103.943 Y102.532 E119.23213
G1 X104.125 Y102.916 E119.28511
G1 X104.310 Y103.296 E119.33789
G1 X104.505 Y103.667 E119.39012
G1 X104.703 Y104.035 E119.44221
G1 X104.905 Y104.398 E119.49410
G1 X105.107 Y104.762 E119.54599
G1 X105.309 Y105.126 E119.59788
G1 X105.511 Y105.489 E119.64977
G1 X105.714 Y105.852 E119.70160
G1 X105.922 Y106.209 E119.75319
G1 X106.157 Y106.541 E119.80381
G1 X106.404 Y106.859 E119.85410
G1 X106.656 Y107.173 E119.90429
G1 X106.909 Y107.486 E119.95446
G1 X107.162 Y107.798 E120.00463
G1 X107.415 Y108.111 E120.05480
G1 X107.668 Y108.424 E120.10497
G1 X107.924 Y108.733 E120.15508
G1 X108.183 Y109.040 E120.20515
G1 X108.450 Y109.339 E120.25512
G1 X108.719 Y109.635 E120.30507
G1 X108.993 Y109.927 E120.35498
G1 X109.295 Y110.190 E120.40498
G1 X109.597 Y110.454 E120.45499
G1 X109.899 Y110.717 E120.50499
G1 X110.201 Y110.981 E120.55499
G1 X110.508 Y111.240 E120.60506
G1 X110.818 Y111.496 E120.65517
G1 X111.135 Y111.744 E120.70544
G1 X111.455 Y111.990 E120.75576
G1 X111.779 Y112.232 E120.80617
G0 X111.819 Y112.758 F7200
G1 X112.386 Y112.191 E120.84616 F3600
G0 X112.722 Y112.420 F7200
G1 X112.130 Y113.013 E120.88796 F3600
G0 X112.457 Y113.251 F7200
G1 X113.059 Y112.649 E120.93044 F3600
G0 X113.397 Y112.876 F7200
G1 X112.825 Y113.449 E120.97081 F3600
G0 X113.288 Y113.269 F7200
G1 X113.834 Y113.571 E121.04869 F3600
G1 X114.203 Y113.768 E121.10083
G1 X114.578 Y113.959 E121.15330
G0 X114.668 Y114.434 F7200
G1 X115.238 Y113.864 E121.19347 F3600
G0 X115.620 Y114.048 F7200
G1 X115.037 Y114.631 E121.23458 F3600
G0 X115.406 Y114.828 F7200
G1 X116.001 Y114.232 E121.27661 F3600
G0 X116.383 Y114.416 F7200
G1 X115.774 Y115.025 E121.31957 F3600
G0 X116.143 Y115.222 F7200
G1 X116.777 Y114.588 E121.36432 F3600
G0 X117.180 Y114.751 F7200
G1 X116.512 Y115.419 E121.41143 F3600
G0 X116.946 Y115.550 F7200
G1 X117.597 Y114.899 E121.45738 F3600
G0 X118.027 Y115.035 F7200
G1 X117.380 Y115.682 E121.50301 F3600
G0 X117.814 Y115.814 F7200
G1 X118.459 Y115.169 E121.54851 F3600
G0 X118.891 Y115.302 F7200
G1 X118.248 Y115.945 E121.59389 F3600
G0 X118.682 Y116.077 F7200
G1 X119.324 Y115.435 E121.63914 F3600
G0 X119.757 Y115.568 F7200
G1 X119.116 Y116.208 E121.68436 F3600
G0 X119.550 Y116.340 F7200
G1 X120.205 Y115.685 E121.73056 F3600
G0 X120.669 Y115.787 F7200
G1 X119.984 Y116.472 E121.77886 F3600
G0 X120.418 Y116.603 F7200
G1 X121.147 Y115.875 E121.83025 F3600
G0 X121.638 Y115.949 F7200
G1 X120.852 Y116.735 E121.88569 F3600
G0 X121.336 Y116.817 F7200
G1 X122.130 Y116.023 E121.94167 F3600
G0 X122.621 Y116.098 F7200
G1 X121.851 Y116.868 E121.99599 F3600
G0 X122.366 Y116.918 F7200
G1 X123.113 Y116.172 E122.04868 F3600
G0 X123.622 Y116.229 F7200
G1 X122.881 Y116.969 E122.10092 F3600
G0 X123.396 Y117.020 F7200
G1 X124.151 Y116.264 E122.15421 F3600
G0 X124.702 Y116.279 F7200
G1 X123.911 Y117.070 E122.21004 F3600
G0 X124.426 Y117.121 F7200
G1 X125.268 Y116.279 E122.26945 F3600
G0 X125.834 Y116.279 F7200
G1 X124.941 Y117.172 E122.33244 F3600
G0 X125.456 Y117.223 F7200
G1 X126.399 Y116.279 E122.39901 F3600
G0 X126.979 Y116.265 F7200
G1 X126.028 Y117.216 E122.46609 F3600
G0 X126.656 Y117.154 F7200
G1 X127.588 Y116.222 E122.53187 F3600
G0 X128.234 Y116.141 F7200
G1 X127.283 Y117.092 E122.59895 F3600
G0 X127.911 Y117.030 F7200
G1 X128.900 Y116.041 E122.66875 F3600
G0 X129.566 Y115.941 F7200
G1 X128.538 Y116.969 E122.74129 F3600
G0 X129.166 Y116.907 F7200
G1 X130.239 Y115.833 E122.81702 F3600
G0 X130.957 Y115.681 F7200
G1 X129.793 Y116.845 E122.89912 F3600
G0 X130.428 Y116.776 F7200
G1 X131.745 Y115.459 E122.99200 F3600
G0 X132.563 Y115.207 F7200
G1 X131.240 Y116.530 E123.08531 F3600
G0 X132.052 Y116.283 F7200
G1 X133.381 Y114.955 E123.17906 F3600
G0 X134.271 Y114.630 F7200
G1 X132.864 Y116.037 E123.27833 F3600
G0 X133.676 Y115.791 F7200
G1 X135.318 Y114.149 E123.39418 F3600
G0 X136.409 Y113.623 F7200
G1 X134.488 Y115.544 E123.52973 F3600
G0 X135.496 Y115.102 F7200
G1 X137.677 Y112.921 E123.68363 F3600
G0 X139.271 Y113.025 F7200
G1 X145.519 Y106.776 E124.12451 F3600
G0 X142.931 Y109.930 F7200
G1 X142.425 Y110.436 E124.16023 F3600
G0 X144.341 Y106.823 F7200
G1 X146.948 Y104.216 E124.34416 F3600
G0 X146.801 Y102.666 F7200
G1 X148.286 Y101.181 E124.44894 F3600
G0 X148.532 Y100.369 F7200
G1 X147.181 Y101.720 E124.54426 F3600
G0 X147.547 Y100.788 F7200
G1 X148.779 Y99.557 E124.63116 F3600
G0 X149.025 Y98.745 F7200
G1 X147.867 Y99.903 E124.71288 F3600
G0 X148.080 Y99.124 F7200
G1 X149.271 Y97.933 E124.79695 F3600
G0 X149.340 Y97.298 F7200
G1 X148.247 Y98.391 E124.87408 F3600
G0 X148.414 Y97.658 F7200
G1 X149.402 Y96.671 E124.94378 F3600
G0 X149.464 Y96.043 F7200
G1 X148.572 Y96.935 E125.00672 F3600
G0 X148.684 Y96.257 F7200
G1 X149.526 Y95.416 E125.06609 F3600
G0 X149.587 Y94.788 F7200
G1 X148.752 Y95.624 E125.12505 F3600
G0 X148.798 Y95.012 F7200
G1 X149.649 Y94.161 E125.18514 F3600
G0 X149.711 Y93.533 F7200
G1 X148.843 Y94.401 E125.24635 F3600
G0 X148.889 Y93.789 F7200
G1 X149.718 Y92.961 E125.30482 F3600
G0 X149.667 Y92.446 F7200
G1 X148.915 Y93.198 E125.35789 F3600
G0 X148.912 Y92.636 F7200
G1 X149.616 Y91.931 E125.40762 F3600
G0 X149.566 Y91.416 F7200
G1 X148.886 Y92.096 E125.45561 F3600
G0 X148.846 Y91.570 F7200
G1 X149.515 Y90.901 E125.50280 F3600
G0 X149.464 Y90.386 F7200
G1 X148.807 Y91.043 E125.54919 F3600
G0 X148.767 Y90.517 F7200
G1 X149.414 Y89.871 E125.59480 F3600
G0 X149.363 Y89.356 F7200
G1 X148.722 Y89.997 E125.64004 F3600
G0 X148.662 Y89.491 F7200
G1 X149.312 Y88.841 E125.68588 F3600
G0 X149.230 Y88.357 F7200
G1 X148.574 Y89.013 E125.73217 F3600
G0 X148.476 Y88.546 F7200
G1 X149.099 Y87.923 E125.77611 F3600
G0 X148.967 Y87.489 F7200
G1 X148.371 Y88.085 E125.81817 F3600
G0 X148.266 Y87.625 F7200
G1 X148.835 Y87.055 E125.85836 F3600
G0 X148.492 Y87.116 F7200
G1 X148.313 Y86.446 E125.94485 F3600
G1 X148.187 Y86.007 E126.00185
G1 X148.053 Y85.574 E126.05826
G1 X147.914 Y85.148 E126.11423
G1 X147.769 Y84.728 E126.16969
G0 X147.914 Y84.017 F7200
G1 X147.332 Y84.598 E126.21071 F3600
G0 X147.534 Y84.114 F7200
G1 X147.267 Y83.532 E126.29050 F3600
G1 X147.087 Y83.146 E126.34361
G1 X146.902 Y82.766 E126.39639
G1 X146.711 Y82.392 E126.44882
G1 X146.515 Y82.022 E126.50103
G1 X146.313 Y81.658 E126.55292
G1 X146.111 Y81.294 E126.60480
G1 X145.909 Y80.931 E126.65669
G1 X145.707 Y80.567 E126.70858
G1 X145.505 Y80.203 E126.76047
G1 X145.277 Y79.866 E126.81128
G1 X145.037 Y79.539 E126.86176
G1 X144.791 Y79.220 E126.91206
G1 X144.540 Y78.905 E126.96228
G1 X144.287 Y78.592 E127.01245
G1 X144.035 Y78.279 E127.06261
G1 X143.782 Y77.967 E127.11279
G1 X143.529 Y77.654 E127.16296
G1 X143.274 Y77.342 E127.21310
G1 X143.016 Y77.036 E127.26317
G1 X142.752 Y76.734 E127.31317
G1 X142.483 Y76.436 E127.36313
G1 X142.182 Y76.172 E127.41312
G1 X141.880 Y75.908 E127.46313
G1 X141.578 Y75.644 E127.51313
G1 X141.276 Y75.381 E127.56313
G1 X140.974 Y75.117 E127.61314
G1 X140.669 Y74.856 E127.66318
G1 X140.361 Y74.599 E127.71326
G1 X140.046 Y74.348 E127.76348
G1 X139.728 Y74.101 E127.81376
G1 X139.404 Y73.859 E127.86416
G1 X139.081 Y73.617 E127.91456
G1 X138.749 Y73.383 E127.96518
G1 X138.397 Y73.169 E128.01656
G1 X138.044 Y72.956 E128.06793
G1 X137.686 Y72.748 E128.11955
G1 X137.325 Y72.544 E128.17131
G1 X136.957 Y72.347 E128.22345
G1 X136.584 Y72.154 E128.27579
G1 X136.209 Y71.963 E128.32828
G1 X135.833 Y71.773 E128.38077
G1 X135.458 Y71.582 E128.43326
G1 X135.083 Y71.392 E128.48575
G1 X134.704 Y71.205 E128.53845
G1 X134.289 Y71.054 E128.59349
G1 X133.864 Y70.914 E128.64937
G1 X133.434 Y70.778 E128.70554
G1 X133.001 Y70.645 E128.76204
G1 X132.568 Y70.513 E128.81854
G1 X132.135 Y70.380 E128.87505
G1 X131.702 Y70.248 E128.93155
G1 X131.263 Y70.121 E128.98853
G1 X130.818 Y70.000 E129.04599
G1 X130.364 Y69.888 E129.10431
G1 X129.878 Y69.809 E129.16580
G1 X129.374 Y69.746 E129.22905
G1 X128.871 Y69.684 E129.29230
G1 X128.368 Y69.622 E129.35498
G1 X127.859 Y69.564 E129.41354
G1 X127.343 Y69.516 E129.46986
G1 X126.813 Y69.479 E129.52684
G1 X126.273 Y69.454 E129.58881
G1 X125.733 Y69.428 E129.65627
G1 X125.164 Y69.432 E129.72725
G1 X124.564 Y69.465 E129.80212
G1 X123.954 Y69.510 E129.87085
G1 X123.322 Y69.576 E129.93365
G1 X122.675 Y69.657 E129.99782
G1 X122.029 Y69.738 E130.06879
G1 X121.382 Y69.819 E130.14658
G1 X120.716 Y69.919 E130.23048
G1 X119.928 Y70.141 E130.32593
G1 X119.113 Y70.391 E130.41292
G1 X118.298 Y70.640 E130.50096
G1 X117.467 Y70.906 E130.59006
G0 X116.927 Y70.880 F7200
G1 X116.202 Y71.605 E130.64122 F3600
G0 X115.111 Y72.131 F7200
G1 X115.919 Y71.322 E130.69824 F3600
G0 X114.704 Y71.972 F7200
G1 X113.966 Y72.710 E130.75027 F3600
G0 X114.424 Y75.080 F7200
G1 X107.455 Y82.049 E131.24196 F3600
G0 X108.814 Y80.124 F7200
G1 X112.613 Y76.326 E131.50993 F3600
; ------------------------------------
; Layer #4
; ------------------------------------
G92 E0 ;reset extr
G0 F3000 E-1.00000
G0 F600 Z2.500
G0 X127.055 Y74.152 F7200
G0 F3000 E0.00000
;segType:Infill
G1 X122.723 Y69.821 E0.36673 F4500
G0 X121.111 Y72.735 F7200
G1 X118.981 Y70.604 E0.54710 F4500
G0 X116.994 Y73.143 F7200
G1 X115.699 Y71.847 E0.65675 F4500
G0 X114.028 Y74.702 F7200
G1 X112.792 Y73.466 E0.76141 F4500
G0 X110.215 Y75.415 F7200
G1 X111.419 Y76.619 E0.86333 F4500
G0 X109.150 Y78.875 F7200
G1 X107.950 Y77.675 E0.96490 F4500
G0 X107.971 Y76.185 F7200
;segType:Perimeter
G1 X108.218 Y75.639 E0.99484 F2160
G1 X111.930 Y72.593 E1.23438
G1 X116.217 Y70.301 E1.47692
G1 X120.870 Y68.890 E1.71947
G1 X125.708 Y68.413 E1.96201
G1 X130.545 Y68.890 E2.20454
G1 X135.198 Y70.301 E2.44709
G1 X139.485 Y72.592 E2.68961
G1 X143.243 Y75.677 E2.93215
G1 X146.327 Y79.435 E3.17472
G1 X148.619 Y83.722 E3.41724
G1 X150.030 Y88.374 E3.65978
G1 X150.506 Y93.212 E3.90231
G1 X150.030 Y98.050 E4.14485
G1 X148.619 Y102.702 E4.38739
G1 X146.327 Y106.990 E4.62991
G1 X143.243 Y110.748 E4.87248
G1 X139.485 Y113.832 E5.11502
G1 X135.198 Y116.123 E5.35754
G1 X130.546 Y117.535 E5.60008
G1 X125.708 Y118.011 E5.84262
G1 X120.870 Y117.535 E6.08516
G1 X116.217 Y116.123 E6.32771
G1 X111.930 Y113.832 E6.57023
G1 X108.172 Y110.748 E6.81278
G1 X105.088 Y106.990 E7.05530
G1 X102.796 Y102.702 E7.29785
G1 X101.385 Y98.050 E7.54039
G1 X100.909 Y93.212 E7.78293
G1 X101.385 Y88.374 E8.02547
G1 X102.796 Y83.722 E8.26801
G1 X105.088 Y79.435 E8.51053
G1 X108.134 Y75.723 E8.75008
G0 X108.218 Y75.639 F7200
G0 X109.455 Y74.624
G0 X109.276 Y75.288
;segType:Loop
G1 X112.153 Y72.927 E8.93578 F3600
G1 X116.371 Y70.672 E9.17438
G1 X120.948 Y69.284 E9.41298
G1 X125.708 Y68.815 E9.65162
G1 X130.467 Y69.284 E9.89020
G1 X135.044 Y70.673 E10.12884
G1 X139.261 Y72.927 E10.36740
G1 X142.959 Y75.961 E10.60603
G1 X145.993 Y79.658 E10.84465
G1 X148.247 Y83.876 E11.08325
G1 X149.636 Y88.453 E11.32187
G1 X150.105 Y93.212 E11.56045
G1 X149.636 Y97.972 E11.79909
G1 X148.247 Y102.549 E12.03769
G1 X145.993 Y106.766 E12.27626
G1 X142.959 Y110.464 E12.51490
G1 X139.261 Y113.498 E12.75353
G1 X135.044 Y115.752 E12.99211
G1 X130.467 Y117.140 E13.23072
G1 X125.708 Y117.609 E13.46933
G1 X120.948 Y117.140 E13.70793
G1 X116.371 Y115.752 E13.94655
G1 X112.153 Y113.498 E14.18514
G1 X108.456 Y110.464 E14.42376
G1 X105.422 Y106.767 E14.66235
G1 X103.168 Y102.549 E14.90097
G1 X101.779 Y97.972 E15.13958
G1 X101.310 Y93.212 E15.37819
G1 X101.779 Y88.453 E15.61679
G1 X103.168 Y83.876 E15.85540
G1 X105.422 Y79.658 E16.09399
G1 X108.456 Y75.961 E16.33262
G1 X109.121 Y75.415 E16.37554
G0 F3000 E15.37554
G0 X106.002 Y80.253 F7200
G0 F3000 E16.37554
;segType:Infill
G1 X107.224 Y81.474 E16.47894 F4500
G0 X104.390 Y83.166 F7200
G1 X105.621 Y84.397 E16.58317 F4500
G0 X109.317 Y83.568 F7200
G1 X111.063 Y85.313 E16.73092 F4500
G0 X107.076 Y85.852 F7200
G1 X108.775 Y87.551 E16.87474 F4500
G0 X106.957 Y90.259 F7200
G1 X103.159 Y86.460 E17.19636 F4500
G0 X102.401 Y90.228 F7200
G1 X105.669 Y93.496 E17.47303 F4500
G0 X102.324 Y94.676 F7200
G1 X105.048 Y97.400 E17.70368 F4500
G0 X103.414 Y100.292 F7200
G1 X106.498 Y103.376 E17.96478 F4500
G0 X112.962 Y105.315 F7200
G1 X123.901 Y116.254 E18.89097 F4500
G0 X118.215 Y115.093 F7200
G1 X114.947 Y111.825 E19.16767 F4500
G0 X115.126 Y102.953 F7200
G1 X111.516 Y99.343 E19.47332 F4500
G0 X111.877 Y95.178 F7200
G1 X113.925 Y97.226 E19.64671 F4500
G0 X119.869 Y94.119 F7200
G1 X114.693 Y88.944 E20.08489 F4500
G0 X116.862 Y86.587 F7200
G1 X120.464 Y90.189 E20.38990 F4500
G0 X113.000 Y91.776 F7200
G1 X127.505 Y106.281 E21.61801 F4500
G0 X124.271 Y112.098 F7200
G1 X128.304 Y116.131 E21.95942 F4500
G0 X129.965 Y113.266 F7200
G1 X132.060 Y115.362 E22.13687 F4500
G0 X133.868 Y112.644 F7200
G1 X135.355 Y114.131 E22.26275 F4500
G0 X136.791 Y111.042 F7200
G1 X138.273 Y112.523 E22.38820 F4500
G0 X140.860 Y110.585 F7200
G1 X139.378 Y109.103 E22.51368 F4500
G0 X136.067 Y105.792 F7200
G1 X133.646 Y103.371 E22.71866 F4500
G0 X136.794 Y101.994 F7200
G1 X139.153 Y104.353 E22.91844 F4500
G0 X141.622 Y106.821 F7200
G1 X143.135 Y108.335 E23.04660 F4500
G0 X145.091 Y105.765 F7200
G1 X143.543 Y104.218 E23.17759 F4500
G0 X146.714 Y102.863 F7200
G1 X141.698 Y97.847 E23.60224 F4500
G0 X139.461 Y100.135 F7200
G1 X141.784 Y102.458 E23.79891 F4500
G0 X147.958 Y99.581 F7200
G1 X143.501 Y95.125 E24.17626 F4500
G0 X144.821 Y91.919 F7200
G1 X148.734 Y95.832 E24.50754 F4500
G0 X148.834 Y91.406 F7200
G1 X145.492 Y88.064 E24.79052 F4500
G0 X147.805 Y85.852 F7200
G1 X143.413 Y81.460 E25.16233 F4500
G0 X138.184 Y85.282 F7200
G1 X135.207 Y82.304 E25.41445 F4500
G0 X136.795 Y74.842 F7200
G1 X132.732 Y70.779 E25.75842 F4500
G0 X130.923 Y73.495 F7200
G1 X127.101 Y69.674 E26.08199 F4500
G0 X123.954 Y80.103 F7200
G1 X137.387 Y93.536 E27.21930 F4500
G0 X138.273 Y89.896 F7200
G1 X136.608 Y88.232 E27.36024 F4500
G0 X131.299 Y91.973 F7200
G1 X135.905 Y96.579 E27.75025 F4500
G0 X133.955 Y99.155 F7200
G1 X130.633 Y95.832 E28.03158 F4500
G0 X128.352 Y98.078 F7200
G1 X131.546 Y101.271 E28.30193 F4500
G0 X132.314 Y106.564 F7200
G1 X124.421 Y98.672 E28.97018 F4500
G0 X126.567 Y87.241 F7200
G1 X121.861 Y82.536 E29.36859 F4500
G0 X122.707 Y87.907 F7200
G1 X119.460 Y84.660 E29.64350 F4500
G0 X121.089 Y81.763 F7200
G1 X118.973 Y79.647 E29.82268 F4500
G0 X117.105 Y82.305 F7200
G1 X115.129 Y80.329 E29.98995 F4500
G0 X113.815 Y83.540 F7200
G1 X111.982 Y81.707 E30.14519 F4500
G0 F3000 E29.14519
G0 X105.324 Y85.231 F7200
G0 F3000 E30.14519
;segType:HShell
G1 X105.941 Y85.848 E30.18871 F3600
G0 X106.727 Y86.069 F7200
G1 X105.473 Y84.814 E30.27725 F3600
G0 X105.621 Y84.397 F7200
G1 X107.076 Y85.852 E30.37989 F3600
G0 X107.349 Y85.559 F7200
G1 X105.799 Y84.009 E30.48925 F3600
G0 X105.989 Y83.634 F7200
G1 X107.608 Y85.253 E30.60351 F3600
G0 X107.873 Y84.953 F7200
G1 X106.190 Y83.269 E30.72231 F3600
G0 X106.395 Y82.908 F7200
G1 X108.145 Y84.658 E30.84579 F3600
G0 X108.416 Y84.364 F7200
G1 X106.602 Y82.550 E30.97378 F3600
G0 X106.809 Y82.191 F7200
G1 X108.702 Y84.084 E31.10735 F3600
G0 X109.006 Y83.822 F7200
G1 X107.016 Y81.833 E31.24774 F3600
G0 X107.224 Y81.474 F7200
G1 X109.317 Y83.568 E31.39548 F3600
G0 X109.629 Y83.314 F7200
G1 X107.437 Y81.122 E31.55017 F3600
G0 X107.659 Y80.778 F7200
G1 X109.941 Y83.060 E31.71118 F3600
G0 X110.252 Y82.806 F7200
G1 X107.895 Y80.449 E31.87748 F3600
G0 X108.138 Y80.126 F7200
G1 X110.576 Y82.564 E32.04945 F3600
G0 X110.914 Y82.336 F7200
G1 X108.391 Y79.813 E32.22747 F3600
G0 X108.644 Y79.501 F7200
G1 X111.266 Y82.122 E32.41245 F3600
G0 X111.624 Y81.915 F7200
G1 X108.897 Y79.188 E32.60483 F3600
G0 X109.150 Y78.875 F7200
G1 X111.982 Y81.707 E32.80463 F3600
G0 X112.340 Y81.499 F7200
G1 X109.410 Y78.569 E33.01136 F3600
G0 X109.674 Y78.268 F7200
G1 X112.706 Y81.300 E33.22530 F3600
G0 X113.088 Y81.116 F7200
