; #disp params :
; Printmode:0
; Layer:39
; Xmin:89.764 mm
; Xmax:170.038 mm
; XDimension:80.274 mm
; Ymin:59.972 mm
; Ymax:140.104 mm
; YDimension:80.132 mm
; Zmax:5 mm
; E0diam:0.4 mm
; E0len:4.66616 m
; E0temp:215 C
; Bedtemp:215 C
; Time:94.6719 min
; #params end
; GCode generated by CraftWare

G28 X Y ; home horizontally
G28 Z ; home vertically


M104 S215 ;set head temp (no wait)
M190 S60 ;set bed temp (wait)
M109 S215 ;set head temp (wait)

; ------------------------------------
; Raft Layer #0
; ------------------------------------
M106 S0 ;turn off fan
G21 ; mm
G90 ; abs
G92 E0 ;reset extr
G0 F600 Z0.300
;segType:Raft
G0 F3000 E-1.00000
G0 F600 Z2.300
G0 X102.735 Y129.714 F5400
G0 F600 Z0.300
G0 F3000 E0.00000
G1 X99.029 Y126.008 E0.26148 F600
G1 X98.830 Y125.677 E0.28075
G1 X98.565 Y125.412 E0.29942
G1 X98.367 Y125.082 E0.31866
G1 X98.102 Y124.817 E0.33733
G1 X97.903 Y124.486 E0.35660
G1 X97.374 Y123.957 E0.39396
G1 X97.176 Y123.626 E0.41319
G1 X96.911 Y123.361 E0.43187
G1 X96.712 Y123.030 E0.45114
G1 X96.447 Y122.765 E0.46982
G1 X96.249 Y122.435 E0.48905
G1 X95.984 Y122.170 E0.50773
G1 X94.991 Y120.515 E0.60400
G1 X94.859 Y120.118 E0.62488
G1 X94.594 Y119.854 E0.64356
G1 X94.462 Y119.456 E0.66444
G1 X93.271 Y117.471 E0.77995
G1 X93.271 Y117.206 E0.79316
G1 X93.073 Y116.876 E0.81239
G1 X92.940 Y116.479 E0.83328
G1 X92.741 Y116.148 E0.85254
G1 X92.741 Y115.883 E0.86575
G1 X92.543 Y115.552 E0.88499
G1 X92.411 Y115.155 E0.90587
G1 X92.212 Y114.824 E0.92514
G1 X92.212 Y114.559 E0.93834
G1 X92.014 Y114.229 E0.95758
G1 X91.881 Y113.832 E0.97846
G1 X91.683 Y113.500 E0.99773
G1 X91.683 Y113.236 E1.01093
G1 X91.484 Y112.905 E1.03017
G1 X91.418 Y112.442 E1.05353
G1 X91.285 Y112.044 E1.07441
G1 X91.285 Y111.780 E1.08762
G1 X91.153 Y111.647 E1.09696
G1 X91.021 Y110.721 E1.14365
G1 X90.888 Y110.324 E1.16453
G1 X90.888 Y110.059 E1.17774
G1 X90.756 Y109.927 E1.18707
G1 X90.756 Y109.397 E1.21349
G1 X90.624 Y109.265 E1.22283
G1 X90.491 Y108.338 E1.26952
G1 X90.359 Y108.206 E1.27886
G1 X90.227 Y107.280 E1.32555
G1 X90.227 Y105.956 E1.39158
G1 X90.094 Y105.824 E1.40092
G1 X90.094 Y104.235 E1.48016
G1 X89.962 Y104.103 E1.48950
G1 X89.962 Y103.044 E1.54233
G1 X89.830 Y102.118 E1.58902
G1 X89.830 Y97.618 E1.81353
G1 X89.962 Y97.485 E1.82287
G1 X89.962 Y96.426 E1.87570
G1 X90.094 Y95.500 E1.92239
G1 X90.094 Y94.176 E1.98842
G1 X90.227 Y94.044 E1.99776
G1 X90.227 Y92.456 E2.07700
G1 X90.359 Y92.323 E2.08634
G1 X90.491 Y91.397 E2.13303
G1 X90.624 Y91.000 E2.15391
G1 X90.624 Y90.735 E2.16712
G1 X90.756 Y90.603 E2.17646
G1 X90.756 Y90.073 E2.20287
G1 X90.888 Y89.941 E2.21221
G1 X91.021 Y89.014 E2.25890
G1 X91.153 Y88.882 E2.26824
G1 X91.153 Y88.353 E2.29465
G1 X91.285 Y88.220 E2.30399
G1 X91.418 Y87.294 E2.35068
G1 X91.617 Y86.963 E2.36995
G1 X91.749 Y86.566 E2.39083
G1 X91.947 Y86.235 E2.41007
G1 X91.947 Y85.970 E2.42327
G1 X92.146 Y85.639 E2.44254
G1 X92.278 Y85.242 E2.46343
G1 X92.477 Y84.911 E2.48266
G1 X92.477 Y84.647 E2.49587
G1 X92.609 Y84.514 E2.50520
G1 X92.609 Y84.250 E2.51841
G1 X92.808 Y83.918 E2.53768
G1 X92.940 Y83.521 E2.55856
G1 X93.138 Y83.191 E2.57780
G1 X93.138 Y82.926 E2.59100
G1 X93.535 Y82.264 E2.62951
G1 X93.668 Y81.867 E2.65039
G1 X93.933 Y81.602 E2.66906
G1 X94.065 Y81.205 E2.68995
G1 X96.050 Y77.896 E2.88246
G1 X96.315 Y77.632 E2.90114
G1 X96.712 Y76.970 E2.93964
G1 X97.241 Y76.441 E2.97700
G1 X97.440 Y76.109 E2.99627
G1 X97.705 Y75.845 E3.01494
G1 X97.903 Y75.514 E3.03418
G1 X98.168 Y75.249 E3.05286
G1 X98.367 Y74.918 E3.07213
G1 X98.631 Y74.653 E3.09080
G1 X98.830 Y74.323 E3.11004
G1 X103.065 Y70.087 E3.40887
G1 X103.330 Y69.823 E3.42754
G1 X103.661 Y69.624 E3.44681
G1 X105.249 Y68.036 E3.55888
G1 X105.580 Y67.837 E3.57811
G1 X105.845 Y67.573 E3.59679
G1 X106.176 Y67.374 E3.61606
G1 X106.441 Y67.109 E3.63473
G1 X107.433 Y66.514 E3.69247
G1 X107.698 Y66.249 E3.71115
G1 X108.691 Y65.653 E3.76892
G1 X108.955 Y65.388 E3.78760
G1 X110.610 Y64.396 E3.88384
G1 X111.007 Y64.264 E3.90472
G1 X111.338 Y64.065 E3.92399
G1 X111.735 Y63.933 E3.94487
G1 X112.397 Y63.536 E3.98337
G1 X112.794 Y63.403 E4.00426
G1 X113.455 Y63.006 E4.04276
G1 X113.852 Y62.874 E4.06364
G1 X113.985 Y62.741 E4.07298
G1 X114.250 Y62.741 E4.08619
G1 X114.911 Y62.344 E4.12469
G1 X115.374 Y62.278 E4.14802
G1 X116.566 Y61.881 E4.21067
G1 X117.029 Y61.815 E4.23403
G1 X117.161 Y61.683 E4.24336
G1 X117.426 Y61.683 E4.25657
G1 X117.558 Y61.550 E4.26591
G1 X117.823 Y61.550 E4.27912
G1 X117.956 Y61.418 E4.28846
G1 X118.220 Y61.418 E4.30166
G1 X118.353 Y61.285 E4.31100
G1 X118.816 Y61.220 E4.33433
G1 X119.610 Y60.955 E4.37609
G1 X120.073 Y60.888 E4.39946
G1 X120.470 Y60.756 E4.42034
G1 X121.000 Y60.756 E4.44675
G1 X121.132 Y60.624 E4.45609
G1 X121.926 Y60.624 E4.49571
G1 X122.059 Y60.491 E4.50505
G1 X122.853 Y60.491 E4.54467
G1 X122.985 Y60.359 E4.55400
G1 X123.515 Y60.359 E4.58042
G1 X123.912 Y60.227 E4.60130
G1 X124.441 Y60.227 E4.62771
G1 X124.573 Y60.094 E4.63705
G1 X133.044 Y60.094 E5.05966
G1 X135.162 Y60.094 E5.16531
G1 X135.559 Y60.227 E5.18620
G1 X136.088 Y60.227 E5.21261
G1 X136.221 Y60.359 E5.22195
G1 X137.015 Y60.359 E5.26157
G1 X137.147 Y60.491 E5.27091
G1 X137.677 Y60.491 E5.29732
G1 X138.074 Y60.624 E5.31820
G1 X138.603 Y60.624 E5.34461
G1 X139.000 Y60.756 E5.36549
G1 X139.530 Y60.756 E5.39191
G1 X139.662 Y60.888 E5.40125
G1 X140.191 Y60.888 E5.42766
G1 X141.780 Y61.418 E5.51119
G1 X142.044 Y61.418 E5.52439
G1 X142.177 Y61.550 E5.53373
G1 X142.442 Y61.550 E5.54694
G1 X142.574 Y61.683 E5.55628
G1 X142.839 Y61.683 E5.56948
G1 X142.971 Y61.815 E5.57882
G1 X143.236 Y61.815 E5.59203
G1 X143.368 Y61.947 E5.60137
G1 X143.832 Y62.014 E5.62473
G1 X145.023 Y62.411 E5.68737
G1 X145.353 Y62.609 E5.70660
G1 X146.148 Y62.874 E5.74837
G1 X146.809 Y63.271 E5.78687
G1 X147.206 Y63.403 E5.80775
G1 X147.868 Y63.800 E5.84626
G1 X148.265 Y63.933 E5.86714
G1 X148.927 Y64.330 E5.90564
G1 X149.721 Y64.594 E5.94740
G1 X149.986 Y64.859 E5.96608
G1 X150.979 Y65.455 E6.02385
G1 X151.244 Y65.720 E6.04253
G1 X152.236 Y66.315 E6.10027
G1 X152.501 Y66.580 E6.11894
G1 X153.824 Y67.374 E6.19595
G1 X154.354 Y67.903 E6.23331
G1 X154.685 Y68.102 E6.25258
G1 X156.008 Y69.426 E6.34596
G1 X156.339 Y69.624 E6.36519
G1 X160.574 Y73.859 E6.66402
G1 X160.839 Y74.124 E6.68270
G1 X161.038 Y74.455 E6.70197
G1 X161.567 Y74.985 E6.73932
G1 X161.766 Y75.315 E6.75856
G1 X162.030 Y75.580 E6.77724
G1 X162.229 Y75.911 E6.79651
G1 X162.494 Y76.176 E6.81518
G1 X162.692 Y76.506 E6.83442
G1 X162.957 Y76.771 E6.85309
G1 X163.156 Y77.102 E6.87236
G1 X163.685 Y77.632 E6.90972
G1 X165.273 Y80.279 E7.06373
G1 X165.406 Y80.676 E7.08461
G1 X165.670 Y80.941 E7.10329
G1 X165.803 Y81.338 E7.12417
G1 X166.597 Y82.661 E7.20118
G1 X166.862 Y83.455 E7.24294
G1 X166.994 Y83.588 E7.25228
G1 X166.994 Y83.853 E7.26549
G1 X167.126 Y83.985 E7.27482
G1 X167.126 Y84.250 E7.28803
G1 X167.325 Y84.580 E7.30726
G1 X167.457 Y84.977 E7.32815
G1 X167.656 Y85.308 E7.34742
G1 X167.656 Y85.573 E7.36062
G1 X167.854 Y85.904 E7.37986
G1 X167.986 Y86.301 E7.40074
G1 X168.185 Y86.632 E7.42001
G1 X168.185 Y86.897 E7.43321
G1 X168.383 Y87.227 E7.45245
G1 X168.450 Y87.691 E7.47581
G1 X168.582 Y87.823 E7.48515
G1 X168.582 Y88.353 E7.51156
G1 X168.715 Y88.485 E7.52090
G1 X168.847 Y89.411 E7.56759
G1 X168.979 Y89.809 E7.58847
G1 X168.979 Y90.073 E7.60168
G1 X169.112 Y90.206 E7.61102
G1 X169.244 Y91.132 E7.65771
G1 X169.376 Y91.529 E7.67859
G1 X169.376 Y91.794 E7.69180
G1 X169.509 Y91.926 E7.70114
G1 X169.641 Y92.853 E7.74783
G1 X169.641 Y94.176 E7.81386
G1 X169.773 Y94.309 E7.82320
G1 X169.773 Y95.897 E7.90244
G1 X169.906 Y96.029 E7.91178
G1 X169.906 Y97.088 E7.96460
G1 X170.038 Y98.015 E8.01130
G1 X170.038 Y102.250 E8.22260
G1 X169.906 Y102.647 E8.24348
G1 X169.906 Y103.706 E8.29631
G1 X169.773 Y104.632 E8.34300
G1 X169.773 Y105.956 E8.40904
G1 X169.641 Y106.088 E8.41837
G1 X169.641 Y107.677 E8.49761
G1 X169.509 Y107.809 E8.50695
G1 X169.376 Y108.736 E8.55364
G1 X169.244 Y109.133 E8.57453
G1 X169.244 Y109.397 E8.58773
G1 X169.112 Y109.530 E8.59707
G1 X169.112 Y110.059 E8.62348
G1 X168.979 Y110.191 E8.63282
G1 X168.847 Y111.118 E8.67952
G1 X168.715 Y111.250 E8.68885
G1 X168.582 Y112.177 E8.73555
G1 X168.450 Y112.574 E8.75643
G1 X168.450 Y112.839 E8.76963
G1 X168.251 Y113.170 E8.78890
G1 X168.119 Y113.567 E8.80978
G1 X167.920 Y113.897 E8.82902
G1 X167.920 Y114.162 E8.84223
G1 X167.722 Y114.493 E8.86149
G1 X167.589 Y114.890 E8.88238
G1 X167.391 Y115.221 E8.90161
G1 X167.391 Y115.486 E8.91482
G1 X167.192 Y115.817 E8.93409
G1 X167.060 Y116.214 E8.95497
G1 X166.862 Y116.545 E8.97420
G1 X166.862 Y116.809 E8.98741
G1 X166.663 Y117.140 E9.00668
G1 X166.530 Y117.538 E9.02756
G1 X165.935 Y118.530 E9.08530
G1 X165.803 Y118.927 E9.10618
G1 X165.538 Y119.192 E9.12485
G1 X165.406 Y119.589 E9.14574
G1 X163.817 Y122.236 E9.29975
G1 X163.553 Y122.501 E9.31843
G1 X163.354 Y122.832 E9.33770
G1 X163.089 Y123.097 E9.35637
G1 X162.891 Y123.427 E9.37561
G1 X162.626 Y123.692 E9.39428
G1 X162.427 Y124.023 E9.41355
G1 X162.163 Y124.288 E9.43223
G1 X161.964 Y124.618 E9.45146
G1 X161.435 Y125.148 E9.48882
G1 X161.236 Y125.479 E9.50809
G1 X160.971 Y125.744 E9.52677
G1 X160.773 Y126.074 E9.54600
G1 X157.067 Y129.780 E9.80748
G1 X156.736 Y129.979 E9.82675
G1 X155.148 Y131.567 E9.93881
G1 X154.817 Y131.766 E9.95804
G1 X154.023 Y132.560 E10.01407
G1 X153.030 Y133.156 E10.07185
G1 X152.765 Y133.420 E10.09052
G1 X152.104 Y133.817 E10.12903
G1 X151.839 Y134.082 E10.14770
G1 X150.515 Y134.876 E10.22471
G1 X150.251 Y135.141 E10.24339
G1 X149.589 Y135.538 E10.28189
G1 X149.192 Y135.670 E10.30277
G1 X148.530 Y136.067 E10.34128
G1 X148.133 Y136.200 E10.36216
G1 X148.001 Y136.332 E10.37150
G1 X147.736 Y136.332 E10.38470
G1 X147.074 Y136.729 E10.42321
G1 X146.677 Y136.862 E10.44409
G1 X146.015 Y137.259 E10.48259
G1 X145.618 Y137.391 E10.50347
G1 X145.287 Y137.589 E10.52271
G1 X144.493 Y137.854 E10.56447
G1 X144.030 Y137.920 E10.58783
G1 X143.897 Y138.053 E10.59717
G1 X143.633 Y138.053 E10.61038
G1 X143.500 Y138.185 E10.61971
G1 X143.236 Y138.185 E10.63292
G1 X143.103 Y138.318 E10.64226
G1 X142.839 Y138.318 E10.65547
G1 X142.706 Y138.450 E10.66480
G1 X142.243 Y138.516 E10.68814
G1 X141.052 Y138.913 E10.75078
G1 X140.589 Y138.979 E10.77414
G1 X140.456 Y139.112 E10.78348
G1 X140.191 Y139.112 E10.79668
G1 X140.059 Y139.244 E10.80602
G1 X139.530 Y139.244 E10.83244
G1 X139.397 Y139.376 E10.84178
G1 X138.603 Y139.376 E10.88140
G1 X138.471 Y139.509 E10.89073
G1 X137.677 Y139.509 E10.93035
G1 X137.544 Y139.641 E10.93969
G1 X137.015 Y139.641 E10.96611
G1 X136.618 Y139.773 E10.98699
G1 X136.088 Y139.773 E11.01340
G1 X135.691 Y139.906 E11.03428
G1 X135.162 Y139.906 E11.06070
G1 X135.030 Y140.038 E11.07003
G1 X126.559 Y140.038 E11.49265
G1 X124.970 Y140.038 E11.57189
G1 X124.573 Y139.906 E11.59277
G1 X124.044 Y139.906 E11.61918
G1 X123.647 Y139.773 E11.64006
G1 X123.117 Y139.773 E11.66647
G1 X122.985 Y139.641 E11.67581
G1 X122.191 Y139.641 E11.71543
G1 X122.059 Y139.509 E11.72477
G1 X121.529 Y139.509 E11.75118
G1 X121.132 Y139.376 E11.77206
G1 X120.603 Y139.376 E11.79848
G1 X120.206 Y139.244 E11.81936
G1 X119.676 Y139.244 E11.84577
G1 X119.544 Y139.112 E11.85511
G1 X119.279 Y139.112 E11.86832
G1 X119.147 Y138.979 E11.87766
G1 X118.882 Y138.979 E11.89086
G1 X118.750 Y138.847 E11.90020
G1 X118.286 Y138.781 E11.92356
G1 X116.897 Y138.318 E11.99663
G1 X116.632 Y138.318 E12.00984
G1 X116.500 Y138.185 E12.01918
G1 X116.235 Y138.185 E12.03238
G1 X116.103 Y138.053 E12.04172
G1 X115.838 Y138.053 E12.05493
G1 X115.705 Y137.920 E12.06426
G1 X115.441 Y137.920 E12.07747
G1 X115.308 Y137.788 E12.08681
G1 X115.044 Y137.788 E12.10002
G1 X114.911 Y137.656 E12.10935
G1 X114.647 Y137.656 E12.12256
G1 X113.985 Y137.259 E12.16106
G1 X113.588 Y137.126 E12.18195
G1 X112.926 Y136.729 E12.22045
G1 X112.661 Y136.729 E12.23366
G1 X112.000 Y136.332 E12.27216
G1 X111.602 Y136.200 E12.29304
G1 X110.941 Y135.803 E12.33154
G1 X110.544 Y135.670 E12.35242
G1 X109.220 Y134.876 E12.42943
G1 X108.955 Y134.612 E12.44811
G1 X108.294 Y134.214 E12.48661
G1 X108.029 Y133.950 E12.50529
G1 X106.705 Y133.156 E12.58230
G1 X106.441 Y132.891 E12.60097
G1 X105.779 Y132.494 E12.63948
G1 X104.985 Y131.700 E12.69551
G1 X104.653 Y131.501 E12.71478
G1 X103.065 Y129.913 E12.82684
G1 X102.735 Y129.714 E12.84607
G0 X103.135 Y129.516 F5400
G1 X103.135 Y70.749 E15.77794 F600
G0 X105.801 Y68.367 F5400
G1 X105.801 Y131.898 E18.94752 F600
G0 X108.468 Y133.751 F5400
G1 X108.468 Y66.381 E22.30860 F600
G0 X111.135 Y64.793 F5400
G1 X111.135 Y135.472 E25.83476 F600
G0 X113.801 Y136.795 F5400
G1 X113.801 Y63.470 E29.49299 F600
G0 X116.468 Y62.411 F5400
G1 X116.468 Y137.854 E33.25687 F600
G0 X119.135 Y138.648 F5400
G1 X119.135 Y61.617 E37.09999 F600
G0 X121.801 Y61.087 F5400
G1 X121.801 Y139.178 E40.99594 F600
G0 X124.468 Y139.575 F5400
G1 X124.468 Y60.690 E44.93151 F600
G0 X127.135 Y60.558 F5400
G1 X127.135 Y139.707 E48.88028 F600
G0 X129.801 Y139.707 F5400
G1 X129.801 Y60.558 E52.82905 F600
G0 X132.468 Y60.558 F5400
G1 X132.468 Y139.707 E56.77782 F600
G0 X135.135 Y139.575 F5400
G1 X135.135 Y60.690 E60.71339 F600
G0 X137.801 Y61.087 F5400
G1 X137.801 Y139.178 E64.60933 F600
G0 X140.468 Y138.648 F5400
G1 X140.468 Y61.484 E68.45906 F600
G0 X143.135 Y62.411 F5400
G1 X143.135 Y137.854 E72.22293 F600
G0 X145.801 Y136.928 F5400
G1 X145.801 Y63.337 E75.89437 F600
G0 X148.468 Y64.661 F5400
G1 X148.468 Y135.604 E79.43373 F600
G0 X151.135 Y134.016 F5400
G1 X151.135 Y66.249 E82.81462 F600
G0 X153.801 Y68.102 F5400
G1 X153.801 Y132.163 E86.01062 F600
G0 X156.468 Y129.648 F5400
G1 X156.468 Y70.484 E88.96230 F600
G0 X159.135 Y73.132 F5400
G1 X159.135 Y127.133 E91.65644 F600
G0 X161.801 Y124.089 F5400
G1 X161.801 Y76.176 E94.04684 F600
G0 X164.468 Y79.882 F5400
G1 X164.468 Y120.383 E96.06744 F600
G0 X167.135 Y114.692 F5400
G1 X167.135 Y85.573 E97.52017 F600
G0 X100.468 Y73.396 F5400
G1 X100.468 Y126.868 E100.18790 F600
G0 X97.801 Y123.824 F5400
G1 X97.801 Y76.441 E102.55189 F600
G0 X95.135 Y80.279 F5400
G1 X95.135 Y119.854 E104.52628 F600
G0 X92.468 Y114.030 F5400
G1 X92.468 Y86.235 E105.91297 F600



; ------------------------------------
; Raft Layer #1
; ------------------------------------
G92 E0 ;reset extr
G0 F600 Z0.600
;segType:Raft
G0 X92.411 Y84.726 F7200
G1 X114.911 Y62.226 E1.58753 F1800
G0 X117.558 Y61.464 F7200
G1 X91.220 Y87.803 E3.44587 F1800
G0 X90.690 Y90.218 F7200
G1 X120.073 Y60.835 E5.51900 F1800
G0 X122.323 Y60.471 F7200
G1 X90.161 Y92.633 E7.78823 F1800
G0 X90.028 Y94.651 F7200
G1 X124.706 Y59.974 E10.23489 F1800
G0 X126.559 Y60.007 F7200
G1 X89.896 Y96.669 E12.82163 F1800
G0 X89.764 Y98.687 F7200
G1 X128.412 Y60.039 E15.54844 F1800
G0 X130.265 Y60.072 F7200
G1 X89.764 Y100.572 E18.40599 F1800
G0 X89.764 Y102.458 F7200
G1 X132.250 Y59.972 E21.40362 F1800
G0 X134.103 Y60.005 F7200
G1 X90.028 Y104.079 E24.51331 F1800
G0 X90.161 Y105.832 F7200
G1 X135.824 Y60.170 E27.73506 F1800
G0 X137.412 Y60.467 F7200
G1 X90.161 Y107.718 E31.06887 F1800
G0 X90.558 Y109.206 F7200
G1 X139.133 Y60.632 E34.49606 F1800
G0 X140.721 Y60.930 F7200
G1 X90.955 Y110.695 E38.00730 F1800
G0 X91.352 Y112.183 F7200
G1 X142.044 Y61.492 E41.58391 F1800
G0 X143.500 Y61.921 F7200
G1 X91.749 Y113.672 E45.23522 F1800
G0 X92.278 Y115.028 F7200
G1 X144.956 Y62.351 E48.95191 F1800
G0 X146.280 Y62.913 F7200
G1 X92.808 Y116.384 E52.72462 F1800
G0 X93.337 Y117.741 F7200
G1 X147.471 Y63.608 E56.54403 F1800
G0 X148.795 Y64.170 F7200
G1 X93.999 Y118.964 E60.41013 F1800
G0 X94.793 Y120.056 F7200
G1 X150.118 Y64.732 E64.31358 F1800
G0 X151.177 Y65.558 F7200
G1 X95.455 Y121.280 E68.24504 F1800
G0 X96.249 Y122.371 F7200
G1 X152.236 Y66.385 E72.19519 F1800
G0 X153.427 Y67.080 F7200
G1 X97.043 Y123.463 E76.17334 F1800
G0 X97.837 Y124.554 F7200
G1 X154.486 Y67.906 E80.17018 F1800
G0 X155.412 Y68.866 F7200
G1 X98.764 Y125.513 E84.16701 F1800
G0 X99.558 Y126.605 F7200
G1 X156.471 Y69.692 E88.18252 F1800
G0 X157.398 Y70.652 F7200
G1 X100.484 Y127.564 E92.19803 F1800
G0 X101.543 Y128.391 F7200
G1 X158.324 Y71.611 E96.20420 F1800
G0 X159.283 Y72.537 F7200
G1 X102.502 Y129.317 E100.21037 F1800
G0 X103.462 Y130.244 F7200
G1 X160.243 Y73.464 E104.21655 F1800
G0 X161.069 Y74.522 F7200
G1 X104.421 Y131.170 E108.21338 F1800
G0 X105.380 Y132.097 F7200
G1 X162.028 Y75.449 E112.21021 F1800
G0 X162.855 Y76.508 F7200
G1 X106.471 Y132.891 E116.18837 F1800
G0 X107.695 Y133.553 F7200
G1 X163.682 Y77.567 E120.13851 F1800
G0 X164.376 Y78.758 F7200
G1 X108.654 Y134.479 E124.06998 F1800
G0 X109.878 Y135.141 F7200
G1 X165.071 Y79.949 E127.96409 F1800
G0 X165.765 Y81.140 F7200
G1 X111.102 Y135.803 E131.82085 F1800
G0 X112.326 Y136.464 F7200
G1 X166.460 Y82.331 E135.64026 F1800
G0 X166.889 Y83.787 F7200
G1 X113.682 Y136.994 E139.39430 F1800
G0 X114.906 Y137.656 F7200
G1 X167.451 Y85.111 E143.10165 F1800
G0 X168.013 Y86.434 F7200
G1 X116.394 Y138.053 E146.74364 F1800
G0 X117.883 Y138.450 F7200
G1 X168.575 Y87.758 E150.32025 F1800
G0 X168.740 Y89.479 F7200
G1 X119.239 Y138.979 E153.81282 F1800
G0 X120.860 Y139.244 F7200
G1 X169.170 Y90.934 E157.22134 F1800
G0 X169.600 Y92.390 F7200
G1 X122.481 Y139.509 E160.54582 F1800
G0 X124.102 Y139.773 F7200
G1 X169.765 Y94.111 E163.76758 F1800
G0 X169.797 Y95.964 F7200
G1 X125.855 Y139.906 E166.86794 F1800
G0 X127.741 Y139.906 F7200
G1 X169.962 Y97.685 E169.84690 F1800
G0 X169.995 Y99.538 F7200
G1 X129.626 Y139.906 E172.69510 F1800
G0 X131.512 Y139.906 F7200
G1 X170.028 Y101.390 E175.41256 F1800
G0 X169.796 Y103.508 F7200
G1 X133.397 Y139.906 E177.98062 F1800
G0 X135.415 Y139.773 F7200
G1 X169.696 Y105.493 E180.39926 F1800
G0 X169.596 Y107.478 F7200
G1 X137.433 Y139.641 E182.66852 F1800
G0 X139.782 Y139.310 F7200
G1 X169.165 Y109.927 E184.74164 F1800
G0 X168.668 Y112.309 F7200
G1 X142.462 Y138.516 E186.59064 F1800
G0 X145.142 Y137.722 F7200
G1 X167.510 Y115.353 E188.16882 F1800
G0 X165.822 Y118.927 F7200
G1 X148.748 Y136.001 E189.37348 F1800
G0 X153.942 Y132.692 F7200
G1 X162.016 Y124.618 E189.94312 F1800
G0 X111.073 Y64.178 F7200
G1 X93.999 Y81.252 E191.14776 F1800
G0 X97.705 Y75.661 F7200
G1 X106.043 Y67.322 E191.73608 F1800



; ------------------------------------
; Raft Layer #2
; ------------------------------------
G92 E0 ;reset extr
G0 F600 Z0.800
;segType:Raft
G0 F3000 E-1.00000
G0 F600 Z2.800
G0 X112.000 Y63.799 F7200
G0 F600 Z0.800
G0 F3000 E0.00000
G1 X147.736 Y63.799 E1.18859 F2400
G1 X146.942 Y63.399 E1.21817
G1 X112.794 Y63.399 E2.35394
G1 X113.588 Y62.999 E2.38351
G1 X146.148 Y62.999 E3.46645
G1 X145.221 Y62.599 E3.50002
G1 X114.514 Y62.599 E4.52133
G0 X115.705 Y62.199 F7200
G1 X144.162 Y62.199 E5.46780 F2400
G0 X142.839 Y61.799 F7200
G1 X117.029 Y61.799 E6.32623 F2400
G0 X118.220 Y61.399 F7200
G1 X141.515 Y61.399 E7.10101 F2400
G0 X140.324 Y60.999 F7200
G1 X119.544 Y60.999 E7.79216 F2400
G0 X121.926 Y60.599 F7200
G1 X137.809 Y60.599 E8.32042 F2400
G0 X135.294 Y60.199 F7200
G1 X124.441 Y60.199 E8.68140 F2400
G0 X148.795 Y64.199 F7200
G1 X110.941 Y64.199 E9.94043 F2400
G1 X110.014 Y64.599 E9.97400
G1 X149.721 Y64.599 E11.29466
G1 X150.251 Y64.999 E11.31673
G1 X109.485 Y64.999 E12.67260
G1 X108.823 Y65.399 E12.69832
G1 X150.912 Y65.399 E14.09822
G1 X151.442 Y65.799 E14.12029
G1 X108.294 Y65.799 E15.55541
G1 X107.632 Y66.199 E15.58113
G1 X151.971 Y66.199 E17.05586
G1 X152.633 Y66.599 E17.08158
G1 X107.102 Y66.599 E18.59594
G1 X106.573 Y66.999 E18.61801
G1 X153.162 Y66.999 E20.16758
G1 X153.824 Y67.399 E20.19330
G1 X105.911 Y67.399 E21.78690
G1 X105.514 Y67.799 E21.80564
G1 X154.221 Y67.799 E23.42565
G1 X154.751 Y68.199 E23.44772
G1 X104.985 Y68.199 E25.10295
G1 X104.588 Y68.599 E25.12170
G1 X155.148 Y68.599 E26.80334
G1 X155.545 Y68.999 E26.82208
G1 X104.190 Y68.999 E28.53014
G1 X103.793 Y69.399 E28.54888
G1 X155.942 Y69.399 E30.28335
G1 X156.471 Y69.799 E30.30542
G1 X103.264 Y69.799 E32.07510
G1 X102.867 Y70.199 E32.09385
G1 X156.868 Y70.199 E33.88994
G1 X157.265 Y70.599 E33.90869
G1 X102.470 Y70.599 E35.73120
G1 X102.073 Y70.999 E35.74994
G1 X157.663 Y70.999 E37.59887
G1 X158.060 Y71.399 E37.61761
G1 X101.676 Y71.399 E39.49295
G1 X101.279 Y71.799 E39.51169
G1 X158.457 Y71.799 E41.41344
G1 X158.854 Y72.199 E41.43219
G1 X100.882 Y72.199 E43.36035
G1 X100.484 Y72.599 E43.37910
G1 X159.251 Y72.599 E45.33367
G1 X159.648 Y72.999 E45.35242
G1 X100.087 Y72.999 E47.33341
G1 X99.690 Y73.399 E47.35215
G1 X160.045 Y73.399 E49.35956
G1 X160.442 Y73.799 E49.37830
G1 X99.293 Y73.799 E51.41212
G1 X98.896 Y74.199 E51.43086
G1 X160.839 Y74.199 E53.49110
G1 X161.104 Y74.599 E53.50705
G1 X98.631 Y74.599 E55.58489
G1 X98.234 Y74.999 E55.60363
G1 X161.501 Y74.999 E57.70788
G1 X161.766 Y75.399 E57.72384
G1 X97.970 Y75.399 E59.84570
G1 X97.705 Y75.799 E59.86165
G1 X162.030 Y75.799 E62.00112
G1 X162.427 Y76.199 E62.01987
G1 X97.308 Y76.199 E64.18575
G1 X97.043 Y76.599 E64.20170
G1 X162.692 Y76.599 E66.38519
G1 X163.089 Y76.999 E66.40393
G1 X96.646 Y76.999 E68.61383
G1 X96.381 Y77.399 E68.62979
G1 X163.354 Y77.399 E70.85730
G1 X163.619 Y77.799 E70.87326
G1 X96.117 Y77.799 E73.11838
G1 X95.852 Y78.199 E73.13433
G1 X164.016 Y78.199 E75.40147
G1 X164.148 Y78.599 E75.41548
G1 X95.587 Y78.599 E77.69583
G1 X95.323 Y78.999 E77.71178
G1 X164.413 Y78.999 E80.00973
G1 X164.677 Y79.399 E80.02568
G1 X95.058 Y79.399 E82.34124
G1 X94.926 Y79.799 E82.35526
G1 X164.810 Y79.799 E84.67962
G1 X165.075 Y80.199 E84.69557
G1 X94.661 Y80.199 E87.03754
G1 X94.396 Y80.599 E87.05350
G1 X165.339 Y80.599 E89.41308
G1 X165.604 Y80.999 E89.42903
G1 X94.131 Y80.999 E91.80622
G1 X93.999 Y81.399 E91.82024
G1 X165.736 Y81.399 E94.20623
G1 X166.001 Y81.799 E94.22218
G1 X93.734 Y81.799 E96.62579
G1 X93.470 Y82.199 E96.64174
G1 X166.266 Y82.199 E99.06295
G1 X166.530 Y82.599 E99.07890
G1 X93.205 Y82.599 E101.51772
G1 X93.073 Y82.999 E101.53174
G1 X166.663 Y82.999 E103.97936
G1 X166.795 Y83.399 E103.99338
G1 X92.940 Y83.399 E106.44981
G1 X92.808 Y83.799 E106.46382
G1 X166.927 Y83.799 E108.92905
G1 X167.060 Y84.199 E108.94307
G1 X92.543 Y84.199 E111.42151
G1 X92.411 Y84.599 E111.43552
G1 X167.325 Y84.599 E113.92717
G1 X167.457 Y84.999 E113.94118
G1 X92.278 Y84.999 E116.44164
G1 X92.146 Y85.399 E116.45565
G1 X167.589 Y85.399 E118.96490
G1 X167.722 Y85.799 E118.97892
G1 X92.014 Y85.799 E121.49698
G1 X91.881 Y86.199 E121.51099
G1 X167.854 Y86.199 E124.03786
G1 X168.119 Y86.599 E124.05381
G1 X91.617 Y86.599 E126.59828
G1 X91.484 Y86.999 E126.61230
G1 X168.251 Y86.999 E129.16557
G1 X168.383 Y87.399 E129.17958
G1 X91.352 Y87.399 E131.74165
G1 X91.220 Y87.799 E131.75566
G1 X168.516 Y87.799 E134.32654
G1 X168.516 Y88.199 E134.33984
G1 X91.220 Y88.199 E136.91072
G1 X91.087 Y88.599 E136.92473
G1 X168.648 Y88.599 E139.50441
G1 X168.780 Y88.999 E139.51842
G1 X90.955 Y88.999 E142.10690
G1 X90.955 Y89.399 E142.12021
G1 X168.780 Y89.399 E144.70869
G1 X168.913 Y89.799 E144.72270
G1 X90.822 Y89.799 E147.31999
G1 X90.690 Y90.199 E147.33400
G1 X169.045 Y90.199 E149.94009
G1 X169.045 Y90.599 E149.95340
G1 X90.690 Y90.599 E152.55949
G1 X90.558 Y90.999 E152.57350
G1 X169.178 Y90.999 E155.18840
G1 X169.310 Y91.399 E155.20241
G1 X90.425 Y91.399 E157.82611
G1 X90.425 Y91.799 E157.83942
G1 X169.310 Y91.799 E160.46312
G1 X169.442 Y92.199 E160.47713
G1 X90.293 Y92.199 E163.10963
G1 X90.161 Y92.599 E163.12364
G1 X169.575 Y92.599 E165.76497
G1 X169.575 Y92.999 E165.77827
G1 X90.161 Y92.999 E168.41960
G1 X90.161 Y93.399 E168.43290
G1 X169.575 Y93.399 E171.07424
G1 X169.575 Y93.799 E171.08754
G1 X90.161 Y93.799 E173.72886
G1 X90.028 Y94.199 E173.74288
G1 X169.575 Y94.199 E176.38860
G1 X169.707 Y94.599 E176.40260
G1 X90.028 Y94.599 E179.05274
G1 X90.028 Y94.999 E179.06604
G1 X169.707 Y94.999 E181.71618
G1 X169.707 Y95.399 E181.72948
G1 X90.028 Y95.399 E184.37960
G1 X90.028 Y95.799 E184.39292
G1 X169.707 Y95.799 E187.04304
G1 X169.839 Y96.199 E187.05706
G1 X89.896 Y96.199 E189.71598
G1 X89.896 Y96.599 E189.72930
G1 X169.839 Y96.599 E192.38822
G1 X169.839 Y96.999 E192.40154
G1 X89.896 Y96.999 E195.06048
G1 X89.896 Y97.399 E195.07378
G1 X169.839 Y97.399 E197.73272
G1 X169.972 Y97.799 E197.74672
G1 X89.764 Y97.799 E200.41446
G1 X89.764 Y98.199 E200.42776
G1 X169.972 Y98.199 E203.09550
G1 X169.972 Y98.599 E203.10882
G1 X89.764 Y98.599 E205.77656
G1 X89.764 Y98.999 E205.78986
G1 X169.972 Y98.999 E208.45760
G1 X169.972 Y99.399 E208.47090
G1 X89.764 Y99.399 E211.13864
G1 X89.764 Y99.799 E211.15194
G1 X169.972 Y99.799 E213.81968
G1 X169.972 Y100.199 E213.83300
G1 X89.764 Y100.199 E216.50074
G1 X89.764 Y100.599 E216.51404
G1 X169.972 Y100.599 E219.18178
G1 X169.972 Y100.999 E219.19508
G1 X89.764 Y100.999 E221.86282
G1 X89.764 Y101.399 E221.87612
G1 X169.972 Y101.399 E224.54386
G1 X169.972 Y101.799 E224.55718
G1 X89.764 Y101.799 E227.22492
G1 X89.764 Y102.199 E227.23822
G1 X169.972 Y102.199 E229.90596
G1 X169.839 Y102.599 E229.91996
G1 X89.896 Y102.599 E232.57890
G1 X89.896 Y102.999 E232.59220
G1 X169.839 Y102.999 E235.25114
G1 X169.839 Y103.399 E235.26446
G1 X89.896 Y103.399 E237.92338
G1 X89.896 Y103.799 E237.93670
G1 X169.839 Y103.799 E240.59562
G1 X169.707 Y104.199 E240.60964
G1 X90.028 Y104.199 E243.25976
G1 X90.028 Y104.599 E243.27308
G1 X169.707 Y104.599 E245.92320
G1 X169.707 Y104.999 E245.93650
G1 X90.028 Y104.999 E248.58664
G1 X90.028 Y105.399 E248.59994
G1 X169.707 Y105.399 E251.25008
G1 X169.707 Y105.799 E251.26338
G1 X90.028 Y105.799 E253.91352
G1 X90.161 Y106.199 E253.92752
G1 X169.575 Y106.199 E256.56884
G1 X169.575 Y106.599 E256.58216
G1 X90.161 Y106.599 E259.22348
G1 X90.161 Y106.999 E259.23678
G1 X169.575 Y106.999 E261.87812
G1 X169.575 Y107.399 E261.89142
G1 X90.161 Y107.399 E264.53274
G1 X90.293 Y107.799 E264.54676
G1 X169.442 Y107.799 E267.17926
G1 X169.442 Y108.199 E267.19256
G1 X90.293 Y108.199 E269.82508
G1 X90.425 Y108.599 E269.83908
G1 X169.310 Y108.599 E272.46280
G1 X169.178 Y108.999 E272.47680
G1 X90.558 Y108.999 E275.09170
G1 X90.690 Y109.399 E275.10572
G1 X169.178 Y109.399 E277.71622
G1 X169.045 Y109.799 E277.73022
G1 X90.690 Y109.799 E280.33634
G1 X90.822 Y110.199 E280.35034
G1 X168.913 Y110.199 E282.94764
G1 X168.913 Y110.599 E282.96094
G1 X90.955 Y110.599 E285.55384
G1 X90.955 Y110.999 E285.56714
G1 X168.780 Y110.999 E288.15564
G1 X168.648 Y111.399 E288.16964
G1 X91.087 Y111.399 E290.74932
G1 X91.220 Y111.799 E290.76334
G1 X168.516 Y111.799 E293.33422
G1 X168.516 Y112.199 E293.34754
G1 X91.220 Y112.199 E295.91842
G1 X91.352 Y112.599 E295.93244
G1 X168.383 Y112.599 E298.49450
G1 X168.251 Y112.999 E298.50852
G1 X91.484 Y112.999 E301.06180
G1 X91.617 Y113.399 E301.07580
G1 X168.119 Y113.399 E303.62026
G1 X167.986 Y113.799 E303.63428
G1 X91.749 Y113.799 E306.16996
G1 X91.881 Y114.199 E306.18396
G1 X167.854 Y114.199 E308.71082
G1 X167.589 Y114.599 E308.72678
G1 X92.146 Y114.599 E311.23602
G1 X92.278 Y114.999 E311.25004
G1 X167.457 Y114.999 E313.75048
G1 X167.325 Y115.399 E313.76450
G1 X92.411 Y115.399 E316.25614
G1 X92.543 Y115.799 E316.27014
G1 X167.192 Y115.799 E318.75300
G1 X167.060 Y116.199 E318.76700
G1 X92.675 Y116.199 E321.24102
G1 X92.940 Y116.599 E321.25698
G1 X166.795 Y116.599 E323.71340
G1 X166.663 Y116.999 E323.72742
G1 X93.073 Y116.999 E326.17504
G1 X93.205 Y117.399 E326.18906
G1 X166.530 Y117.399 E328.62786
G1 X166.398 Y117.799 E328.64188
G1 X93.337 Y117.799 E331.07190
G1 X93.602 Y118.199 E331.08786
G1 X166.133 Y118.199 E333.50028
G1 X165.869 Y118.599 E333.51624
G1 X93.867 Y118.599 E335.91104
G1 X94.131 Y118.999 E335.92700
G1 X165.604 Y118.999 E338.30420
G1 X165.339 Y119.399 E338.32016
G1 X94.396 Y119.399 E340.67976
G1 X94.528 Y119.799 E340.69376
G1 X165.207 Y119.799 E343.04452
G1 X164.942 Y120.199 E343.06048
G1 X94.793 Y120.199 E345.39364
G1 X95.058 Y120.599 E345.40960
G1 X164.677 Y120.599 E347.72516
G1 X164.413 Y120.999 E347.74112
G1 X95.323 Y120.999 E350.03908
G1 X95.455 Y121.399 E350.05308
G1 X164.280 Y121.399 E352.34224
G1 X164.016 Y121.799 E352.35820
G1 X95.720 Y121.799 E354.62972
G1 X95.984 Y122.199 E354.64568
G1 X163.751 Y122.199 E356.89964
G1 X163.354 Y122.599 E356.91836
G1 X96.249 Y122.599 E359.15028
G1 X96.646 Y122.999 E359.16900
G1 X163.089 Y122.999 E361.37892
G1 X162.824 Y123.399 E361.39488
G1 X96.911 Y123.399 E363.58716
G1 X97.308 Y123.799 E363.60588
G1 X162.427 Y123.799 E365.77180
G1 X162.163 Y124.199 E365.78776
G1 X97.573 Y124.199 E367.93604
G1 X97.837 Y124.599 E367.95200
G1 X161.898 Y124.599 E370.08268
G1 X161.501 Y124.999 E370.10140
G1 X98.234 Y124.999 E372.20564
G1 X98.499 Y125.399 E372.22160
G1 X161.236 Y125.399 E374.30824
G1 X160.839 Y125.799 E374.32700
G1 X98.896 Y125.799 E376.38724
G1 X99.161 Y126.199 E376.40320
G1 X160.574 Y126.199 E378.44584
G1 X160.177 Y126.599 E378.46456
G1 X99.558 Y126.599 E380.48076
G1 X99.955 Y126.999 E380.49952
G1 X159.780 Y126.999 E382.48932
G1 X159.383 Y127.399 E382.50804
G1 X100.352 Y127.399 E384.47144
G1 X100.749 Y127.799 E384.49016
G1 X158.986 Y127.799 E386.42716
G1 X158.589 Y128.199 E386.44588
G1 X101.146 Y128.199 E388.35644
G1 X101.543 Y128.599 E388.37520
G1 X158.192 Y128.599 E390.25932
G1 X157.795 Y128.999 E390.27808
G1 X101.940 Y128.999 E392.13580
G1 X102.337 Y129.399 E392.15456
G1 X157.398 Y129.399 E393.98588
G1 X157.001 Y129.799 E394.00460
G1 X102.735 Y129.799 E395.80952
G1 X103.264 Y130.199 E395.83156
G1 X156.471 Y130.199 E397.60124
G1 X156.074 Y130.599 E397.62000
G1 X103.661 Y130.599 E399.36324
G1 X104.058 Y130.999 E399.38200
G1 X155.677 Y130.999 E401.09884
G1 X155.280 Y131.399 E401.11760
G1 X104.455 Y131.399 E402.80800
G1 X104.985 Y131.799 E402.83008
G1 X154.751 Y131.799 E404.48528
G1 X154.354 Y132.199 E404.50404
G1 X105.382 Y132.199 E406.13284
G1 X105.779 Y132.599 E406.15160
G1 X153.957 Y132.599 E407.75396
G1 X153.295 Y132.999 E407.77968
G1 X106.441 Y132.999 E409.33808
G1 X106.970 Y133.399 E409.36012
G1 X152.765 Y133.399 E410.88332
G1 X152.236 Y133.799 E410.90536
G1 X107.632 Y133.799 E412.38892
G1 X108.161 Y134.199 E412.41100
G1 X151.574 Y134.199 E413.85488
G1 X151.045 Y134.599 E413.87696
G1 X108.691 Y134.599 E415.28564
G1 X109.352 Y134.999 E415.31136
G1 X150.383 Y134.999 E416.67604
G1 X149.853 Y135.399 E416.69812
G1 X109.882 Y135.399 E418.02760
G1 X110.676 Y135.799 E418.05716
G1 X149.059 Y135.799 E419.33380
G1 X148.265 Y136.199 E419.36336
G1 X111.470 Y136.199 E420.58720
G0 X112.529 Y136.599 F7200
G1 X147.074 Y136.599 E421.73616 F2400
G1 X146.280 Y136.999 E421.76576
G1 X113.455 Y136.999 E422.85748
G1 X114.250 Y137.399 E422.88704
G1 X145.486 Y137.399 E423.92596
G0 X144.427 Y137.799 F7200
G1 X115.308 Y137.799 E424.89444 F2400
G0 X116.500 Y138.199 F7200
G1 X143.103 Y138.199 E425.77928 F2400
G0 X141.780 Y138.599 F7200
G1 X117.823 Y138.599 E426.57608 F2400
G0 X119.147 Y138.999 F7200
G1 X140.456 Y138.999 E427.28484 F2400
G0 X138.471 Y139.399 F7200
G1 X121.264 Y139.399 E427.85712 F2400
G0 X123.779 Y139.799 F7200
G1 X135.824 Y139.799 E428.25772 F2400



; ------------------------------------
; Raft Layer #3
; ------------------------------------
M106 S255 ;set fan speed
G92 E0 ;reset extr
G0 F600 Z1.000
;segType:Raft
G0 F3000 E-1.00000
G0 F600 Z3.000
G0 X167.001 Y116.280 F7200
G0 F600 Z1.000
G0 F3000 E0.00000
G1 X167.001 Y83.985 E1.07414 F2400
G0 X166.601 Y82.926 F7200
G1 X166.601 Y117.206 E2.21431 F2400
G1 X166.201 Y118.133 E2.24787
G1 X166.201 Y82.132 E3.44527
G1 X165.801 Y81.205 E3.47883
G1 X165.801 Y119.059 E4.73786
G1 X165.401 Y119.721 E4.76358
G1 X165.401 Y80.544 E6.06663
G1 X165.001 Y79.882 E6.09235
G1 X165.001 Y120.383 E7.43942
G1 X164.601 Y121.045 E7.46514
G1 X164.601 Y79.088 E8.86064
G1 X164.201 Y78.426 E8.88636
G1 X164.201 Y121.706 E10.32588
G1 X163.801 Y122.368 E10.35160
G1 X163.801 Y77.896 E11.83074
G1 X163.401 Y77.367 E11.85281
G1 X163.401 Y122.898 E13.36717
G1 X163.001 Y123.427 E13.38924
G1 X163.001 Y76.838 E14.93881
G1 X162.601 Y76.308 E14.96088
G1 X162.601 Y123.824 E16.54127
G1 X162.201 Y124.354 E16.56334
G1 X162.201 Y75.911 E18.17454
G1 X161.801 Y75.382 E18.19661
G1 X161.801 Y124.883 E19.84303
G1 X161.401 Y125.412 E19.86510
G1 X161.401 Y74.852 E21.54674
G1 X161.001 Y74.323 E21.56881
G1 X161.001 Y125.810 E23.28127
G1 X160.601 Y126.339 E23.30334
G1 X160.601 Y73.926 E25.04661
G1 X160.201 Y73.529 E25.06536
G1 X160.201 Y126.736 E26.83504
G1 X159.801 Y127.133 E26.85379
G1 X159.801 Y73.132 E28.64988
G1 X159.401 Y72.735 E28.66863
G1 X159.401 Y127.530 E30.49114
G1 X159.001 Y127.927 E30.50989
G1 X159.001 Y72.337 E32.35881
G1 X158.601 Y71.940 E32.37755
G1 X158.601 Y128.324 E34.25289
G1 X158.201 Y128.721 E34.27163
G1 X158.201 Y71.543 E36.17338
G1 X157.801 Y71.146 E36.19213
G1 X157.801 Y129.118 E38.12029
G1 X157.401 Y129.516 E38.13904
G1 X157.401 Y70.749 E40.09361
G1 X157.001 Y70.352 E40.11236
G1 X157.001 Y129.913 E42.09335
G1 X156.601 Y130.177 E42.10930
G1 X156.601 Y69.955 E44.11230
G1 X156.201 Y69.690 E44.12826
G1 X156.201 Y130.574 E46.15327
G1 X155.801 Y130.971 E46.17201
G1 X155.801 Y69.293 E48.22344
G1 X155.401 Y68.896 E48.24219
G1 X155.401 Y131.369 E50.32003
G1 X155.001 Y131.766 E50.33877
G1 X155.001 Y68.499 E52.44302
G1 X154.601 Y68.102 E52.46177
G1 X154.601 Y132.030 E54.58803
G1 X154.201 Y132.427 E54.60678
G1 X154.201 Y67.837 E56.75505
G1 X153.801 Y67.440 E56.77379
G1 X153.801 Y132.692 E58.94408
G1 X153.401 Y132.957 E58.96003
G1 X153.401 Y67.176 E61.14793
G1 X153.001 Y66.911 E61.16388
G1 X153.001 Y133.222 E63.36938
G1 X152.601 Y133.619 E63.38813
G1 X152.601 Y66.646 E65.61564
G1 X152.201 Y66.381 E65.63159
G1 X152.201 Y133.883 E67.87672
G1 X151.801 Y134.148 E67.89267
G1 X151.801 Y66.117 E70.15541
G1 X151.401 Y65.852 E70.17136
G1 X151.401 Y134.413 E72.45170
G1 X151.001 Y134.677 E72.46765
G1 X151.001 Y65.587 E74.76560
G1 X150.601 Y65.323 E74.78156
G1 X150.601 Y134.942 E77.09712
G1 X150.201 Y135.207 E77.11307
G1 X150.201 Y65.058 E79.44624
G1 X149.801 Y64.793 E79.46219
G1 X149.801 Y135.472 E81.81297
G1 X149.401 Y135.604 E81.82698
G1 X149.401 Y64.528 E84.19096
G1 X149.001 Y64.396 E84.20498
G1 X149.001 Y135.869 E86.58217
G1 X148.601 Y136.001 E86.59618
G1 X148.601 Y64.264 E88.98218
G1 X148.201 Y63.999 E88.99813
G1 X148.201 Y136.266 E91.40173
G1 X147.801 Y136.398 E91.41575
G1 X147.801 Y63.734 E93.83256
G1 X147.401 Y63.602 E93.84657
G1 X147.401 Y136.663 E96.27659
G1 X147.001 Y136.795 E96.29060
G1 X147.001 Y63.337 E98.73383
G1 X146.601 Y63.205 E98.74784
G1 X146.601 Y137.060 E101.20427
G1 X146.201 Y137.192 E101.21828
G1 X146.201 Y62.940 E103.68792
G1 X145.801 Y62.808 E103.70193
G1 X145.801 Y137.457 E106.18478
G1 X145.401 Y137.589 E106.19879
G1 X145.401 Y62.675 E108.69044
G1 X145.001 Y62.411 E108.70639
G1 X145.001 Y137.722 E111.21124
G1 X144.601 Y137.854 E111.22526
G1 X144.601 Y62.278 E113.73891
G1 X144.201 Y62.146 E113.75293
G1 X144.201 Y137.986 E116.27539
G1 X143.801 Y138.119 E116.28941
G1 X143.801 Y62.014 E118.82067
G1 X143.401 Y62.014 E118.83398
G1 X143.401 Y138.251 E121.36964
G1 X143.001 Y138.383 E121.38366
G1 X143.001 Y61.881 E123.92813
G1 X142.601 Y61.749 E123.94215
G1 X142.601 Y138.516 E126.49542
G1 X142.201 Y138.648 E126.50944
G1 X142.201 Y61.617 E129.07152
G1 X141.801 Y61.484 E129.08553
G1 X141.801 Y138.781 E131.65640
G1 X141.401 Y138.913 E131.67041
G1 X141.401 Y61.352 E134.25009
G1 X141.001 Y61.220 E134.26410
G1 X141.001 Y139.045 E136.85258
G1 X140.601 Y139.045 E136.86589
G1 X140.601 Y61.087 E139.45879
G1 X140.201 Y60.955 E139.47279
G1 X140.201 Y139.178 E142.07449
G1 X139.801 Y139.310 E142.08850
G1 X139.801 Y60.955 E144.69461
G1 X139.401 Y60.822 E144.70862
G1 X139.401 Y139.442 E147.32352
G1 X139.001 Y139.442 E147.33682
G1 X139.001 Y60.822 E149.95172
G1 X138.601 Y60.690 E149.96573
G1 X138.601 Y139.442 E152.58504
G1 X138.201 Y139.575 E152.59904
G1 X138.201 Y60.690 E155.22275
G1 X137.801 Y60.558 E155.23676
G1 X137.801 Y139.575 E157.86487
G1 X137.401 Y139.707 E157.87888
G1 X137.401 Y60.558 E160.51138
G1 X137.001 Y60.425 E160.52539
G1 X137.001 Y139.707 E163.16231
G1 X136.601 Y139.839 E163.17632
G1 X136.601 Y60.425 E165.81764
G1 X136.201 Y60.425 E165.83095
G1 X136.201 Y139.839 E168.47228
G1 X135.801 Y139.972 E168.48628
G1 X135.801 Y60.293 E171.13642
G1 X135.401 Y60.293 E171.14972
G1 X135.401 Y139.972 E173.79986
G1 X135.001 Y140.104 E173.81386
G1 X135.001 Y60.161 E176.47280
G1 X134.601 Y60.161 E176.48610
G1 X134.601 Y140.104 E179.14504
G1 X134.201 Y140.104 E179.15834
G1 X134.201 Y60.161 E181.81728
G1 X133.801 Y60.161 E181.83058
G1 X133.801 Y140.104 E184.48952
G1 X133.401 Y140.104 E184.50282
G1 X133.401 Y60.161 E187.16176
G1 X133.001 Y60.161 E187.17506
G1 X133.001 Y140.104 E189.83400
G1 X132.601 Y140.104 E189.84730
G1 X132.601 Y60.161 E192.50624
G1 X132.201 Y60.161 E192.51954
G1 X132.201 Y140.104 E195.17848
G1 X131.801 Y140.104 E195.19178
G1 X131.801 Y60.161 E197.85072
G1 X131.401 Y60.161 E197.86402
G1 X131.401 Y140.104 E200.52296
G1 X131.001 Y140.104 E200.53628
G1 X131.001 Y60.161 E203.19520
G1 X130.601 Y60.161 E203.20852
G1 X130.601 Y140.104 E205.86744
G1 X130.201 Y140.104 E205.88076
G1 X130.201 Y60.161 E208.53968
G1 X129.801 Y60.161 E208.55300
G1 X129.801 Y140.104 E211.21192
G1 X129.401 Y140.104 E211.22524
G1 X129.401 Y60.161 E213.88418
G1 X129.001 Y60.161 E213.89748
G1 X129.001 Y140.104 E216.55642
G1 X128.601 Y140.104 E216.56972
G1 X128.601 Y60.161 E219.22866
G1 X128.201 Y60.161 E219.24196
G1 X128.201 Y140.104 E221.90090
G1 X127.801 Y140.104 E221.91420
G1 X127.801 Y60.161 E224.57314
G1 X127.401 Y60.161 E224.58644
G1 X127.401 Y140.104 E227.24538
G1 X127.001 Y140.104 E227.25868
G1 X127.001 Y60.161 E229.91762
G1 X126.601 Y60.161 E229.93092
G1 X126.601 Y140.104 E232.58986
G1 X126.201 Y140.104 E232.60316
G1 X126.201 Y60.161 E235.26210
G1 X125.801 Y60.161 E235.27540
G1 X125.801 Y140.104 E237.93434
G1 X125.401 Y140.104 E237.94764
G1 X125.401 Y60.161 E240.60658
G1 X125.001 Y60.161 E240.61988
G1 X125.001 Y140.104 E243.27882
G1 X124.601 Y139.972 E243.29284
G1 X124.601 Y60.161 E245.94736
G1 X124.201 Y60.293 E245.96136
G1 X124.201 Y139.972 E248.61150
G1 X123.801 Y139.839 E248.62550
G1 X123.801 Y60.293 E251.27122
G1 X123.401 Y60.425 E251.28524
G1 X123.401 Y139.839 E253.92656
G1 X123.001 Y139.707 E253.94056
G1 X123.001 Y60.425 E256.57748
G1 X122.601 Y60.558 E256.59150
G1 X122.601 Y139.707 E259.22400
G1 X122.201 Y139.707 E259.23730
G1 X122.201 Y60.558 E261.86982
G1 X121.801 Y60.690 E261.88382
G1 X121.801 Y139.575 E264.50754
G1 X121.401 Y139.575 E264.52084
G1 X121.401 Y60.690 E267.14456
G1 X121.001 Y60.822 E267.15856
G1 X121.001 Y139.442 E269.77346
G1 X120.601 Y139.442 E269.78678
G1 X120.601 Y60.822 E272.40168
G1 X120.201 Y60.955 E272.41568
G1 X120.201 Y139.310 E275.02178
G1 X119.801 Y139.310 E275.03510
G1 X119.801 Y60.955 E277.64120
G1 X119.401 Y61.087 E277.65522
G1 X119.401 Y139.178 E280.25250
G1 X119.001 Y139.045 E280.26652
G1 X119.001 Y61.220 E282.85502
G1 X118.601 Y61.352 E282.86902
G1 X118.601 Y138.913 E285.44870
G1 X118.201 Y138.781 E285.46270
G1 X118.201 Y61.484 E288.03360
G1 X117.801 Y61.617 E288.04760
G1 X117.801 Y138.648 E290.60968
G1 X117.401 Y138.516 E290.62368
G1 X117.401 Y61.749 E293.17698
G1 X117.001 Y61.881 E293.19098
G1 X117.001 Y138.383 E295.73544
G1 X116.601 Y138.383 E295.74874
G1 X116.601 Y61.881 E298.29322
G1 X116.201 Y62.014 E298.30722
G1 X116.201 Y138.251 E300.84290
G1 X115.801 Y138.119 E300.85690
G1 X115.801 Y62.146 E303.38376
G1 X115.401 Y62.278 E303.39776
G1 X115.401 Y137.986 E305.91584
G1 X115.001 Y137.854 E305.92984
G1 X115.001 Y62.411 E308.43908
G1 X114.601 Y62.543 E308.45310
G1 X114.601 Y137.722 E310.95356
G1 X114.201 Y137.457 E310.96952
G1 X114.201 Y62.808 E313.45236
G1 X113.801 Y62.940 E313.46636
G1 X113.801 Y137.325 E315.94040
G1 X113.401 Y137.060 E315.95636
G1 X113.401 Y63.073 E318.41718
G1 X113.001 Y63.337 E318.43314
G1 X113.001 Y136.928 E320.88076
G1 X112.601 Y136.795 E320.89478
G1 X112.601 Y63.470 E323.33358
G1 X112.201 Y63.734 E323.34954
G1 X112.201 Y136.530 E325.77076
G1 X111.801 Y136.398 E325.78476
G1 X111.801 Y63.867 E328.19718
G1 X111.401 Y64.131 E328.21314
G1 X111.401 Y136.133 E330.60794
G1 X111.001 Y135.869 E330.62390
G1 X111.001 Y64.396 E333.00110
G1 X110.601 Y64.528 E333.01510
G1 X110.601 Y135.736 E335.38348
G1 X110.201 Y135.472 E335.39944
G1 X110.201 Y64.661 E337.75460
G1 X109.801 Y64.926 E337.77056
G1 X109.801 Y135.207 E340.10812
G1 X109.401 Y134.942 E340.12408
G1 X109.401 Y65.190 E342.44404
G1 X109.001 Y65.455 E342.46000
G1 X109.001 Y134.677 E344.76232
G1 X108.601 Y134.413 E344.77828
G1 X108.601 Y65.720 E347.06300
G1 X108.201 Y65.984 E347.07896
G1 X108.201 Y134.148 E349.34608
G1 X107.801 Y133.883 E349.36208
G1 X107.801 Y66.249 E351.61156
G1 X107.401 Y66.646 E351.63032
G1 X107.401 Y133.619 E353.85780
G1 X107.001 Y133.354 E353.87376
G1 X107.001 Y66.911 E356.08368
G1 X106.601 Y67.176 E356.09964
G1 X106.601 Y133.089 E358.29192
G1 X106.201 Y132.824 E358.30788
G1 X106.201 Y67.440 E360.48256
G1 X105.801 Y67.705 E360.49852
G1 X105.801 Y132.560 E362.65560
G1 X105.401 Y132.163 E362.67436
G1 X105.401 Y67.970 E364.80940
G1 X105.001 Y68.367 E364.82816
G1 X105.001 Y131.766 E366.93680
G1 X104.601 Y131.501 E366.95276
G1 X104.601 Y68.764 E369.03940
G1 X104.201 Y69.161 E369.05812
G1 X104.201 Y131.104 E371.11836
G1 X103.801 Y130.707 E371.13712
G1 X103.801 Y69.558 E373.17092
G1 X103.401 Y69.823 E373.18688
G1 X103.401 Y130.310 E375.19868
G1 X103.001 Y129.913 E375.21744
G1 X103.001 Y70.220 E377.20280
G1 X102.601 Y70.617 E377.22156
G1 X102.601 Y129.648 E379.18492
G1 X102.201 Y129.251 E379.20368
G1 X102.201 Y71.014 E381.14064
G1 X101.801 Y71.411 E381.15940
G1 X101.801 Y128.854 E383.06996
G1 X101.401 Y128.457 E383.08868
G1 X101.401 Y71.808 E384.97284
G1 X101.001 Y72.205 E384.99156
G1 X101.001 Y128.060 E386.84932
G1 X100.601 Y127.663 E386.86804
G1 X100.601 Y72.602 E388.69936
G1 X100.201 Y72.999 E388.71812
G1 X100.201 Y127.265 E390.52300
G1 X99.801 Y126.868 E390.54176
G1 X99.801 Y73.396 E392.32024
G1 X99.401 Y73.793 E392.33900
G1 X99.401 Y126.471 E394.09108
G1 X99.001 Y126.074 E394.10980
G1 X99.001 Y74.190 E395.83544
G1 X98.601 Y74.720 E395.85752
G1 X98.601 Y125.545 E397.54796
G1 X98.201 Y125.015 E397.57000
G1 X98.201 Y75.249 E399.22520
G1 X97.801 Y75.646 E399.24396
G1 X97.801 Y124.486 E400.86836
G1 X97.401 Y124.089 E400.88712
G1 X97.401 Y76.176 E402.48072
G1 X97.001 Y76.705 E402.50276
G1 X97.001 Y123.559 E404.06116
G1 X96.601 Y123.030 E404.08324
G1 X96.601 Y77.235 E405.60640
G1 X96.201 Y77.764 E405.62844
G1 X96.201 Y122.501 E407.11640
G1 X95.801 Y121.971 E407.13844
G1 X95.801 Y78.294 E408.59120
G1 X95.401 Y78.955 E408.61692
G1 X95.401 Y121.309 E410.02560
G1 X95.001 Y120.648 E410.05132
G1 X95.001 Y79.617 E411.41600
G1 X94.601 Y80.279 E411.44176
G1 X94.601 Y119.986 E412.76240
G1 X94.201 Y119.192 E412.79196
G1 X94.201 Y80.941 E414.06420
G1 X93.801 Y81.735 E414.09380
G1 X93.801 Y118.530 E415.31760
G1 X93.401 Y117.603 E415.35116
G1 X93.401 Y82.661 E416.51332
G1 X93.001 Y83.588 E416.54692
G1 X93.001 Y116.545 E417.64308
G1 X92.601 Y115.618 E417.67664
G1 X92.601 Y84.647 E418.70676
G0 X92.201 Y85.705 F7200
G1 X92.201 Y114.559 E419.66644 F2400
G1 X91.801 Y113.633 E419.70000
G1 X91.801 Y86.632 E420.59804
G0 X91.401 Y87.823 F7200
G1 X91.401 Y112.309 E421.41244 F2400
G0 X91.001 Y110.589 F7200
G1 X91.001 Y89.544 E422.11240 F2400
G0 X90.601 Y91.264 F7200
G1 X90.601 Y108.868 E422.69788 F2400
G0 X90.201 Y105.956 F7200
G1 X90.201 Y94.176 E423.08968 F2400
G0 X167.401 Y85.044 F7200
G1 X167.401 Y115.221 E424.09336 F2400
G1 X167.801 Y114.295 E424.12692
G1 X167.801 Y85.970 E425.06900
G0 X168.201 Y87.029 F7200
G1 X168.201 Y113.236 E425.94064 F2400
G0 X168.601 Y111.780 F7200
G1 X168.601 Y88.485 E426.71544 F2400
G0 X169.001 Y90.206 F7200
G1 X169.001 Y110.191 E427.38016 F2400
G0 X169.401 Y108.338 F7200
G1 X169.401 Y91.926 E427.92604 F2400
G0 X169.801 Y96.029 F7200
G1 X169.801 Y104.235 E428.19896 F2400


; ------------------------------------
; Layer #0
; ------------------------------------
G21 ; mm
G90 ; abs
G92 E0 ;reset extr
G0 F600 Z1.450
;segType:HShell
G0 F3000 E-1.00000
G0 X130.970 Y66.057 F5400
G0 F3000 E0.00000
G1 X163.967 Y99.054 E1.55208 F2400
G0 X164.531 Y99.306 F5400
;segType:Perimeter
G1 X164.796 Y100.061 E1.57868 F1200
G1 X164.411 Y105.186 E1.74962
G1 X163.254 Y110.258 E1.92264
G1 X161.354 Y115.099 E2.09563
G1 X158.753 Y119.604 E2.26863
G1 X155.510 Y123.670 E2.44160
G1 X151.698 Y127.208 E2.61459
G1 X147.400 Y130.138 E2.78759
G1 X142.714 Y132.394 E2.96059
G1 X137.744 Y133.928 E3.13359
G1 X132.601 Y134.703 E3.30658
G1 X127.399 Y134.703 E3.47957
G1 X122.256 Y133.928 E3.65256
G1 X117.286 Y132.394 E3.82556
G1 X112.600 Y130.138 E3.99855
G1 X108.302 Y127.208 E4.17154
G1 X104.490 Y123.670 E4.34454
G1 X101.247 Y119.604 E4.51752
G1 X98.646 Y115.099 E4.69052
G1 X96.746 Y110.258 E4.86351
G1 X95.589 Y105.187 E5.03650
G1 X95.200 Y100.000 E5.20950
G1 X95.589 Y94.813 E5.38250
G1 X96.746 Y89.742 E5.55549
G1 X98.646 Y84.901 E5.72848
G1 X101.247 Y80.396 E5.90148
G1 X104.490 Y76.330 E6.07447
G1 X108.302 Y72.792 E6.24745
G1 X112.600 Y69.862 E6.42044
G1 X117.286 Y67.606 E6.59344
G1 X122.256 Y66.072 E6.76644
G1 X127.399 Y65.297 E6.93942
G1 X132.601 Y65.297 E7.11242
G1 X137.744 Y66.073 E7.28543
G1 X142.714 Y67.606 E7.45841
G1 X147.401 Y69.863 E7.63143
G1 X151.697 Y72.791 E7.80436
G1 X155.510 Y76.330 E7.97740
G1 X158.753 Y80.396 E8.15037
G1 X161.354 Y84.902 E8.32340
G1 X163.254 Y89.743 E8.49638
G1 X164.411 Y94.812 E8.66931
G1 X164.796 Y99.942 E8.84041
G0 X164.796 Y100.061 F5400
G0 X164.676 Y101.657
G0 X164.319 Y101.068
;segType:Loop
G1 X164.015 Y105.127 E8.97578 F2400
G1 X162.871 Y110.139 E9.14677
G1 X160.992 Y114.925 E9.31777
G1 X158.421 Y119.378 E9.48880
G1 X155.216 Y123.398 E9.65978
G1 X151.448 Y126.894 E9.83076
G1 X147.200 Y129.790 E10.00176
G1 X142.567 Y132.021 E10.17277
G1 X137.654 Y133.536 E10.34377
G1 X132.571 Y134.303 E10.51477
G1 X127.429 Y134.303 E10.68576
G1 X122.346 Y133.536 E10.85676
G1 X117.432 Y132.021 E11.02777
G1 X112.800 Y129.790 E11.19877
G1 X108.552 Y126.894 E11.36977
G1 X104.784 Y123.397 E11.54076
G1 X101.578 Y119.378 E11.71176
G1 X99.008 Y114.925 E11.88276
G1 X97.129 Y110.139 E12.05375
G1 X95.985 Y105.127 E12.22475
G1 X95.601 Y100.000 E12.39576
G1 X95.985 Y94.873 E12.56676
G1 X97.129 Y89.861 E12.73776
G1 X99.008 Y85.075 E12.90875
G1 X101.578 Y80.622 E13.07975
G1 X104.784 Y76.602 E13.25078
G1 X108.552 Y73.106 E13.42173
G1 X112.800 Y70.210 E13.59274
G1 X117.432 Y67.979 E13.76374
G1 X122.345 Y66.464 E13.93474
G1 X127.430 Y65.697 E14.10577
G1 X132.571 Y65.697 E14.27674
G1 X137.654 Y66.463 E14.44772
G1 X142.568 Y67.979 E14.61876
G1 X147.200 Y70.210 E14.78977
G1 X151.446 Y73.104 E14.96067
G1 X155.216 Y76.603 E15.13173
G1 X158.422 Y80.623 E15.30275
G1 X160.993 Y85.076 E15.47377
G1 X162.871 Y89.861 E15.64474
G1 X164.014 Y94.872 E15.81571
G1 X164.399 Y100.001 E15.98677
G1 X164.334 Y100.869 E16.01572
G0 X163.921 Y98.443 F5400
;segType:HShell
G1 X131.536 Y66.057 E17.53903 F2400
G0 X132.101 Y66.057 F5400
G1 X163.875 Y97.831 E19.03357 F2400
G0 X163.829 Y97.220 F5400
G1 X132.689 Y66.079 E20.49832 F2400
G0 X133.355 Y66.180 F5400
G1 X163.783 Y96.608 E21.92959 F2400
G0 X163.738 Y95.997 F5400
G1 X134.021 Y66.280 E23.32736 F2400
G0 X134.687 Y66.380 F5400
G1 X163.692 Y95.385 E24.69165 F2400
G0 X163.616 Y94.743 F5400
G1 X135.353 Y66.481 E26.02103 F2400
G0 X136.019 Y66.581 F5400
G1 X163.448 Y94.010 E27.31121 F2400
G0 X163.281 Y93.277 F5400
G1 X136.685 Y66.682 E28.56219 F2400
G0 X137.351 Y66.782 F5400
G1 X163.114 Y92.544 E29.77397 F2400
G0 X162.946 Y91.811 F5400
G1 X138.119 Y66.984 E30.94179 F2400
G0 X138.937 Y67.236 F5400
G1 X162.779 Y91.078 E32.06326 F2400
G0 X162.612 Y90.345 F5400
G1 X139.755 Y67.488 E33.13838 F2400
G0 X140.573 Y67.741 F5400
G1 X162.349 Y89.516 E34.16265 F2400
G0 X161.983 Y88.585 F5400
G1 X141.391 Y67.993 E35.13125 F2400
G0 X142.209 Y68.245 F5400
G1 X161.618 Y87.654 E36.04419 F2400
G0 X161.252 Y86.723 F5400
G1 X143.224 Y68.695 E36.89218 F2400
G0 X144.315 Y69.221 F5400
G1 X160.887 Y85.792 E37.67165 F2400
G0 X160.359 Y84.698 F5400
G1 X145.407 Y69.746 E38.37496 F2400
G0 X146.498 Y70.272 F5400
G1 X159.586 Y83.360 E38.99060 F2400
G0 X158.814 Y82.022 F5400
G1 X147.947 Y71.155 E39.50173 F2400
G0 X149.724 Y72.366 F5400
G1 X157.886 Y80.528 E39.88564 F2400
G0 X152.459 Y74.536 F5400
G1 X155.659 Y77.735 E40.03614 F2400
G0 X130.404 Y66.057 F5400
G1 X164.013 Y99.666 E41.61698 F2400
G0 X164.020 Y100.239 F5400
G1 X129.839 Y66.057 E43.22477 F2400
G0 X129.273 Y66.057 F5400
G1 X163.981 Y100.765 E44.85731 F2400
G0 X163.941 Y101.291 F5400
G1 X128.707 Y66.057 E46.51461 F2400
G0 X128.142 Y66.057 F5400
G1 X163.902 Y101.818 E48.19666 F2400
G0 X163.862 Y102.344 F5400
G1 X127.576 Y66.057 E49.90346 F2400
G0 X127.069 Y66.116 F5400
G1 X163.823 Y102.870 E51.63225 F2400
G0 X163.783 Y103.396 F5400
G1 X126.577 Y66.190 E53.38232 F2400
G0 X126.085 Y66.264 F5400
G1 X163.744 Y103.922 E55.15365 F2400
G0 X163.704 Y104.449 F5400
G1 X125.594 Y66.338 E56.94625 F2400
G0 X125.102 Y66.412 F5400
G1 X163.665 Y104.975 E58.76012 F2400
G0 X163.572 Y105.448 F5400
G1 X124.611 Y66.486 E60.59274 F2400
G0 X124.119 Y66.560 F5400
G1 X163.467 Y105.908 E62.44354 F2400
G0 X163.362 Y106.369 F5400
G1 X123.627 Y66.635 E64.31252 F2400
G0 X123.136 Y66.709 F5400
G1 X163.257 Y106.829 E66.19968 F2400
G0 X163.152 Y107.290 F5400
G1 X122.644 Y66.783 E68.10501 F2400
G0 X122.186 Y66.890 F5400
G1 X163.046 Y107.751 E70.02698 F2400
G0 X162.941 Y108.211 F5400
G1 X121.753 Y67.023 E71.96434 F2400
G0 X121.321 Y67.156 F5400
G1 X162.836 Y108.672 E73.91709 F2400
G0 X162.731 Y109.132 F5400
G1 X120.889 Y67.290 E75.88523 F2400
G0 X120.456 Y67.423 F5400
G1 X162.626 Y109.593 E77.86875 F2400
G0 X162.518 Y110.051 F5400
G1 X120.024 Y67.557 E79.86756 F2400
G0 X119.592 Y67.690 F5400
G1 X162.359 Y110.457 E81.87920 F2400
G0 X162.199 Y110.863 F5400
G1 X119.159 Y67.823 E83.90367 F2400
G0 X118.727 Y67.957 F5400
G1 X162.040 Y111.270 E85.94098 F2400
G0 X161.881 Y111.676 F5400
G1 X118.295 Y68.090 E87.99113 F2400
G0 X117.862 Y68.223 F5400
G1 X161.721 Y112.082 E90.05411 F2400
G0 X161.562 Y112.488 F5400
G1 X117.446 Y68.372 E92.12919 F2400
G0 X117.064 Y68.556 F5400
G1 X161.402 Y112.895 E94.21473 F2400
G0 X161.243 Y113.301 F5400
G1 X116.682 Y68.740 E96.31073 F2400
G0 X116.300 Y68.924 F5400
G1 X161.083 Y113.707 E98.41719 F2400
G0 X160.924 Y114.113 F5400
G1 X115.918 Y69.108 E100.53411 F2400
G0 X115.537 Y69.292 F5400
G1 X160.765 Y114.520 E102.66149 F2400
G0 X160.587 Y114.907 F5400
G1 X115.155 Y69.476 E104.79846 F2400
G0 X114.773 Y69.659 F5400
G1 X160.380 Y115.266 E106.94366 F2400
G0 X160.173 Y115.625 F5400
G1 X114.391 Y69.843 E109.09707 F2400
G0 X114.009 Y70.027 F5400
G1 X159.966 Y115.983 E111.25871 F2400
G0 X159.758 Y116.342 F5400
G1 X113.628 Y70.211 E113.42856 F2400
G0 X113.246 Y70.395 F5400
G1 X159.551 Y116.701 E115.60663 F2400
G0 X159.344 Y117.059 F5400
G1 X112.878 Y70.593 E117.79227 F2400
G0 X112.542 Y70.822 F5400
G1 X159.137 Y117.418 E119.98399 F2400
G0 X158.930 Y117.776 F5400
G1 X112.205 Y71.051 E122.18179 F2400
G0 X111.869 Y71.281 F5400
G1 X158.723 Y118.135 E124.38568 F2400
G0 X158.516 Y118.494 F5400
G1 X111.532 Y71.510 E126.59565 F2400
G0 X111.196 Y71.739 F5400
G1 X158.309 Y118.852 E128.81171 F2400
G0 X158.098 Y119.207 F5400
G1 X110.860 Y71.969 E131.03363 F2400
G0 X110.523 Y72.198 F5400
G1 X157.847 Y119.521 E133.25957 F2400
G0 X157.596 Y119.836 F5400
G1 X110.187 Y72.427 E135.48952 F2400
G0 X109.851 Y72.657 F5400
G1 X157.345 Y120.151 E137.72350 F2400
G0 X157.094 Y120.465 F5400
G1 X109.514 Y72.886 E139.96149 F2400
G0 X109.178 Y73.115 F5400
G1 X156.843 Y120.780 E142.20349 F2400
G0 X156.592 Y121.095 F5400
G1 X108.842 Y73.345 E144.44951 F2400
G0 X108.540 Y73.609 F5400
G1 X156.341 Y121.409 E146.69791 F2400
G0 X156.090 Y121.724 F5400
G1 X108.246 Y73.881 E148.94830 F2400
G0 X107.953 Y74.153 F5400
G1 X155.839 Y122.039 E151.20070 F2400
G0 X155.588 Y122.354 F5400
G1 X107.660 Y74.426 E153.45509 F2400
G0 X107.366 Y74.698 F5400
G1 X155.337 Y122.668 E155.71147 F2400
G0 X155.086 Y122.983 F5400
G1 X107.073 Y74.970 E157.96985 F2400
G0 X106.779 Y75.242 F5400
G1 X154.815 Y123.278 E160.22929 F2400
G0 X154.522 Y123.550 F5400
G1 X106.486 Y75.515 E162.48874 F2400
G0 X106.193 Y75.787 F5400
G1 X154.228 Y123.823 E164.74818 F2400
G0 X153.935 Y124.095 F5400
G1 X105.899 Y76.059 E167.00763 F2400
G0 X105.606 Y76.331 F5400
G1 X153.641 Y124.367 E169.26708 F2400
G0 X153.348 Y124.639 F5400
G1 X105.312 Y76.604 E171.52652 F2400
G0 X105.023 Y76.880 F5400
G1 X153.055 Y124.912 E173.78576 F2400
G0 X152.761 Y125.184 F5400
G1 X104.772 Y77.195 E176.04302 F2400
G0 X104.521 Y77.510 F5400
G1 X152.468 Y125.456 E178.29826 F2400
G0 X152.174 Y125.728 F5400
G1 X104.270 Y77.824 E180.55152 F2400
G0 X104.019 Y78.139 F5400
G1 X151.881 Y126.001 E182.80278 F2400
G0 X151.588 Y126.273 F5400
G1 X103.768 Y78.454 E185.05204 F2400
G0 X103.517 Y78.769 F5400
G1 X151.294 Y126.545 E187.29932 F2400
G0 X150.968 Y126.785 F5400
G1 X103.266 Y79.083 E189.54306 F2400
G0 X103.015 Y79.398 F5400
G1 X150.632 Y127.014 E191.78280 F2400
G0 X150.296 Y127.244 F5400
G1 X102.765 Y79.713 E194.01850 F2400
G0 X102.514 Y80.027 F5400
G1 X149.959 Y127.473 E196.25022 F2400
G0 X149.623 Y127.702 F5400
G1 X102.263 Y80.342 E198.47790 F2400
G0 X102.012 Y80.657 F5400
G1 X149.286 Y127.932 E200.70156 F2400
G0 X148.950 Y128.161 F5400
G1 X101.781 Y80.992 E202.92024 F2400
G0 X101.574 Y81.350 F5400
G1 X148.614 Y128.390 E205.13286 F2400
G0 X148.277 Y128.620 F5400
G1 X101.367 Y81.709 E207.33938 F2400
G0 X101.160 Y82.068 F5400
G1 X147.941 Y128.849 E209.53982 F2400
G0 X147.605 Y129.078 F5400
G1 X100.953 Y82.426 E211.73420 F2400
G0 X100.746 Y82.785 F5400
G1 X147.268 Y129.308 E213.92248 F2400
G0 X146.920 Y129.525 F5400
G1 X100.539 Y83.144 E216.10412 F2400
G0 X100.332 Y83.502 F5400
G1 X146.538 Y129.709 E218.27754 F2400
G0 X146.156 Y129.893 F5400
G1 X100.124 Y83.861 E220.44274 F2400
G0 X99.917 Y84.220 F5400
G1 X145.775 Y130.077 E222.59974 F2400
G0 X145.393 Y130.261 F5400
G1 X99.710 Y84.578 E224.74848 F2400
G0 X99.503 Y84.937 F5400
G1 X145.011 Y130.444 E226.88904 F2400
G0 X144.629 Y130.628 F5400
G1 X99.305 Y85.304 E229.02096 F2400
G0 X99.145 Y85.710 F5400
G1 X144.247 Y130.812 E231.14242 F2400
G0 X143.866 Y130.996 F5400
G1 X98.986 Y86.116 E233.25344 F2400
G0 X98.826 Y86.523 F5400
G1 X143.484 Y131.180 E235.35398 F2400
G0 X143.102 Y131.364 F5400
G1 X98.667 Y86.929 E237.44406 F2400
G0 X98.508 Y87.335 F5400
G1 X142.720 Y131.548 E239.52368 F2400
G0 X142.325 Y131.719 F5400
G1 X98.348 Y87.741 E241.59224 F2400
G0 X98.189 Y88.148 F5400
G1 X141.893 Y131.852 E243.64796 F2400
G0 X141.461 Y131.985 F5400
G1 X98.029 Y88.554 E245.69086 F2400
G0 X97.870 Y88.960 F5400
G1 X141.029 Y132.119 E247.72092 F2400
G0 X140.596 Y132.252 F5400
G1 X97.710 Y89.366 E249.73812 F2400
G0 X97.551 Y89.773 F5400
G1 X140.164 Y132.386 E251.74250 F2400
G0 X139.732 Y132.519 F5400
G1 X97.420 Y90.207 E253.73272 F2400
G0 X97.315 Y90.668 F5400
G1 X139.299 Y132.652 E255.70756 F2400
G0 X138.867 Y132.786 F5400
G1 X97.210 Y91.128 E257.66700 F2400
G0 X97.104 Y91.589 F5400
G1 X138.435 Y132.919 E259.61102 F2400
G0 X138.002 Y133.052 F5400
G1 X96.999 Y92.049 E261.53968 F2400
G0 X96.894 Y92.510 F5400
G1 X137.569 Y133.185 E263.45292 F2400
G0 X137.078 Y133.259 F5400
G1 X96.789 Y92.971 E265.34796 F2400
G0 X96.684 Y93.431 F5400
G1 X136.586 Y133.333 E267.22486 F2400
G0 X136.095 Y133.407 F5400
G1 X96.579 Y93.892 E269.08356 F2400
G0 X96.474 Y94.352 F5400
G1 X135.603 Y133.481 E270.92408 F2400
G0 X135.111 Y133.556 F5400
G1 X96.369 Y94.813 E272.74642 F2400
G0 X96.313 Y95.323 F5400
G1 X134.620 Y133.630 E274.54828 F2400
G0 X134.128 Y133.704 F5400
G1 X96.273 Y95.849 E276.32886 F2400
G0 X96.234 Y96.375 F5400
G1 X133.637 Y133.778 E278.08816 F2400
G0 X133.145 Y133.852 F5400
G1 X96.194 Y96.901 E279.82620 F2400
G0 X96.155 Y97.428 F5400
G1 X132.653 Y133.926 E281.54296 F2400
G0 X132.104 Y133.943 F5400
G1 X96.116 Y97.954 E283.23578 F2400
G0 X96.076 Y98.480 F5400
G1 X131.539 Y133.943 E284.90384 F2400
G0 X130.973 Y133.943 F5400
G1 X96.037 Y99.006 E286.54712 F2400
G0 X95.997 Y99.533 F5400
G1 X130.407 Y133.943 E288.16564 F2400
G0 X129.841 Y133.943 F5400
G1 X95.967 Y100.068 E289.75900 F2400
G0 X96.013 Y100.680 F5400
G1 X129.276 Y133.943 E291.32358 F2400
G0 X128.710 Y133.943 F5400
G1 X96.059 Y101.291 E292.85938 F2400
G0 X96.105 Y101.903 F5400
G1 X128.144 Y133.943 E294.36642 F2400
G0 X127.579 Y133.943 F5400
G1 X96.151 Y102.514 E295.84470 F2400
G0 X96.197 Y103.126 F5400
G1 X126.934 Y133.864 E297.29050 F2400
G0 X126.268 Y133.764 F5400
G1 X96.242 Y103.738 E298.70282 F2400
G0 X96.288 Y104.349 F5400
G1 X125.602 Y133.663 E300.08166 F2400
G0 X124.936 Y133.563 F5400
G1 X96.334 Y104.961 E301.42704 F2400
G0 X96.479 Y105.671 F5400
G1 X124.270 Y133.462 E302.73426 F2400
G0 X123.604 Y133.362 F5400
G1 X96.646 Y106.404 E304.00226 F2400
G0 X96.814 Y107.137 F5400
G1 X122.938 Y133.262 E305.23108 F2400
G0 X122.237 Y133.126 F5400
G1 X96.981 Y107.870 E306.41904 F2400
G0 X97.148 Y108.603 F5400
G1 X121.419 Y132.874 E307.56064 F2400
G0 X120.601 Y132.621 F5400
G1 X97.316 Y109.336 E308.65592 F2400
G0 X97.493 Y110.079 F5400
G1 X119.783 Y132.369 E309.70438 F2400
G0 X118.965 Y132.117 F5400
G1 X97.858 Y111.010 E310.69718 F2400
G0 X98.223 Y111.941 F5400
G1 X118.147 Y131.864 E311.63430 F2400
G0 X117.250 Y131.533 F5400
G1 X98.589 Y112.872 E312.51206 F2400
G0 X98.954 Y113.803 F5400
G1 X116.159 Y131.008 E313.32128 F2400
G0 X115.068 Y130.482 F5400
G1 X99.320 Y114.735 E314.06202 F2400
G0 X100.078 Y116.058 F5400
G1 X113.976 Y129.957 E314.71576 F2400
G0 X112.825 Y129.371 F5400
G1 X100.850 Y117.397 E315.27902 F2400
G0 X101.623 Y118.735 F5400
G1 X111.048 Y128.159 E315.72232 F2400
G0 X109.270 Y126.947 F5400
G1 X103.374 Y121.051 E315.99966 F2400
; ------------------------------------
; Layer #1
; ------------------------------------
G92 E0 ;reset extr
G0 F3000 E-1.00000
G0 F600 Z1.300
G0 X129.433 Y133.943 F7200
G0 F3000 E0.00000
;segType:HShell
G1 X163.992 Y99.384 E0.81277 F2880
G0 X164.531 Y99.306 F7200
;segType:Perimeter
G1 X164.796 Y100.061 E0.82607 F1440
G1 X164.411 Y105.186 E0.91154
G1 X163.254 Y110.258 E0.99805
G1 X161.354 Y115.099 E1.08455
G1 X158.753 Y119.604 E1.17104
G1 X155.510 Y123.670 E1.25753
G1 X151.698 Y127.208 E1.34403
G1 X147.400 Y130.138 E1.43053
G1 X142.714 Y132.394 E1.51702
G1 X137.744 Y133.928 E1.60352
G1 X132.601 Y134.703 E1.69002
G1 X127.399 Y134.703 E1.77651
G1 X122.256 Y133.928 E1.86301
G1 X117.286 Y132.394 E1.94951
G1 X112.600 Y130.138 E2.03601
G1 X108.302 Y127.208 E2.12250
G1 X104.490 Y123.670 E2.20900
G1 X101.247 Y119.604 E2.29549
G1 X98.646 Y115.099 E2.38199
G1 X96.746 Y110.258 E2.46848
G1 X95.589 Y105.187 E2.55498
G1 X95.200 Y100.000 E2.64148
G1 X95.589 Y94.813 E2.72798
G1 X96.746 Y89.742 E2.81448
G1 X98.646 Y84.901 E2.90097
G1 X101.247 Y80.396 E2.98747
G1 X104.490 Y76.330 E3.07397
G1 X108.302 Y72.792 E3.16046
G1 X112.600 Y69.862 E3.24695
G1 X117.286 Y67.606 E3.33345
G1 X122.256 Y66.072 E3.41995
G1 X127.399 Y65.297 E3.50644
G1 X132.601 Y65.297 E3.59294
G1 X137.744 Y66.073 E3.67945
G1 X142.714 Y67.606 E3.76594
G1 X147.401 Y69.863 E3.85244
G1 X151.697 Y72.791 E3.93891
G1 X155.510 Y76.330 E4.02543
G1 X158.753 Y80.396 E4.11192
G1 X161.354 Y84.902 E4.19843
G1 X163.254 Y89.743 E4.28492
G1 X164.411 Y94.812 E4.37139
G1 X164.796 Y99.942 E4.45693
G0 X164.796 Y100.061 F7200
G0 X164.676 Y101.657
G0 X164.319 Y101.068
;segType:Loop
G1 X164.015 Y105.127 E4.52462 F2880
G1 X162.871 Y110.139 E4.61011
G1 X160.992 Y114.925 E4.69562
G1 X158.421 Y119.378 E4.78113
G1 X155.216 Y123.398 E4.86662
G1 X151.448 Y126.894 E4.95211
G1 X147.200 Y129.790 E5.03761
G1 X142.567 Y132.021 E5.12311
G1 X137.654 Y133.536 E5.20862
G1 X132.571 Y134.303 E5.29411
G1 X127.429 Y134.303 E5.37961
G1 X122.346 Y133.536 E5.46511
G1 X117.432 Y132.021 E5.55062
G1 X112.800 Y129.790 E5.63611
G1 X108.552 Y126.894 E5.72161
G1 X104.784 Y123.397 E5.80711
G1 X101.578 Y119.378 E5.89261
G1 X99.008 Y114.925 E5.97811
G1 X97.129 Y110.139 E6.06361
G1 X95.985 Y105.127 E6.14911
G1 X95.601 Y100.000 E6.23461
G1 X95.985 Y94.873 E6.32011
G1 X97.129 Y89.861 E6.40561
G1 X99.008 Y85.075 E6.49111
G1 X101.578 Y80.622 E6.57661
G1 X104.784 Y76.602 E6.66212
G1 X108.552 Y73.106 E6.74759
G1 X112.800 Y70.210 E6.83310
G1 X117.432 Y67.979 E6.91860
G1 X122.345 Y66.464 E7.00410
G1 X127.430 Y65.697 E7.08962
G1 X132.571 Y65.697 E7.17510
G1 X137.654 Y66.463 E7.26059
G1 X142.568 Y67.979 E7.34611
G1 X147.200 Y70.210 E7.43161
G1 X151.446 Y73.104 E7.51707
G1 X155.216 Y76.603 E7.60260
G1 X158.422 Y80.623 E7.68810
G1 X160.993 Y85.076 E7.77362
G1 X162.871 Y89.861 E7.85910
G1 X164.014 Y94.872 E7.94458
G1 X164.399 Y100.001 E8.03011
G1 X164.334 Y100.869 E8.04459
G0 X164.031 Y99.910 F7200
;segType:HShell
G1 X129.999 Y133.943 E8.84498 F2880
G0 X130.564 Y133.943 F7200
G1 X164.000 Y100.507 E9.63134 F2880
G0 X163.954 Y101.118 F7200
G1 X131.130 Y133.943 E10.40332 F2880
G0 X131.696 Y133.943 F7200
G1 X163.908 Y101.730 E11.16091 F2880
G0 X163.862 Y102.342 F7200
G1 X132.261 Y133.943 E11.90412 F2880
G0 X132.877 Y133.892 F7200
G1 X163.817 Y102.953 E12.63176 F2880
G0 X163.771 Y103.565 F7200
G1 X133.543 Y133.792 E13.34266 F2880
G0 X134.209 Y133.692 F7200
G1 X163.725 Y104.176 E14.03682 F2880
G0 X163.679 Y104.788 F7200
G1 X134.875 Y133.591 E14.71423 F2880
G0 X135.542 Y133.491 F7200
G1 X163.568 Y105.464 E15.37337 F2880
G0 X163.401 Y106.197 F7200
G1 X136.208 Y133.390 E16.01292 F2880
G0 X136.874 Y133.290 F7200
G1 X163.234 Y106.930 E16.63286 F2880
G0 X163.066 Y107.663 F7200
G1 X137.540 Y133.190 E17.23321 F2880
G0 X138.350 Y132.945 F7200
G1 X162.899 Y108.396 E17.81057 F2880
G0 X162.732 Y109.129 F7200
G1 X139.168 Y132.693 E18.36475 F2880
G0 X139.986 Y132.440 F7200
G1 X162.565 Y109.862 E18.89576 F2880
G0 X162.245 Y110.747 F7200
G1 X140.804 Y132.188 E19.40002 F2880
G0 X141.622 Y131.936 F7200
G1 X161.880 Y111.678 E19.87645 F2880
G0 X161.514 Y112.609 F7200
G1 X142.442 Y131.682 E20.32501 F2880
G0 X143.533 Y131.156 F7200
G1 X161.149 Y113.540 E20.73932 F2880
G0 X160.784 Y114.471 F7200
G1 X144.624 Y130.631 E21.11937 F2880
G0 X145.715 Y130.105 F7200
G1 X160.141 Y115.680 E21.45864 F2880
G0 X159.368 Y117.018 F7200
G1 X146.806 Y129.580 E21.75407 F2880
G0 X148.450 Y128.502 F7200
G1 X158.595 Y118.357 E21.99267 F2880
G0 X157.257 Y120.261 F7200
G1 X150.228 Y127.290 E22.15799 F2880
G0 X154.678 Y123.406 F7200
G1 X155.029 Y123.055 E22.16625 F2880
G0 X128.867 Y133.943 F7200
G1 X163.952 Y98.858 E22.99140 F2880
G0 X163.913 Y98.331 F7200
G1 X128.301 Y133.943 E23.82892 F2880
G0 X127.736 Y133.943 F7200
G1 X163.873 Y97.805 E24.67882 F2880
G0 X163.834 Y97.279 F7200
G1 X127.208 Y133.905 E25.54021 F2880
G0 X126.716 Y133.831 F7200
G1 X163.794 Y96.753 E26.41223 F2880
G0 X163.755 Y96.227 F7200
G1 X126.224 Y133.757 E27.29489 F2880
G0 X125.733 Y133.683 F7200
G1 X163.715 Y95.700 E28.18818 F2880
G0 X163.676 Y95.174 F7200
G1 X125.241 Y133.609 E29.09211 F2880
G0 X124.750 Y133.535 F7200
G1 X163.602 Y94.683 E30.00585 F2880
G0 X163.497 Y94.222 F7200
G1 X124.258 Y133.461 E30.92868 F2880
G0 X123.766 Y133.386 F7200
G1 X163.392 Y93.761 E31.86060 F2880
G0 X163.286 Y93.301 F7200
G1 X123.275 Y133.312 E32.80161 F2880
G0 X122.783 Y133.238 F7200
G1 X163.181 Y92.840 E33.75170 F2880
G0 X163.076 Y92.380 F7200
G1 X122.308 Y133.148 E34.71051 F2880
G0 X121.876 Y133.015 F7200
G1 X162.971 Y91.919 E35.67701 F2880
G0 X162.866 Y91.459 F7200
G1 X121.443 Y132.881 E36.65121 F2880
G0 X121.011 Y132.748 F7200
G1 X162.761 Y90.998 E37.63310 F2880
G0 X162.656 Y90.537 F7200
G1 X120.579 Y132.615 E38.62269 F2880
G0 X120.146 Y132.481 F7200
G1 X162.551 Y90.077 E39.61997 F2880
G0 X162.404 Y89.658 F7200
G1 X119.714 Y132.348 E40.62398 F2880
G0 X119.282 Y132.214 F7200
G1 X162.245 Y89.251 E41.63440 F2880
G0 X162.085 Y88.845 F7200
G1 X118.849 Y132.081 E42.65125 F2880
G0 X118.417 Y131.948 F7200
G1 X161.926 Y88.439 E43.67451 F2880
G0 X161.766 Y88.033 F7200
G1 X117.985 Y131.814 E44.70419 F2880
G0 X117.554 Y131.680 F7200
G1 X161.607 Y87.626 E45.74025 F2880
G0 X161.447 Y87.220 F7200
G1 X117.172 Y131.496 E46.78155 F2880
G0 X116.790 Y131.312 F7200
G1 X161.288 Y86.814 E47.82807 F2880
G0 X161.129 Y86.408 F7200
G1 X116.408 Y131.128 E48.87982 F2880
G0 X116.026 Y130.944 F7200
G1 X160.969 Y86.001 E49.93681 F2880
G0 X160.810 Y85.595 F7200
G1 X115.645 Y130.760 E50.99902 F2880
G0 X115.263 Y130.576 F7200
G1 X160.645 Y85.194 E52.06635 F2880
G0 X160.438 Y84.835 F7200
G1 X114.881 Y130.393 E53.13778 F2880
G0 X114.499 Y130.209 F7200
G1 X160.231 Y84.477 E54.21332 F2880
G0 X160.024 Y84.118 F7200
G1 X114.117 Y130.025 E55.29298 F2880
G0 X113.736 Y129.841 F7200
G1 X159.817 Y83.760 E56.37674 F2880
G0 X159.610 Y83.401 F7200
G1 X113.354 Y129.657 E57.46462 F2880
G0 X112.973 Y129.472 F7200
G1 X159.403 Y83.042 E58.55657 F2880
G0 X159.196 Y82.684 F7200
G1 X112.637 Y129.243 E59.65158 F2880
G0 X112.300 Y129.013 F7200
G1 X158.989 Y82.325 E60.74962 F2880
G0 X158.782 Y81.966 F7200
G1 X111.964 Y128.784 E61.85070 F2880
G0 X111.628 Y128.555 F7200
G1 X158.575 Y81.608 E62.95483 F2880
G0 X158.368 Y81.249 F7200
G1 X111.291 Y128.325 E64.06199 F2880
G0 X110.955 Y128.096 F7200
G1 X158.161 Y80.890 E65.17220 F2880
G0 X157.917 Y80.568 F7200
G1 X110.618 Y127.867 E66.28459 F2880
G0 X110.282 Y127.638 F7200
G1 X157.666 Y80.253 E67.39900 F2880
G0 X157.416 Y79.938 F7200
G1 X109.946 Y127.408 E68.51542 F2880
G0 X109.609 Y127.179 F7200
G1 X157.165 Y79.624 E69.63384 F2880
G0 X156.914 Y79.309 F7200
G1 X109.273 Y126.950 E70.75427 F2880
G0 X108.937 Y126.720 F7200
G1 X156.663 Y78.994 E71.87672 F2880
G0 X156.412 Y78.680 F7200
G1 X108.623 Y126.468 E73.00064 F2880
G0 X108.329 Y126.196 F7200
G1 X156.161 Y78.365 E74.12555 F2880
G0 X155.910 Y78.050 F7200
G1 X108.036 Y125.924 E75.25147 F2880
G0 X107.743 Y125.651 F7200
G1 X155.659 Y77.735 E76.37838 F2880
G0 X155.408 Y77.421 F7200
G1 X107.449 Y125.379 E77.50629 F2880
G0 X107.156 Y125.107 F7200
G1 X155.157 Y77.106 E78.63520 F2880
G0 X154.898 Y76.799 F7200
G1 X106.862 Y124.835 E79.76492 F2880
G0 X106.569 Y124.562 F7200
G1 X154.605 Y76.527 E80.89464 F2880
G0 X154.311 Y76.254 F7200
G1 X106.276 Y124.290 E82.02436 F2880
G0 X105.982 Y124.018 F7200
G1 X154.018 Y75.982 E83.15409 F2880
G0 X153.724 Y75.710 F7200
G1 X105.689 Y123.746 E84.28381 F2880
G0 X105.395 Y123.473 F7200
G1 X153.431 Y75.438 E85.41353 F2880
G0 X153.138 Y75.165 F7200
G1 X105.102 Y123.201 E86.54325 F2880
G0 X104.843 Y122.894 F7200
G1 X152.844 Y74.893 E87.67216 F2880
G0 X152.551 Y74.621 F7200
G1 X104.592 Y122.579 E88.80006 F2880
G0 X104.341 Y122.265 F7200
G1 X152.257 Y74.349 E89.92697 F2880
G0 X151.964 Y74.076 F7200
G1 X104.090 Y121.950 E91.05289 F2880
G0 X103.839 Y121.635 F7200
G1 X151.670 Y73.804 E92.17780 F2880
G0 X151.377 Y73.532 F7200
G1 X103.588 Y121.320 E93.30172 F2880
G0 X103.337 Y121.006 F7200
G1 X151.064 Y73.280 E94.42416 F2880
G0 X150.727 Y73.050 F7200
G1 X103.086 Y120.691 E95.54460 F2880
G0 X102.835 Y120.376 F7200
G1 X150.391 Y72.821 E96.66303 F2880
G0 X150.054 Y72.592 F7200
G1 X102.584 Y120.062 E97.77945 F2880
G0 X102.334 Y119.747 F7200
G1 X149.718 Y72.362 E98.89386 F2880
G0 X149.382 Y72.133 F7200
G1 X102.083 Y119.432 E100.00626 F2880
G0 X101.839 Y119.110 F7200
G1 X149.045 Y71.904 E101.11647 F2880
G0 X148.709 Y71.674 F7200
G1 X101.632 Y118.751 E102.22364 F2880
G0 X101.425 Y118.392 F7200
G1 X148.373 Y71.445 E103.32777 F2880
G0 X148.036 Y71.216 F7200
G1 X101.218 Y118.034 E104.42885 F2880
G0 X101.011 Y117.675 F7200
G1 X147.700 Y70.987 E105.52689 F2880
G0 X147.363 Y70.757 F7200
G1 X100.804 Y117.316 E106.62189 F2880
G0 X100.597 Y116.958 F7200
G1 X147.027 Y70.528 E107.71385 F2880
G0 X146.646 Y70.343 F7200
G1 X100.390 Y116.599 E108.80173 F2880
G0 X100.183 Y116.241 F7200
G1 X146.264 Y70.159 E109.88549 F2880
G0 X145.883 Y69.975 F7200
G1 X99.976 Y115.882 E110.96514 F2880
G0 X99.769 Y115.523 F7200
G1 X145.501 Y69.791 E112.04069 F2880
G0 X145.119 Y69.608 F7200
G1 X99.562 Y115.165 E113.11212 F2880
G0 X99.355 Y114.806 F7200
G1 X144.737 Y69.424 E114.17944 F2880
G0 X144.355 Y69.240 F7200
G1 X99.190 Y114.405 E115.24165 F2880
G0 X99.031 Y113.999 F7200
G1 X143.974 Y69.056 E116.29864 F2880
G0 X143.592 Y68.872 F7200
G1 X98.871 Y113.592 E117.35039 F2880
G0 X98.712 Y113.186 F7200
G1 X143.210 Y68.688 E118.39691 F2880
G0 X142.828 Y68.504 F7200
G1 X98.553 Y112.780 E119.43820 F2880
G0 X98.393 Y112.374 F7200
G1 X142.446 Y68.320 E120.47427 F2880
G0 X142.015 Y68.186 F7200
G1 X98.234 Y111.967 E121.50394 F2880
G0 X98.074 Y111.561 F7200
G1 X141.583 Y68.052 E122.52721 F2880
G0 X141.151 Y67.919 F7200
G1 X97.915 Y111.155 E123.54404 F2880
G0 X97.755 Y110.749 F7200
G1 X140.718 Y67.786 E124.55447 F2880
G0 X140.286 Y67.652 F7200
G1 X97.596 Y110.342 E125.55847 F2880
G0 X97.449 Y109.923 F7200
G1 X139.854 Y67.519 E126.55576 F2880
G0 X139.421 Y67.386 F7200
G1 X97.344 Y109.463 E127.54534 F2880
G0 X97.239 Y109.002 F7200
G1 X138.989 Y67.252 E128.52724 F2880
G0 X138.557 Y67.119 F7200
G1 X97.134 Y108.541 E129.50143 F2880
G0 X97.029 Y108.081 F7200
G1 X138.124 Y66.985 E130.46794 F2880
G0 X137.692 Y66.852 F7200
G1 X96.924 Y107.620 E131.42674 F2880
G0 X96.819 Y107.160 F7200
G1 X137.217 Y66.762 E132.37685 F2880
G0 X136.725 Y66.688 F7200
G1 X96.714 Y106.699 E133.31786 F2880
G0 X96.609 Y106.239 F7200
G1 X136.234 Y66.614 E134.24977 F2880
G0 X135.742 Y66.539 F7200
G1 X96.503 Y105.778 E135.17261 F2880
G0 X96.398 Y105.317 F7200
G1 X135.250 Y66.465 E136.08635 F2880
G0 X134.759 Y66.391 F7200
G1 X96.324 Y104.826 E136.99028 F2880
G0 X96.285 Y104.300 F7200
G1 X134.267 Y66.317 E137.88358 F2880
G0 X133.776 Y66.243 F7200
G1 X96.245 Y103.774 E138.76624 F2880
G0 X96.206 Y103.247 F7200
G1 X133.284 Y66.169 E139.63826 F2880
G0 X132.792 Y66.095 F7200
G1 X96.166 Y102.721 E140.49965 F2880
G0 X96.127 Y102.195 F7200
G1 X132.264 Y66.057 E141.34955 F2880
G0 X131.699 Y66.057 F7200
G1 X96.087 Y101.669 E142.18707 F2880
G0 X96.048 Y101.142 F7200
G1 X131.133 Y66.057 E143.01222 F2880
G0 X130.567 Y66.057 F7200
G1 X96.008 Y100.616 E143.82500 F2880
G0 X95.969 Y100.090 F7200
G1 X130.001 Y66.057 E144.62540 F2880
G0 X129.436 Y66.057 F7200
G1 X96.000 Y99.493 E145.41176 F2880
G0 X96.046 Y98.882 F7200
G1 X128.870 Y66.057 E146.18373 F2880
G0 X128.304 Y66.057 F7200
G1 X96.092 Y98.270 E146.94131 F2880
G0 X96.138 Y97.658 F7200
G1 X127.739 Y66.057 E147.68452 F2880
G0 X127.123 Y66.108 F7200
G1 X96.184 Y97.047 E148.41217 F2880
G0 X96.229 Y96.435 F7200
G1 X126.457 Y66.208 E149.12306 F2880
G0 X125.791 Y66.309 F7200
G1 X96.275 Y95.824 E149.81721 F2880
G0 X96.321 Y95.212 F7200
G1 X125.124 Y66.409 E150.49463 F2880
G0 X124.458 Y66.509 F7200
G1 X96.432 Y94.536 E151.15378 F2880
G0 X96.599 Y93.803 F7200
G1 X123.792 Y66.610 E151.79332 F2880
G0 X123.126 Y66.710 F7200
G1 X96.766 Y93.070 E152.41327 F2880
G0 X96.934 Y92.337 F7200
G1 X122.460 Y66.810 E153.01361 F2880
G0 X121.650 Y67.055 F7200
G1 X97.101 Y91.604 E153.59097 F2880
G0 X97.268 Y90.871 F7200
G1 X120.832 Y67.307 E154.14516 F2880
G0 X120.014 Y67.560 F7200
G1 X97.436 Y90.138 E154.67616 F2880
G0 X97.755 Y89.253 F7200
G1 X119.196 Y67.812 E155.18044 F2880
G0 X118.378 Y68.064 F7200
G1 X98.120 Y88.322 E155.65686 F2880
G0 X98.486 Y87.391 F7200
G1 X117.558 Y68.318 E156.10542 F2880
G0 X116.467 Y68.844 F7200
G1 X98.851 Y86.460 E156.51973 F2880
G0 X99.216 Y85.529 F7200
G1 X115.376 Y69.369 E156.89978 F2880
G0 X111.550 Y71.498 F7200
G1 X101.405 Y81.643 E157.13838 F2880
G0 X100.632 Y82.982 F7200
G1 X113.194 Y70.420 E157.43382 F2880
G0 X114.285 Y69.895 F7200
G1 X99.859 Y84.320 E157.77309 F2880
G0 X102.744 Y79.739 F7200
G1 X109.773 Y72.710 E157.93839 F2880
G0 X104.972 Y76.945 F7200
G1 X105.321 Y76.595 E157.94659 F2880
; ------------------------------------
; Layer #2
; ------------------------------------
G92 E0 ;reset extr
G0 F3000 E-1.00000
G0 F600 Z1.400
G0 X130.970 Y66.057 F7200
G0 F3000 E0.00000
;segType:HShell
G1 X163.967 Y99.054 E0.77604 F2880
G0 X164.531 Y99.306 F7200
;segType:Perimeter
G1 X164.796 Y100.061 E0.78934 F1440
G1 X164.411 Y105.186 E0.87481
G1 X163.254 Y110.258 E0.96132
G1 X161.354 Y115.099 E1.04782
G1 X158.753 Y119.604 E1.13431
G1 X155.510 Y123.670 E1.22080
G1 X151.698 Y127.208 E1.30729
G1 X147.400 Y130.138 E1.39380
G1 X142.714 Y132.394 E1.48029
G1 X137.744 Y133.928 E1.56679
G1 X132.601 Y134.703 E1.65329
G1 X127.399 Y134.703 E1.73978
G1 X122.256 Y133.928 E1.82628
G1 X117.286 Y132.394 E1.91278
G1 X112.600 Y130.138 E1.99927
G1 X108.302 Y127.208 E2.08577
G1 X104.490 Y123.670 E2.17227
G1 X101.247 Y119.604 E2.25876
G1 X98.646 Y115.099 E2.34526
G1 X96.746 Y110.258 E2.43175
G1 X95.589 Y105.187 E2.51825
G1 X95.200 Y100.000 E2.60475
G1 X95.589 Y94.813 E2.69125
G1 X96.746 Y89.742 E2.77774
G1 X98.646 Y84.901 E2.86424
G1 X101.247 Y80.396 E2.95074
G1 X104.490 Y76.330 E3.03724
G1 X108.302 Y72.792 E3.12373
G1 X112.600 Y69.862 E3.21022
G1 X117.286 Y67.606 E3.29672
G1 X122.256 Y66.072 E3.38322
G1 X127.399 Y65.297 E3.46971
G1 X132.601 Y65.297 E3.55621
G1 X137.744 Y66.073 E3.64271
G1 X142.714 Y67.606 E3.72920
G1 X147.401 Y69.863 E3.81571
G1 X151.697 Y72.791 E3.90218
G1 X155.510 Y76.330 E3.98870
G1 X158.753 Y80.396 E4.07518
G1 X161.354 Y84.902 E4.16170
G1 X163.254 Y89.743 E4.24819
G1 X164.411 Y94.812 E4.33465
G1 X164.796 Y99.942 E4.42020
G0 X164.796 Y100.061 F7200
G0 X164.676 Y101.657
G0 X164.319 Y101.068
;segType:Loop
G1 X164.015 Y105.127 E4.48789 F2880
G1 X162.871 Y110.139 E4.57338
G1 X160.992 Y114.925 E4.65888
G1 X158.421 Y119.378 E4.74440
G1 X155.216 Y123.398 E4.82989
G1 X151.448 Y126.894 E4.91538
G1 X147.200 Y129.790 E5.00088
G1 X142.567 Y132.021 E5.08638
G1 X137.654 Y133.536 E5.17188
G1 X132.571 Y134.303 E5.25738
G1 X127.429 Y134.303 E5.34288
G1 X122.346 Y133.536 E5.42838
G1 X117.432 Y132.021 E5.51389
G1 X112.800 Y129.790 E5.59938
G1 X108.552 Y126.894 E5.68488
G1 X104.784 Y123.397 E5.77038
G1 X101.578 Y119.378 E5.85588
G1 X99.008 Y114.925 E5.94138
G1 X97.129 Y110.139 E6.02688
G1 X95.985 Y105.127 E6.11238
G1 X95.601 Y100.000 E6.19788
G1 X95.985 Y94.873 E6.28338
G1 X97.129 Y89.861 E6.36888
G1 X99.008 Y85.075 E6.45438
G1 X101.578 Y80.622 E6.53988
G1 X104.784 Y76.602 E6.62539
G1 X108.552 Y73.106 E6.71086
G1 X112.800 Y70.210 E6.79637
G1 X117.432 Y67.979 E6.88187
G1 X122.345 Y66.464 E6.96737
G1 X127.430 Y65.697 E7.05288
G1 X132.571 Y65.697 E7.13837
G1 X137.654 Y66.463 E7.22386
G1 X142.568 Y67.979 E7.30938
G1 X147.200 Y70.210 E7.39488
G1 X151.446 Y73.104 E7.48033
G1 X155.216 Y76.603 E7.56586
G1 X158.422 Y80.623 E7.65137
G1 X160.993 Y85.076 E7.73688
G1 X162.871 Y89.861 E7.82237
G1 X164.014 Y94.872 E7.90785
G1 X164.399 Y100.001 E7.99338
G1 X164.334 Y100.869 E8.00786
G0 X163.921 Y98.443 F7200
;segType:HShell
G1 X131.536 Y66.057 E8.76951 F2880
G0 X132.101 Y66.057 F7200
G1 X163.875 Y97.831 E9.51678 F2880
G0 X163.829 Y97.220 F7200
G1 X132.689 Y66.079 E10.24916 F2880
G0 X133.355 Y66.180 F7200
G1 X163.783 Y96.608 E10.96479 F2880
G0 X163.738 Y95.997 F7200
G1 X134.021 Y66.280 E11.66368 F2880
G0 X134.687 Y66.380 F7200
G1 X163.692 Y95.385 E12.34582 F2880
G0 X163.616 Y94.743 F7200
G1 X135.353 Y66.481 E13.01051 F2880
G0 X136.019 Y66.581 F7200
G1 X163.448 Y94.010 E13.65560 F2880
G0 X163.281 Y93.277 F7200
G1 X136.685 Y66.682 E14.28109 F2880
G0 X137.351 Y66.782 F7200
G1 X163.114 Y92.544 E14.88698 F2880
G0 X162.946 Y91.811 F7200
G1 X138.119 Y66.984 E15.47089 F2880
G0 X138.937 Y67.236 F7200
G1 X162.779 Y91.078 E16.03163 F2880
G0 X162.612 Y90.345 F7200
G1 X139.755 Y67.488 E16.56919 F2880
G0 X140.573 Y67.741 F7200
G1 X162.349 Y89.516 E17.08132 F2880
G0 X161.983 Y88.585 F7200
G1 X141.391 Y67.993 E17.56562 F2880
G0 X142.209 Y68.245 F7200
G1 X161.618 Y87.654 E18.02209 F2880
G0 X161.252 Y86.723 F7200
G1 X143.224 Y68.695 E18.44609 F2880
G0 X144.315 Y69.221 F7200
G1 X160.887 Y85.792 E18.83582 F2880
G0 X160.359 Y84.698 F7200
G1 X145.407 Y69.746 E19.18748 F2880
G0 X146.498 Y70.272 F7200
G1 X159.586 Y83.360 E19.49530 F2880
G0 X158.814 Y82.022 F7200
G1 X147.947 Y71.155 E19.75086 F2880
G0 X130.404 Y66.057 F7200
G1 X164.013 Y99.666 E20.54128 F2880
G0 X164.020 Y100.239 F7200
G1 X129.839 Y66.057 E21.34518 F2880
G0 X129.273 Y66.057 F7200
G1 X163.981 Y100.765 E22.16145 F2880
G0 X163.941 Y101.291 F7200
G1 X128.707 Y66.057 E22.99010 F2880
G0 X128.142 Y66.057 F7200
G1 X163.902 Y101.818 E23.83112 F2880
G0 X163.862 Y102.344 F7200
G1 X127.576 Y66.057 E24.68452 F2880
G0 X127.069 Y66.116 F7200
G1 X163.823 Y102.870 E25.54892 F2880
G0 X163.783 Y103.396 F7200
G1 X126.577 Y66.190 E26.42395 F2880
G0 X126.085 Y66.264 F7200
G1 X163.744 Y103.922 E27.30962 F2880
G0 X163.704 Y104.449 F7200
G1 X125.594 Y66.338 E28.20592 F2880
G0 X125.102 Y66.412 F7200
G1 X163.665 Y104.975 E29.11285 F2880
G0 X163.572 Y105.448 F7200
G1 X124.611 Y66.486 E30.02916 F2880
G0 X124.119 Y66.560 F7200
G1 X163.467 Y105.908 E30.95456 F2880
G0 X163.362 Y106.369 F7200
G1 X123.627 Y66.635 E31.88905 F2880
G0 X123.136 Y66.709 F7200
G1 X163.257 Y106.829 E32.83263 F2880
G0 X163.152 Y107.290 F7200
G1 X122.644 Y66.783 E33.78530 F2880
G0 X122.186 Y66.890 F7200
G1 X163.046 Y107.751 E34.74628 F2880
G0 X162.941 Y108.211 F7200
G1 X121.753 Y67.023 E35.71496 F2880
G0 X121.321 Y67.156 F7200
G1 X162.836 Y108.672 E36.69134 F2880
G0 X162.731 Y109.132 F7200
G1 X120.889 Y67.290 E37.67540 F2880
G0 X120.456 Y67.423 F7200
G1 X162.626 Y109.593 E38.66717 F2880
G0 X162.518 Y110.051 F7200
G1 X120.024 Y67.557 E39.66657 F2880
G0 X119.592 Y67.690 F7200
G1 X162.359 Y110.457 E40.67239 F2880
G0 X162.199 Y110.863 F7200
G1 X119.159 Y67.823 E41.68463 F2880
G0 X118.727 Y67.957 F7200
G1 X162.040 Y111.270 E42.70328 F2880
G0 X161.881 Y111.676 F7200
G1 X118.295 Y68.090 E43.72836 F2880
G0 X117.862 Y68.223 F7200
G1 X161.721 Y112.082 E44.75985 F2880
G0 X161.562 Y112.488 F7200
G1 X117.446 Y68.372 E45.79739 F2880
G0 X117.064 Y68.556 F7200
G1 X161.402 Y112.895 E46.84016 F2880
G0 X161.243 Y113.301 F7200
G1 X116.682 Y68.740 E47.88816 F2880
G0 X116.300 Y68.924 F7200
G1 X161.083 Y113.707 E48.94139 F2880
G0 X160.924 Y114.113 F7200
G1 X115.918 Y69.108 E49.99985 F2880
G0 X115.537 Y69.292 F7200
G1 X160.765 Y114.520 E51.06354 F2880
G0 X160.587 Y114.907 F7200
G1 X115.155 Y69.476 E52.13203 F2880
G0 X114.773 Y69.659 F7200
G1 X160.380 Y115.266 E53.20462 F2880
G0 X160.173 Y115.625 F7200
G1 X114.391 Y69.843 E54.28133 F2880
G0 X114.009 Y70.027 F7200
G1 X159.966 Y115.983 E55.36215 F2880
G0 X159.758 Y116.342 F7200
G1 X113.628 Y70.211 E56.44707 F2880
G0 X113.246 Y70.395 F7200
G1 X159.551 Y116.701 E57.53611 F2880
G0 X159.344 Y117.059 F7200
G1 X112.878 Y70.593 E58.62893 F2880
G0 X112.542 Y70.822 F7200
G1 X159.137 Y117.418 E59.72479 F2880
G0 X158.930 Y117.776 F7200
G1 X112.205 Y71.051 E60.82369 F2880
G0 X111.869 Y71.281 F7200
G1 X158.723 Y118.135 E61.92564 F2880
G0 X158.516 Y118.494 F7200
G1 X111.532 Y71.510 E63.03062 F2880
G0 X111.196 Y71.739 F7200
G1 X158.309 Y118.852 E64.13865 F2880
G0 X158.098 Y119.207 F7200
G1 X110.860 Y71.969 E65.24961 F2880
G0 X110.523 Y72.198 F7200
G1 X157.847 Y119.521 E66.36258 F2880
G0 X157.596 Y119.836 F7200
G1 X110.187 Y72.427 E67.47756 F2880
G0 X109.851 Y72.657 F7200
G1 X157.345 Y120.151 E68.59455 F2880
G0 X157.094 Y120.465 F7200
G1 X109.514 Y72.886 E69.71354 F2880
G0 X109.178 Y73.115 F7200
G1 X156.843 Y120.780 E70.83454 F2880
G0 X156.592 Y121.095 F7200
G1 X108.842 Y73.345 E71.95755 F2880
G0 X108.540 Y73.609 F7200
G1 X156.341 Y121.409 E73.08175 F2880
G0 X156.090 Y121.724 F7200
G1 X108.246 Y73.881 E74.20695 F2880
G0 X107.953 Y74.153 F7200
G1 X155.839 Y122.039 E75.33315 F2880
G0 X155.588 Y122.354 F7200
G1 X107.660 Y74.426 E76.46034 F2880
G0 X107.366 Y74.698 F7200
G1 X155.337 Y122.668 E77.58853 F2880
G0 X155.086 Y122.983 F7200
G1 X107.073 Y74.970 E78.71772 F2880
G0 X106.779 Y75.242 F7200
G1 X154.815 Y123.278 E79.84745 F2880
G0 X154.522 Y123.550 F7200
G1 X106.486 Y75.515 E80.97717 F2880
G0 X106.193 Y75.787 F7200
G1 X154.228 Y123.823 E82.10689 F2880
G0 X153.935 Y124.095 F7200
G1 X105.899 Y76.059 E83.23661 F2880
G0 X105.606 Y76.331 F7200
G1 X153.641 Y124.367 E84.36633 F2880
G0 X153.348 Y124.639 F7200
G1 X105.312 Y76.604 E85.49606 F2880
G0 X105.023 Y76.880 F7200
G1 X153.055 Y124.912 E86.62568 F2880
G0 X152.761 Y125.184 F7200
G1 X104.772 Y77.195 E87.75430 F2880
G0 X104.521 Y77.510 F7200
G1 X152.468 Y125.456 E88.88193 F2880
G0 X152.174 Y125.728 F7200
G1 X104.270 Y77.824 E90.00855 F2880
G0 X104.019 Y78.139 F7200
G1 X151.881 Y126.001 E91.13419 F2880
G0 X151.588 Y126.273 F7200
G1 X103.768 Y78.454 E92.25882 F2880
G0 X103.517 Y78.769 F7200
G1 X151.294 Y126.545 E93.38245 F2880
G0 X150.968 Y126.785 F7200
G1 X103.266 Y79.083 E94.50433 F2880
G0 X103.015 Y79.398 F7200
G1 X150.632 Y127.014 E95.62419 F2880
G0 X150.296 Y127.244 F7200
G1 X102.765 Y79.713 E96.74205 F2880
G0 X102.514 Y80.027 F7200
G1 X149.959 Y127.473 E97.85789 F2880
G0 X149.623 Y127.702 F7200
G1 X102.263 Y80.342 E98.97173 F2880
G0 X102.012 Y80.657 F7200
G1 X149.286 Y127.932 E100.08356 F2880
G0 X148.950 Y128.161 F7200
G1 X101.781 Y80.992 E101.19291 F2880
G0 X101.574 Y81.350 F7200
G1 X148.614 Y128.390 E102.29922 F2880
G0 X148.277 Y128.620 F7200
G1 X101.367 Y81.709 E103.40248 F2880
G0 X101.160 Y82.068 F7200
G1 X147.941 Y128.849 E104.50270 F2880
G0 X147.605 Y129.078 F7200
G1 X100.953 Y82.426 E105.59988 F2880
G0 X100.746 Y82.785 F7200
G1 X147.268 Y129.308 E106.69402 F2880
G0 X146.920 Y129.525 F7200
G1 X100.539 Y83.144 E107.78484 F2880
G0 X100.332 Y83.502 F7200
G1 X146.538 Y129.709 E108.87156 F2880
G0 X146.156 Y129.893 F7200
G1 X100.124 Y83.861 E109.95416 F2880
G0 X99.917 Y84.220 F7200
G1 X145.775 Y130.077 E111.03265 F2880
G0 X145.393 Y130.261 F7200
G1 X99.710 Y84.578 E112.10703 F2880
G0 X99.503 Y84.937 F7200
G1 X145.011 Y130.444 E113.17731 F2880
G0 X144.629 Y130.628 F7200
G1 X99.305 Y85.304 E114.24327 F2880
G0 X99.145 Y85.710 F7200
G1 X144.247 Y130.812 E115.30400 F2880
G0 X143.866 Y130.996 F7200
G1 X98.986 Y86.116 E116.35950 F2880
G0 X98.826 Y86.523 F7200
G1 X143.484 Y131.180 E117.40977 F2880
G0 X143.102 Y131.364 F7200
G1 X98.667 Y86.929 E118.45482 F2880
G0 X98.508 Y87.335 F7200
G1 X142.720 Y131.548 E119.49463 F2880
G0 X142.326 Y131.719 F7200
G1 X98.348 Y87.741 E120.52891 F2880
G0 X98.189 Y88.148 F7200
G1 X141.893 Y131.852 E121.55677 F2880
G0 X141.461 Y131.985 F7200
G1 X98.029 Y88.554 E122.57822 F2880
G0 X97.870 Y88.960 F7200
G1 X141.029 Y132.119 E123.59325 F2880
G0 X140.596 Y132.252 F7200
G1 X97.710 Y89.366 E124.60185 F2880
G0 X97.551 Y89.773 F7200
G1 X140.164 Y132.386 E125.60404 F2880
G0 X139.732 Y132.519 F7200
G1 X97.420 Y90.207 E126.59915 F2880
G0 X97.315 Y90.668 F7200
G1 X139.299 Y132.652 E127.58656 F2880
G0 X138.867 Y132.786 F7200
G1 X97.210 Y91.128 E128.56628 F2880
G0 X97.104 Y91.589 F7200
G1 X138.435 Y132.919 E129.53830 F2880
G0 X138.002 Y133.052 F7200
G1 X96.999 Y92.049 E130.50262 F2880
G0 X96.894 Y92.510 F7200
G1 X137.569 Y133.185 E131.45924 F2880
G0 X137.078 Y133.259 F7200
G1 X96.789 Y92.971 E132.40677 F2880
G0 X96.684 Y93.431 F7200
G1 X136.586 Y133.333 E133.34521 F2880
G0 X136.095 Y133.407 F7200
G1 X96.579 Y93.892 E134.27457 F2880
G0 X96.474 Y94.352 F7200
G1 X135.603 Y133.481 E135.19482 F2880
G0 X135.111 Y133.556 F7200
G1 X96.369 Y94.813 E136.10600 F2880
G0 X96.313 Y95.323 F7200
G1 X134.620 Y133.630 E137.00693 F2880
G0 X134.128 Y133.704 F7200
G1 X96.273 Y95.849 E137.89722 F2880
G0 X96.234 Y96.375 F7200
G1 X133.637 Y133.778 E138.77687 F2880
G0 X133.145 Y133.852 F7200
G1 X96.194 Y96.901 E139.64589 F2880
G0 X96.155 Y97.428 F7200
G1 X132.653 Y133.926 E140.50427 F2880
G0 X132.104 Y133.943 F7200
G1 X96.116 Y97.954 E141.35068 F2880
G0 X96.076 Y98.480 F7200
G1 X131.539 Y133.943 E142.18469 F2880
G0 X130.973 Y133.943 F7200
G1 X96.037 Y99.006 E143.00633 F2880
G0 X95.997 Y99.533 F7200
G1 X130.407 Y133.943 E143.81560 F2880
G0 X129.841 Y133.943 F7200
G1 X95.967 Y100.068 E144.61227 F2880
G0 X96.013 Y100.680 F7200
G1 X129.276 Y133.943 E145.39456 F2880
G0 X128.710 Y133.943 F7200
G1 X96.059 Y101.291 E146.16246 F2880
G0 X96.105 Y101.903 F7200
G1 X128.144 Y133.943 E146.91599 F2880
G0 X127.579 Y133.943 F7200
G1 X96.151 Y102.514 E147.65512 F2880
G0 X96.197 Y103.126 F7200
G1 X126.934 Y133.864 E148.37802 F2880
G0 X126.268 Y133.764 F7200
G1 X96.242 Y103.738 E149.08418 F2880
G0 X96.288 Y104.349 F7200
G1 X125.602 Y133.663 E149.77361 F2880
G0 X124.936 Y133.563 F7200
G1 X96.334 Y104.961 E150.44629 F2880
G0 X96.479 Y105.671 F7200
G1 X124.270 Y133.462 E151.09990 F2880
G0 X123.604 Y133.362 F7200
G1 X96.646 Y106.404 E151.73390 F2880
G0 X96.814 Y107.137 F7200
G1 X122.938 Y133.262 E152.34831 F2880
G0 X122.237 Y133.126 F7200
G1 X96.981 Y107.870 E152.94229 F2880
G0 X97.148 Y108.603 F7200
G1 X121.419 Y132.874 E153.51309 F2880
G0 X120.601 Y132.621 F7200
G1 X97.316 Y109.336 E154.06073 F2880
G0 X97.493 Y110.079 F7200
G1 X119.783 Y132.369 E154.58496 F2880
G0 X118.965 Y132.117 F7200
G1 X97.858 Y111.010 E155.08136 F2880
G0 X98.223 Y111.941 F7200
G1 X118.147 Y131.864 E155.54993 F2880
G0 X117.250 Y131.533 F7200
G1 X98.589 Y112.872 E155.98880 F2880
G0 X98.954 Y113.803 F7200
G1 X116.159 Y131.008 E156.39342 F2880
G0 X115.068 Y130.482 F7200
G1 X99.320 Y114.735 E156.76378 F2880
G0 X100.078 Y116.058 F7200
G1 X113.976 Y129.957 E157.09065 F2880
G0 X112.825 Y129.371 F7200
G1 X100.850 Y117.397 E157.37228 F2880
G0 X101.623 Y118.735 F7200
G1 X111.048 Y128.159 E157.59393 F2880
G0 X109.270 Y126.947 F7200
G1 X103.374 Y121.051 E157.73260 F2880
G0 F3000 E156.73260
G0 X103.123 Y121.314 F7200
G0 X149.976 Y72.102
G0 X149.724 Y72.366
G0 F3000 E157.73260
G1 X157.886 Y80.528 E157.92456 F2880
G0 X155.659 Y77.735 F7200
G1 X152.459 Y74.536 E157.99980 F2880
; ------------------------------------
; Layer #3
; ------------------------------------
G92 E0 ;reset extr
G0 F3000 E-1.00000
G0 F600 Z1.500
G0 X129.433 Y133.943 F7200
G0 F3000 E0.00000
;segType:HShell
G1 X163.992 Y99.384 E0.81277 F2880
G0 X164.531 Y99.306 F7200
;segType:Perimeter
G1 X164.796 Y100.061 E0.82607 F1440
G1 X164.411 Y105.186 E0.91154
G1 X163.254 Y110.258 E0.99805
G1 X161.354 Y115.099 E1.08455
G1 X158.753 Y119.604 E1.17104
G1 X155.510 Y123.670 E1.25753
G1 X151.698 Y127.208 E1.34403
G1 X147.400 Y130.138 E1.43053
G1 X142.714 Y132.394 E1.51702
G1 X137.744 Y133.928 E1.60352
G1 X132.601 Y134.703 E1.69002
G1 X127.399 Y134.703 E1.77651
G1 X122.256 Y133.928 E1.86301
G1 X117.286 Y132.394 E1.94951
G1 X112.600 Y130.138 E2.03601
G1 X108.302 Y127.208 E2.12250
G1 X104.490 Y123.670 E2.20900
G1 X101.247 Y119.604 E2.29549
G1 X98.646 Y115.099 E2.38199
G1 X96.746 Y110.258 E2.46848
G1 X95.589 Y105.187 E2.55498
G1 X95.200 Y100.000 E2.64148
G1 X95.589 Y94.813 E2.72798
G1 X96.746 Y89.742 E2.81448
G1 X98.646 Y84.901 E2.90097
G1 X101.247 Y80.396 E2.98747
G1 X104.490 Y76.330 E3.07397
G1 X108.302 Y72.792 E3.16046
G1 X112.600 Y69.862 E3.24695
G1 X117.286 Y67.606 E3.33345
G1 X122.256 Y66.072 E3.41995
G1 X127.399 Y65.297 E3.50644
G1 X132.601 Y65.297 E3.59294
G1 X137.744 Y66.073 E3.67945
G1 X142.714 Y67.606 E3.76593
G1 X147.401 Y69.863 E3.85244
G1 X151.697 Y72.791 E3.93891
G1 X155.510 Y76.330 E4.02543
G1 X158.753 Y80.396 E4.11192
G1 X161.354 Y84.902 E4.19843
G1 X163.254 Y89.743 E4.28492
G1 X164.411 Y94.812 E4.37139
G1 X164.796 Y99.942 E4.45693
G0 X164.796 Y100.061 F7200
G0 X164.676 Y101.657
G0 X164.319 Y101.068
;segType:Loop
G1 X164.015 Y105.127 E4.52462 F2880
G1 X162.871 Y110.139 E4.61011
G1 X160.992 Y114.925 E4.69562
G1 X158.421 Y119.378 E4.78113
G1 X155.216 Y123.398 E4.86662
G1 X151.448 Y126.894 E4.95211
G1 X147.200 Y129.790 E5.03761
G1 X142.567 Y132.021 E5.12311
G1 X137.654 Y133.536 E5.20861
G1 X132.571 Y134.303 E5.29411
G1 X127.429 Y134.303 E5.37961
G1 X122.346 Y133.536 E5.46511
G1 X117.432 Y132.021 E5.55062
G1 X112.800 Y129.790 E5.63611
G1 X108.552 Y126.894 E5.72161
G1 X104.784 Y123.397 E5.80711
G1 X101.578 Y119.378 E5.89261
G1 X99.008 Y114.925 E5.97811
G1 X97.129 Y110.139 E6.06361
G1 X95.985 Y105.127 E6.14911
G1 X95.601 Y100.000 E6.23461
G1 X95.985 Y94.873 E6.32011
G1 X97.129 Y89.861 E6.40561
G1 X99.008 Y85.075 E6.49111
G1 X101.578 Y80.622 E6.57661
G1 X104.784 Y76.602 E6.66212
G1 X108.552 Y73.106 E6.74759
G1 X112.800 Y70.210 E6.83310
G1 X117.432 Y67.979 E6.91860
G1 X122.345 Y66.464 E7.00410
G1 X127.430 Y65.697 E7.08962
G1 X132.571 Y65.697 E7.17510
G1 X137.654 Y66.463 E7.26059
G1 X142.568 Y67.979 E7.34611
G1 X147.200 Y70.210 E7.43161
G1 X151.446 Y73.104 E7.51707
G1 X155.216 Y76.603 E7.60259
G1 X158.422 Y80.623 E7.68810
G1 X160.993 Y85.076 E7.77362
G1 X162.871 Y89.861 E7.85910
G1 X164.014 Y94.872 E7.94458
G1 X164.399 Y100.001 E8.03011
G1 X164.334 Y100.869 E8.04459
G0 X164.031 Y99.910 F7200
;segType:HShell
G1 X129.999 Y133.943 E8.84498 F2880
G0 X130.564 Y133.943 F7200
G1 X164.000 Y100.507 E9.63134 F2880
G0 X163.954 Y101.118 F7200
G1 X131.130 Y133.943 E10.40332 F2880
G0 X131.696 Y133.943 F7200
G1 X163.908 Y101.730 E11.16091 F2880
G0 X163.862 Y102.341 F7200
G1 X132.261 Y133.943 E11.90412 F2880
G0 X132.877 Y133.892 F7200
G1 X163.817 Y102.953 E12.63176 F2880
G0 X163.771 Y103.565 F7200
G1 X133.543 Y133.792 E13.34266 F2880
G0 X134.209 Y133.692 F7200
G1 X163.725 Y104.176 E14.03682 F2880
G0 X163.679 Y104.788 F7200
G1 X134.875 Y133.591 E14.71423 F2880
G0 X135.542 Y133.491 F7200
G1 X163.568 Y105.464 E15.37338 F2880
G0 X163.401 Y106.197 F7200
G1 X136.208 Y133.390 E16.01292 F2880
G0 X136.874 Y133.290 F7200
G1 X163.234 Y106.930 E16.63287 F2880
G0 X163.066 Y107.663 F7200
G1 X137.540 Y133.190 E17.23321 F2880
G0 X138.350 Y132.945 F7200
G1 X162.899 Y108.396 E17.81057 F2880
G0 X162.732 Y109.129 F7200
G1 X139.168 Y132.693 E18.36475 F2880
G0 X139.986 Y132.440 F7200
G1 X162.565 Y109.862 E18.89576 F2880
G0 X162.245 Y110.747 F7200
G1 X140.804 Y132.188 E19.40003 F2880
G0 X141.622 Y131.936 F7200
G1 X161.880 Y111.678 E19.87646 F2880
G0 X161.514 Y112.609 F7200
G1 X142.442 Y131.682 E20.32502 F2880
G0 X143.533 Y131.156 F7200
G1 X161.149 Y113.540 E20.73933 F2880
G0 X160.784 Y114.471 F7200
G1 X144.624 Y130.631 E21.11937 F2880
G0 X128.867 Y133.943 F7200
G1 X163.952 Y98.858 E21.94452 F2880
G0 X163.913 Y98.331 F7200
G1 X128.301 Y133.943 E22.78204 F2880
G0 X127.736 Y133.943 F7200
G1 X163.873 Y97.805 E23.63194 F2880
G0 X163.834 Y97.279 F7200
G1 X127.208 Y133.905 E24.49333 F2880
G0 X126.716 Y133.831 F7200
G1 X163.794 Y96.753 E25.36535 F2880
G0 X163.755 Y96.226 F7200
G1 X126.224 Y133.757 E26.24801 F2880
G0 X125.733 Y133.683 F7200
G1 X163.715 Y95.700 E27.14130 F2880
G0 X163.676 Y95.174 F7200
G1 X125.241 Y133.609 E28.04523 F2880
G0 X124.750 Y133.535 F7200
G1 X163.602 Y94.683 E28.95897 F2880
G0 X163.497 Y94.222 F7200
G1 X124.258 Y133.461 E29.88180 F2880
G0 X123.766 Y133.386 F7200
G1 X163.392 Y93.761 E30.81372 F2880
G0 X163.286 Y93.301 F7200
G1 X123.275 Y133.312 E31.75473 F2880
G0 X122.783 Y133.238 F7200
G1 X163.181 Y92.840 E32.70483 F2880
G0 X163.076 Y92.380 F7200
G1 X122.308 Y133.148 E33.66363 F2880
G0 X121.876 Y133.015 F7200
G1 X162.971 Y91.919 E34.63014 F2880
G0 X162.866 Y91.459 F7200
G1 X121.443 Y132.881 E35.60433 F2880
G0 X121.011 Y132.748 F7200
G1 X162.761 Y90.998 E36.58622 F2880
G0 X162.656 Y90.537 F7200
G1 X120.579 Y132.615 E37.57581 F2880
G0 X120.146 Y132.481 F7200
G1 X162.551 Y90.077 E38.57310 F2880
G0 X162.404 Y89.658 F7200
G1 X119.714 Y132.348 E39.57710 F2880
G0 X119.282 Y132.214 F7200
G1 X162.245 Y89.251 E40.58753 F2880
G0 X162.085 Y88.845 F7200
G1 X118.849 Y132.081 E41.60437 F2880
G0 X118.417 Y131.948 F7200
G1 X161.926 Y88.439 E42.62763 F2880
G0 X161.766 Y88.033 F7200
G1 X117.985 Y131.814 E43.65731 F2880
G0 X117.554 Y131.680 F7200
G1 X161.607 Y87.626 E44.69338 F2880
G0 X161.447 Y87.220 F7200
G1 X117.172 Y131.496 E45.73467 F2880
G0 X116.790 Y131.312 F7200
G1 X161.288 Y86.814 E46.78120 F2880
G0 X161.129 Y86.408 F7200
G1 X116.408 Y131.128 E47.83295 F2880
G0 X116.026 Y130.944 F7200
G1 X160.969 Y86.001 E48.88993 F2880
G0 X160.810 Y85.595 F7200
G1 X115.645 Y130.760 E49.95215 F2880
G0 X115.263 Y130.576 F7200
G1 X160.645 Y85.194 E51.01947 F2880
G0 X160.438 Y84.835 F7200
G1 X114.881 Y130.393 E52.09090 F2880
G0 X114.499 Y130.209 F7200
G1 X160.231 Y84.477 E53.16645 F2880
G0 X160.024 Y84.118 F7200
G1 X114.117 Y130.025 E54.24610 F2880
G0 X113.736 Y129.841 F7200
G1 X159.817 Y83.760 E55.32986 F2880
G0 X159.610 Y83.401 F7200
G1 X113.354 Y129.657 E56.41773 F2880
G0 X112.973 Y129.472 F7200
G1 X159.403 Y83.042 E57.50969 F2880
G0 X159.196 Y82.684 F7200
G1 X112.637 Y129.243 E58.60469 F2880
G0 X112.300 Y129.013 F7200
G1 X158.989 Y82.325 E59.70273 F2880
G0 X158.782 Y81.966 F7200
G1 X111.964 Y128.784 E60.80382 F2880
G0 X111.628 Y128.555 F7200
G1 X158.575 Y81.608 E61.90794 F2880
G0 X158.368 Y81.249 F7200
G1 X111.291 Y128.325 E63.01510 F2880
G0 X110.955 Y128.096 F7200
G1 X158.161 Y80.890 E64.12531 F2880
G0 X157.917 Y80.568 F7200
G1 X110.618 Y127.867 E65.23770 F2880
G0 X110.282 Y127.638 F7200
G1 X157.666 Y80.253 E66.35211 F2880
G0 X157.416 Y79.938 F7200
G1 X109.946 Y127.408 E67.46853 F2880
G0 X109.609 Y127.179 F7200
G1 X157.165 Y79.624 E68.58695 F2880
G0 X156.914 Y79.309 F7200
G1 X109.273 Y126.950 E69.70738 F2880
G0 X108.937 Y126.720 F7200
G1 X156.663 Y78.994 E70.82983 F2880
G0 X156.412 Y78.680 F7200
G1 X108.623 Y126.468 E71.95375 F2880
G0 X108.330 Y126.196 F7200
G1 X156.161 Y78.365 E73.07866 F2880
G0 X155.910 Y78.050 F7200
G1 X108.036 Y125.924 E74.20458 F2880
G0 X107.743 Y125.651 F7200
G1 X155.659 Y77.735 E75.33148 F2880
G0 X155.408 Y77.421 F7200
G1 X107.449 Y125.379 E76.45939 F2880
G0 X107.156 Y125.107 F7200
G1 X155.157 Y77.106 E77.58830 F2880
G0 X154.898 Y76.799 F7200
G1 X106.862 Y124.835 E78.71802 F2880
G0 X106.569 Y124.562 F7200
G1 X154.605 Y76.527 E79.84774 F2880
G0 X154.311 Y76.254 F7200
G1 X106.276 Y124.290 E80.97747 F2880
G0 X105.982 Y124.018 F7200
G1 X154.018 Y75.982 E82.10719 F2880
G0 X153.724 Y75.710 F7200
G1 X105.689 Y123.746 E83.23691 F2880
G0 X105.395 Y123.473 F7200
G1 X153.431 Y75.438 E84.36663 F2880
G0 X153.138 Y75.165 F7200
G1 X105.102 Y123.201 E85.49635 F2880
G0 X104.843 Y122.894 F7200
G1 X152.844 Y74.893 E86.62526 F2880
G0 X152.551 Y74.621 F7200
G1 X104.592 Y122.579 E87.75317 F2880
G0 X104.341 Y122.265 F7200
G1 X152.257 Y74.349 E88.88008 F2880
G0 X151.964 Y74.076 F7200
G1 X104.090 Y121.950 E90.00600 F2880
G0 X103.839 Y121.635 F7200
G1 X151.671 Y73.804 E91.13091 F2880
G0 X151.377 Y73.532 F7200
G1 X103.588 Y121.320 E92.25483 F2880
G0 X103.337 Y121.006 F7200
G1 X151.064 Y73.280 E93.37727 F2880
G0 X150.727 Y73.050 F7200
G1 X103.086 Y120.691 E94.49771 F2880
G0 X102.835 Y120.376 F7200
G1 X150.391 Y72.821 E95.61614 F2880
G0 X150.054 Y72.592 F7200
G1 X102.584 Y120.062 E96.73256 F2880
G0 X102.333 Y119.747 F7200
G1 X149.718 Y72.362 E97.84697 F2880
G0 X149.382 Y72.133 F7200
G1 X102.083 Y119.432 E98.95937 F2880
G0 X101.839 Y119.110 F7200
G1 X149.045 Y71.904 E100.06958 F2880
G0 X148.709 Y71.674 F7200
G1 X101.632 Y118.751 E101.17675 F2880
G0 X101.425 Y118.392 F7200
G1 X148.373 Y71.445 E102.28088 F2880
G0 X148.036 Y71.216 F7200
G1 X101.218 Y118.034 E103.38196 F2880
G0 X101.011 Y117.675 F7200
G1 X147.700 Y70.987 E104.48000 F2880
G0 X147.363 Y70.757 F7200
G1 X100.804 Y117.316 E105.57500 F2880
G0 X100.597 Y116.958 F7200
G1 X147.027 Y70.528 E106.66696 F2880
G0 X146.646 Y70.343 F7200
G1 X100.390 Y116.599 E107.75484 F2880
G0 X100.183 Y116.241 F7200
G1 X146.264 Y70.159 E108.83860 F2880
G0 X145.883 Y69.975 F7200
G1 X99.976 Y115.882 E109.91825 F2880
G0 X99.769 Y115.523 F7200
G1 X145.501 Y69.791 E110.99380 F2880
G0 X145.119 Y69.608 F7200
G1 X99.562 Y115.165 E112.06523 F2880
G0 X99.355 Y114.806 F7200
G1 X144.737 Y69.424 E113.13255 F2880
G0 X144.355 Y69.240 F7200
G1 X99.190 Y114.405 E114.19476 F2880
G0 X99.031 Y113.999 F7200
G1 X143.974 Y69.056 E115.25175 F2880
G0 X143.592 Y68.872 F7200
G1 X98.871 Y113.592 E116.30350 F2880
G0 X98.712 Y113.186 F7200
G1 X143.210 Y68.688 E117.35002 F2880
G0 X142.828 Y68.504 F7200
G1 X98.553 Y112.780 E118.39131 F2880
G0 X98.393 Y112.374 F7200
G1 X142.446 Y68.320 E119.42738 F2880
G0 X142.015 Y68.186 F7200
G1 X98.234 Y111.967 E120.45705 F2880
G0 X98.074 Y111.561 F7200
G1 X141.583 Y68.052 E121.48032 F2880
G0 X141.151 Y67.919 F7200
G1 X97.915 Y111.155 E122.49715 F2880
G0 X97.755 Y110.749 F7200
G1 X140.718 Y67.786 E123.50758 F2880
G0 X140.286 Y67.652 F7200
G1 X97.596 Y110.342 E124.51158 F2880
G0 X97.449 Y109.923 F7200
G1 X139.854 Y67.519 E125.50887 F2880
G0 X139.421 Y67.385 F7200
G1 X97.344 Y109.463 E126.49845 F2880
G0 X97.239 Y109.002 F7200
G1 X138.989 Y67.252 E127.48035 F2880
G0 X138.557 Y67.119 F7200
G1 X97.134 Y108.541 E128.45454 F2880
G0 X97.029 Y108.081 F7200
G1 X138.124 Y66.985 E129.42105 F2880
G0 X137.692 Y66.852 F7200
G1 X96.924 Y107.620 E130.37985 F2880
G0 X96.819 Y107.160 F7200
G1 X137.217 Y66.762 E131.32996 F2880
G0 X136.725 Y66.688 F7200
G1 X96.714 Y106.699 E132.27097 F2880
G0 X96.609 Y106.239 F7200
G1 X136.234 Y66.614 E133.20288 F2880
G0 X135.742 Y66.539 F7200
G1 X96.503 Y105.778 E134.12572 F2880
G0 X96.398 Y105.317 F7200
G1 X135.250 Y66.465 E135.03946 F2880
G0 X134.759 Y66.391 F7200
G1 X96.324 Y104.826 E135.94339 F2880
G0 X96.285 Y104.300 F7200
G1 X134.267 Y66.317 E136.83669 F2880
G0 X133.776 Y66.243 F7200
G1 X96.245 Y103.774 E137.71935 F2880
G0 X96.206 Y103.247 F7200
G1 X133.284 Y66.169 E138.59137 F2880
G0 X132.792 Y66.095 F7200
G1 X96.166 Y102.721 E139.45276 F2880
G0 X96.127 Y102.195 F7200
G1 X132.264 Y66.057 E140.30266 F2880
G0 X131.699 Y66.057 F7200
G1 X96.087 Y101.669 E141.14018 F2880
G0 X96.048 Y101.142 F7200
G1 X131.133 Y66.057 E141.96533 F2880
G0 X130.567 Y66.057 F7200
G1 X96.008 Y100.616 E142.77811 F2880
G0 X95.969 Y100.090 F7200
G1 X130.001 Y66.057 E143.57851 F2880
G0 X129.436 Y66.057 F7200
G1 X96.000 Y99.493 E144.36487 F2880
G0 X96.046 Y98.882 F7200
G1 X128.870 Y66.057 E145.13684 F2880
G0 X128.304 Y66.057 F7200
G1 X96.092 Y98.270 E145.89442 F2880
G0 X96.138 Y97.658 F7200
G1 X127.739 Y66.057 E146.63763 F2880
G0 X127.123 Y66.108 F7200
G1 X96.184 Y97.047 E147.36528 F2880
G0 X96.229 Y96.435 F7200
G1 X126.457 Y66.208 E148.07617 F2880
G0 X125.790 Y66.309 F7200
G1 X96.275 Y95.824 E148.77032 F2880
G0 X96.321 Y95.212 F7200
G1 X125.124 Y66.409 E149.44774 F2880
G0 X124.458 Y66.509 F7200
G1 X96.432 Y94.536 E150.10689 F2880
G0 X96.599 Y93.803 F7200
G1 X123.792 Y66.610 E150.74643 F2880
G0 X123.126 Y66.710 F7200
G1 X96.766 Y93.070 E151.36638 F2880
G0 X96.934 Y92.337 F7200
G1 X122.460 Y66.810 E151.96672 F2880
G0 X121.650 Y67.055 F7200
G1 X97.101 Y91.604 E152.54408 F2880
